P3
250 250
255
187 210 107
68 90 78
52 225 157
183 110 166
82 221 60
80 38 207
236 45 177
131 39 252
223 111 161
135 65 94
53 200 33
11 42 204
107 53 251
180 60 64
10 247 46
35 101 74
53 32 177
71 159 16
75 88 142
79 36 88
125 117 153
128 36 122
32 158 210
121 11 147
20 22 224
42 40 215
105 188 58
107 109 59
72 153 229
130 59 251
245 37 17
157 1 139
30 48 191
132 211 240
1 65 118
220 41 194
204 245 119
186 33 140
180 234 163
97 215 120
11 34 41
207 250 124
28 116 14
79 61 123
22 68 128
117 93 76
215 123 12
204 196 71
123 238 96
237 135 121
5 46 198
7 26 234
28 11 33
58 151 143
147 54 164
115 174 220
99 178 40
68 58 125
8 92 253
150 11 144
180 201 214
137 222 253
226 192 61
21 200 81
1 59 130
151 111 205
183 152 72
110 155 62
143 128 124
102 1 150
21 209 202
16 186 225
99 242 103
204 6 187
209 31 53
177 137 61
73 122 74
186 113 116
241 192 169
160 225 71
2 25 35
228 78 90
159 8 138
227 75 192
135 116 252
128 195 103
113 240 233
115 24 77
101 204 180
214 135 251
251 83 34
91 30 50
43 141 251
188 174 98
119 128 51
135 17 193
94 226 66
54 237 133
87 74 208
147 174 62
141 5 147
212 165 47
49 212 45
223 70 182
77 22 26
36 222 17
86 169 94
191 202 193
82 211 68
35 3 122
238 233 132
4 242 134
245 248 204
155 133 94
252 159 8
56 36 121
197 3 27
107 59 44
157 252 123
82 29 186
112 195 72
127 26 18
106 155 160
177 36 138
74 231 160
21 165 23
201 127 132
34 50 180
22 237 145
134 50 76
35 106 49
200 208 90
92 31 77
184 212 103
49 90 244
177 180 41
15 149 133
234 159 133
111 35 177
89 190 174
159 95 31
125 0 245
229 10 66
109 115 244
105 187 174
244 98 66
193 226 210
169 147 164
125 155 173
201 243 91
5 123 85
252 91 52
61 202 165
78 162 20
184 223 85
99 157 250
211 117 214
187 163 220
117 74 230
164 73 176
105 242 133
39 69 233
163 193 109
220 242 32
184 252 124
249 55 167
193 63 111
251 129 160
213 79 240
170 139 181
37 82 191
50 39 30
198 66 78
79 184 83
245 168 167
103 34 182
206 101 35
73 62 216
89 245 100
49 141 75
252 183 38
29 73 66
19 130 22
241 48 121
105 234 24
199 241 231
145 128 128
142 15 212
46 99 243
143 235 74
25 228 178
229 55 116
254 222 57
168 82 59
164 205 240
243 10 142
1 97 55
52 87 40
147 209 143
73 240 56
48 116 166
226 133 211
196 48 249
212 74 28
254 51 137
82 98 81
62 68 160
146 1 35
254 203 134
99 24 8
238 47 21
156 8 103
53 227 192
154 249 136
188 153 3
197 66 127
118 126 108
227 128 136
227 145 199
166 126 96
98 116 19
164 166 199
89 196 227
207 33 115
97 114 75
146 42 174
180 190 136
132 143 26
55 37 214
184 167 249
217 213 107
182 134 190
145 10 117
133 151 36
94 236 183
155 242 44
36 129 76
242 152 5
229 204 59
160 86 69
182 154 183
130 146 73
245 153 167
142 127 102
59 192 247
46 39 38
246 64 131
34 246 110
74 180 116
142 233 133
98 89 50
241 123 89
32 126 17
192 221 147
91 85 29
219 237 209
254 194 92
219 191 202
40 249 228
219 0 172
3 50 252
137 250 125
78 3 187
246 14 55
80 106 50
121 111 127
71 104 177
58 238 193
54 137 86
209 213 213
149 164 43
217 47 222
23 79 27
90 114 172
163 242 187
123 113 169
199 5 12
115 87 229
186 229 163
192 123 164
44 19 131
41 235 2
131 86 45
138 20 110
55 106 16
94 130 190
75 116 34
158 204 107
42 56 20
242 44 37
22 151 29
24 93 33
47 7 138
96 139 234
43 3 222
208 147 87
170 67 51
152 219 210
151 184 136
177 16 70
216 65 43
194 126 125
122 38 72
23 87 98
163 60 153
17 34 82
114 48 220
44 99 138
56 248 4
61 118 234
136 113 146
242 63 177
204 111 117
7 232 53
2 181 136
96 91 66
31 55 244
45 231 175
88 242 92
188 44 75
153 142 156
57 43 235
92 101 168
46 172 199
171 56 165
39 244 76
49 247 87
29 232 138
61 22 211
48 212 160
44 40 62
220 45 24
212 176 19
207 86 141
196 29 11
201 227 119
68 136 31
194 48 112
158 245 243
192 218 80
13 120 39
145 81 167
97 59 38
28 116 91
187 245 164
241 105 234
220 219 248
180 108 110
114 247 106
16 68 31
182 26 89
236 66 53
231 88 162
4 28 93
24 99 102
227 119 101
10 235 186
253 55 127
166 114 75
74 37 112
141 57 242
131 239 124
166 53 183
231 32 136
21 243 25
54 134 104
43 200 149
244 41 123
199 47 28
1 205 210
171 160 80
168 227 59
107 245 2
169 28 230
203 145 85
181 148 153
238 166 244
37 24 0
214 98 150
30 98 251
236 81 94
157 52 27
27 161 73
254 134 157
147 120 218
156 3 78
47 70 151
214 74 177
130 93 247
186 182 56
80 123 132
90 33 218
130 212 117
201 236 16
106 144 65
210 200 91
170 185 13
229 157 198
229 223 168
173 68 251
91 126 4
203 207 85
93 190 39
42 12 252
155 118 229
116 235 67
209 52 59
203 91 154
191 212 200
80 67 105
246 20 94
8 220 107
114 126 1
33 182 6
68 57 129
83 183 48
126 39 249
191 8 167
198 246 98
245 54 218
238 218 79
226 61 124
253 14 111
100 249 209
229 230 191
44 171 25
160 159 8
242 6 76
200 72 131
132 13 51
51 8 171
33 18 63
23 153 207
27 178 107
191 18 15
94 232 188
12 19 230
18 59 46
129 89 153
251 199 62
235 39 140
152 222 174
7 112 177
48 254 174
135 203 72
25 175 20
237 2 122
220 212 73
238 242 58
31 119 228
77 147 78
132 209 254
206 73 120
52 117 166
124 153 160
145 146 142
233 192 190
201 48 231
182 252 159
240 193 6
199 246 84
105 41 141
84 223 169
13 55 187
240 117 251
219 19 155
157 147 3
179 144 147
204 248 94
89 105 107
109 170 82
252 157 152
147 27 171
23 0 104
23 43 210
170 243 48
215 29 239
55 229 79
93 20 81
167 34 123
145 58 89
96 192 149
113 107 201
153 52 179
196 30 110
29 114 102
35 0 76
160 16 129
160 137 97
179 37 225
219 119 252
72 226 44
36 48 25
163 171 9
140 118 82
197 25 29
197 221 135
236 178 126
139 235 99
107 158 16
146 232 104
84 184 21
171 197 111
22 228 115
62 126 151
87 227 199
119 172 108
219 229 199
47 232 115
227 5 22
217 120 71
79 42 140
113 52 154
29 120 221
166 4 39
33 252 129
152 102 237
193 37 61
72 154 76
226 219 76
1 57 155
114 87 0
7 143 124
75 217 210
124 118 52
114 52 46
166 208 119
49 98 68
86 241 119
160 247 67
221 250 114
28 177 180
182 183 103
192 206 150
214 187 27
162 232 203
211 117 69
217 103 144
193 17 9
128 7 71
129 182 21
57 157 25
173 173 193
133 184 118
132 102 195
225 86 246
163 150 27
218 202 226
53 62 250
121 105 2
199 179 160
62 36 198
231 29 99
126 182 207
110 251 91
29 151 3
150 221 71
202 192 88
111 230 17
202 130 67
72 163 212
190 108 44
46 211 89
173 237 120
54 78 125
143 55 50
140 145 38
147 58 82
162 247 46
147 15 23
78 166 154
165 136 240
228 39 92
7 34 221
167 39 73
15 94 229
158 175 31
48 181 171
229 143 190
218 69 75
168 218 92
209 121 222
131 139 104
173 218 250
19 216 53
70 216 240
144 37 60
54 147 60
88 139 187
212 58 54
57 164 184
33 43 100
161 56 42
3 63 14
218 60 162
221 248 69
50 43 148
104 95 121
110 191 132
236 171 235
92 81 207
234 2 200
62 243 116
174 164 124
17 235 17
79 233 189
156 74 10
196 112 190
250 191 250
126 151 221
172 143 144
9 21 28
38 4 157
9 245 211
94 212 107
63 53 167
167 224 142
44 245 154
46 170 37
228 71 236
206 190 186
239 231 204
87 106 47
216 211 161
208 204 9
155 64 211
5 176 61
190 254 121
239 94 90
163 154 87
164 180 206
71 212 176
21 161 170
189 10 163
114 46 207
82 23 21
101 73 64
72 48 231
226 113 86
19 134 21
56 28 41
180 31 0
123 107 240
31 102 47
5 19 11
19 101 50
193 55 19
20 44 191
171 253 116
8 108 148
201 93 130
72 49 124
169 198 55
170 246 242
164 141 214
40 55 43
37 205 5
46 231 123
18 94 124
182 47 230
87 140 189
79 158 136
87 82 64
204 146 111
72 92 68
92 149 187
18 66 201
154 160 89
228 27 189
93 149 92
213 106 34
125 127 51
89 27 129
176 148 26
27 44 38
174 233 81
64 247 58
25 173 161
152 77 110
99 0 235
139 206 109
162 59 187
47 67 32
212 82 195
189 6 99
74 122 83
124 86 181
90 83 229
84 254 181
207 206 151
172 41 26
126 189 85
118 239 244
46 7 155
182 109 184
191 3 166
81 71 38
11 186 55
135 80 224
230 132 222
51 206 30
46 156 114
84 120 7
150 248 150
68 107 91
194 227 200
21 142 216
26 87 193
118 180 127
245 156 155
211 166 46
246 47 132
23 196 131
186 137 2
232 149 178
211 50 15
130 246 182
200 103 239
194 128 246
78 236 104
244 247 184
13 178 77
66 40 46
35 223 252
252 85 119
53 81 119
243 205 188
243 12 140
242 128 94
129 44 81
130 43 122
231 12 42
156 103 59
13 45 209
193 209 65
137 217 242
66 14 150
178 29 188
58 4 151
153 229 180
234 97 246
185 98 238
230 71 167
44 130 152
1 37 199
3 159 107
200 195 79
225 91 161
147 163 109
209 22 26
89 59 107
118 8 126
133 32 173
101 118 87
5 37 59
8 210 14
191 156 131
141 96 83
195 52 242
79 210 136
82 246 251
109 73 89
116 92 223
38 129 56
140 249 178
1 18 248
134 160 178
17 201 171
5 86 22
183 115 184
30 49 83
184 211 210
5 41 127
167 148 62
76 165 86
245 129 236
223 9 204
161 105 19
99 237 112
111 219 47
49 46 134
198 197 249
172 173 3
90 112 168
101 57 184
75 158 4
232 32 162
224 211 41
186 61 152
150 121 188
226 206 41
80 69 185
248 237 150
109 141 177
21 30 61
124 183 119
24 48 102
67 123 184
12 131 96
128 55 93
28 108 190
0 64 150
153 109 97
86 226 58
78 203 185
183 169 1
252 174 215
90 249 245
177 223 169
49 121 35
144 107 117
65 196 97
190 73 70
187 150 140
168 237 215
22 181 154
89 84 2
39 214 53
41 74 173
56 167 102
8 61 251
97 200 19
142 68 206
7 18 238
84 124 196
23 29 211
94 224 34
151 128 204
242 74 251
197 125 56
193 12 114
60 208 210
126 205 251
172 127 64
198 72 123
38 213 248
119 154 143
150 126 128
123 63 109
242 254 97
83 105 249
63 3 95
238 196 160
239 172 214
69 61 52
249 142 159
62 9 34
87 41 188
10 216 53
210 235 97
195 12 6
235 21 79
104 188 53
52 92 139
9 173 245
149 171 46
181 142 38
114 63 71
143 73 132
123 182 14
246 23 93
168 14 239
28 66 53
187 140 16
135 74 58
211 79 183
133 128 62
49 119 19
209 253 169
36 212 92
203 44 253
237 229 139
138 188 219
78 96 155
220 57 23
230 46 159
111 229 28
254 23 214
226 126 67
225 99 42
3 127 4
158 80 144
248 127 187
172 102 226
194 106 19
9 39 175
152 25 217
181 204 48
83 99 217
250 222 46
43 46 187
126 52 7
164 254 183
195 137 45
17 30 28
142 34 200
116 135 109
253 245 144
123 139 172
81 21 3
213 112 246
115 80 7
116 61 19
141 199 136
252 66 115
86 141 192
0 185 100
231 103 64
142 52 141
250 125 170
143 196 60
13 61 51
181 217 33
205 26 99
207 243 194
128 108 145
31 141 164
13 252 217
7 134 211
178 238 97
197 16 7
35 138 185
121 154 132
75 90 246
154 252 125
33 174 146
29 143 57
85 143 233
233 126 138
40 89 241
142 17 170
182 128 179
29 129 42
203 121 70
4 45 90
40 130 157
54 183 232
62 172 204
66 107 120
8 123 180
150 171 93
83 242 102
65 66 180
195 85 90
117 199 69
24 3 139
17 107 242
64 121 195
42 252 191
161 28 189
162 235 101
109 210 99
11 251 86
204 245 177
2 208 253
96 13 18
161 29 100
129 162 21
61 248 72
67 21 142
235 249 13
68 134 152
233 112 130
229 13 133
231 84 186
42 188 53
136 171 38
167 183 72
39 174 101
231 1 80
205 41 162
174 15 104
30 227 33
159 141 169
249 84 247
4 16 216
124 129 46
40 104 205
203 158 134
155 101 211
52 40 252
93 32 92
189 178 177
217 123 137
131 96 115
209 246 113
21 194 47
16 180 253
160 129 101
213 106 126
119 47 163
163 182 10
229 28 242
183 46 212
254 184 98
53 22 206
24 31 98
62 106 67
24 219 108
138 205 53
34 141 152
164 118 111
149 1 28
152 205 188
97 138 54
173 198 232
190 202 244
98 147 154
101 17 153
29 78 5
80 245 157
18 10 14
180 141 183
138 12 17
174 57 1
254 176 93
118 206 18
126 137 231
198 152 127
128 188 88
41 224 63
198 115 108
209 253 206
209 62 97
39 88 189
92 162 139
1 47 90
80 246 211
53 45 161
235 183 50
201 211 199
98 109 199
222 13 55
57 22 101
205 52 253
87 227 7
65 94 188
127 123 105
24 106 62
133 201 190
50 84 77
11 87 31
53 145 59
250 199 55
193 69 145
166 200 135
207 79 190
121 126 156
140 170 229
19 203 151
108 173 58
173 150 174
106 134 241
45 13 80
213 164 236
192 54 79
96 248 243
126 92 51
230 204 95
56 146 212
234 222 56
202 187 24
186 160 116
212 5 151
248 186 118
225 147 253
111 57 70
206 6 145
66 51 22
198 237 73
21 106 139
40 225 153
71 127 144
121 81 159
210 68 199
126 2 4
27 117 111
226 156 191
0 59 123
122 53 183
210 44 40
194 2 25
32 20 145
101 181 132
59 78 69
24 233 111
149 83 198
243 114 64
169 152 32
95 247 88
108 62 77
190 76 0
7 165 47
38 116 96
9 65 86
28 70 238
111 121 147
203 195 153
181 56 216
55 232 152
138 242 236
238 194 119
68 248 182
154 206 50
235 24 176
226 39 154
200 21 15
26 159 158
31 93 122
38 185 143
159 181 235
196 230 210
58 93 150
56 146 149
193 13 25
202 18 82
22 171 192
204 161 99
35 48 203
5 134 88
125 168 207
181 53 155
146 228 96
140 143 250
252 137 81
127 193 200
91 41 241
135 167 203
166 125 203
26 30 47
35 18 251
30 70 79
230 24 43
21 4 182
189 53 63
62 198 69
77 248 124
183 235 186
247 189 62
32 11 166
211 204 30
137 175 158
22 235 229
176 108 198
153 158 114
13 135 77
243 146 73
210 168 129
25 164 180
190 175 27
21 88 137
160 74 107
57 109 149
169 119 175
28 84 58
29 199 93
226 38 43
9 231 229
216 62 114
247 224 226
100 80 227
98 65 198
123 85 216
98 221 216
72 178 127
135 159 158
151 51 73
11 196 67
123 208 201
217 213 189
134 174 106
182 52 174
98 168 140
218 247 105
205 0 230
171 98 33
42 162 1
211 16 146
28 78 127
202 249 115
132 209 49
28 116 214
135 87 182
137 90 4
31 128 135
216 199 223
145 86 222
63 103 51
117 41 18
43 142 155
46 222 36
227 240 153
86 208 162
47 237 252
199 74 127
187 240 207
65 104 96
77 101 27
113 124 153
139 8 205
235 34 239
34 63 119
93 137 12
213 15 186
24 235 184
156 234 65
53 7 142
179 38 163
9 242 138
142 127 205
230 33 250
78 9 122
192 100 11
65 177 172
152 177 45
146 152 223
215 77 192
211 80 4
61 103 58
151 98 124
18 86 154
129 196 38
12 214 250
213 154 11
138 175 82
128 8 3
84 104 224
175 70 64
137 111 4
158 12 108
234 13 28
96 18 190
118 67 74
218 164 76
42 165 123
76 17 71
101 34 93
132 198 202
188 137 161
221 93 64
183 233 220
184 78 248
193 159 223
82 222 221
85 27 94
66 16 134
108 92 105
39 168 239
234 22 221
161 99 143
175 57 24
28 178 175
188 133 33
219 247 20
164 235 12
234 224 134
244 114 195
70 152 158
50 96 212
28 167 173
126 148 102
104 173 164
43 211 223
186 171 161
87 94 186
195 168 55
222 13 251
187 55 66
95 235 244
250 47 125
220 134 134
210 110 162
27 182 201
187 149 36
223 16 57
28 7 89
241 206 135
100 154 160
43 193 11
65 244 92
200 236 2
58 243 5
60 48 169
27 85 51
28 160 67
63 127 198
49 212 17
213 144 14
235 114 200
230 77 41
54 145 149
177 99 11
159 183 198
202 69 173
217 182 152
98 220 53
174 115 37
143 19 196
177 128 173
25 126 14
62 127 66
159 42 39
142 237 202
78 134 166
125 94 37
250 20 113
183 240 239
70 19 28
232 103 40
37 65 141
125 191 87
244 40 252
67 60 84
12 25 124
124 227 7
177 203 99
250 39 100
98 145 246
110 187 103
93 53 217
173 94 185
63 119 143
248 147 64
117 203 195
144 205 41
156 183 192
163 141 28
51 118 110
2 84 240
230 74 25
156 240 154
46 236 127
96 165 73
196 34 231
206 165 157
159 148 219
140 182 73
199 46 24
5 238 215
63 22 73
46 228 38
176 87 51
20 170 184
230 52 96
18 192 252
119 15 35
200 34 38
85 27 18
200 45 43
176 202 173
29 66 147
90 161 83
213 182 240
27 11 209
214 47 88
189 183 179
25 94 85
100 72 238
187 37 102
27 10 116
57 40 138
227 223 106
219 6 172
25 136 227
69 60 210
236 229 52
162 7 210
171 75 9
89 108 147
234 233 226
196 239 35
75 167 247
220 87 171
107 20 202
35 198 59
78 77 200
77 9 44
210 182 56
67 108 229
75 76 130
23 214 2
75 172 74
0 249 183
59 233 153
107 210 205
190 161 6
112 226 68
185 127 45
165 133 214
223 159 154
86 189 22
30 238 36
160 104 226
151 131 0
242 154 51
75 218 118
19 178 234
213 167 84
15 95 98
106 164 38
89 127 228
162 242 178
58 138 234
128 101 181
178 103 166
108 19 97
95 79 16
249 108 42
244 124 18
102 20 15
79 246 9
50 237 109
158 99 24
132 28 253
95 106 161
3 105 128
84 217 179
222 119 84
43 224 79
105 130 116
70 243 125
0 77 125
172 10 109
210 63 11
105 100 236
131 11 186
165 61 226
9 245 107
19 143 226
107 125 229
30 111 104
231 218 96
101 194 161
158 151 120
108 12 171
71 111 254
19 76 71
125 211 217
7 242 139
75 205 49
234 81 230
239 205 18
21 43 52
246 15 253
57 158 95
102 223 80
9 16 61
197 189 142
218 202 11
38 238 123
176 13 38
33 35 196
47 108 94
106 66 33
251 53 83
100 218 112
166 189 35
158 241 12
127 177 83
236 107 232
176 106 79
79 99 88
93 236 37
67 109 23
187 221 52
129 201 188
39 114 69
96 105 71
129 86 4
157 185 232
86 211 39
180 115 185
246 22 100
160 49 59
253 37 239
94 197 213
102 109 15
170 165 29
76 88 155
48 72 252
176 118 188
51 140 75
107 3 220
136 72 73
55 71 206
117 83 229
5 89 211
18 99 73
82 236 254
86 86 248
205 236 253
101 210 136
126 114 9
215 181 241
97 2 124
178 33 225
125 204 137
101 163 25
118 242 126
221 123 247
42 102 151
1 139 24
146 7 0
194 160 213
193 42 199
30 46 154
188 181 42
0 172 9
200 197 161
66 252 144
251 168 244
253 174 60
104 4 184
25 247 168
141 17 233
29 90 36
90 241 107
176 185 126
142 135 157
47 191 194
200 59 2
136 247 156
160 156 196
51 71 217
48 102 44
15 55 201
61 75 245
124 124 135
176 222 146
86 92 62
48 117 252
166 209 234
89 114 253
140 118 69
130 153 214
16 95 76
218 66 84
130 215 86
67 225 180
198 95 32
167 51 213
208 219 47
114 87 162
3 90 239
248 107 243
220 127 14
11 182 38
48 201 106
185 107 148
91 148 116
223 68 3
34 27 60
201 198 49
137 63 37
207 156 232
108 231 221
31 29 154
178 143 76
140 90 189
253 203 133
61 55 68
211 86 237
104 149 79
115 29 239
2 6 122
219 9 34
112 7 144
79 250 22
52 103 79
217 229 164
201 226 197
243 126 151
110 85 175
46 152 78
139 47 33
36 122 235
190 122 226
249 147 135
157 44 208
227 7 39
153 71 236
107 226 161
198 135 123
229 227 73
248 4 19
159 52 84
116 128 147
121 215 139
72 127 120
180 73 186
237 52 36
166 32 140
242 77 152
211 18 1
123 35 227
86 145 74
58 62 145
62 54 179
172 67 182
196 5 224
164 245 131
37 53 209
203 37 244
24 49 94
170 222 243
101 241 153
166 240 19
219 126 62
120 211 131
221 72 181
65 218 13
52 8 85
96 175 221
9 140 181
149 62 161
10 76 51
96 183 181
7 6 0
235 144 207
25 191 77
204 138 46
185 209 169
4 82 29
249 202 129
2 110 12
188 55 97
8 160 17
174 102 177
59 76 14
181 86 211
138 52 117
73 209 16
230 30 63
219 70 189
8 200 65
158 159 217
17 23 173
182 135 15
40 79 64
57 157 164
201 108 82
235 89 79
181 222 97
234 200 232
27 222 18
145 217 181
159 72 53
50 203 243
108 125 166
109 7 146
215 71 140
219 72 128
114 78 104
29 124 2
242 161 64
144 100 252
0 184 32
108 17 141
238 199 142
180 90 81
227 120 124
122 163 176
96 179 158
201 122 55
152 100 84
101 59 221
5 37 11
191 118 226
246 215 45
23 220 1
120 113 17
93 208 17
58 141 212
248 33 28
2 139 182
42 70 68
249 37 247
148 119 247
63 249 24
148 29 60
109 195 125
248 171 137
30 209 156
40 34 249
32 112 152
108 0 254
103 132 200
23 201 203
102 160 217
178 143 26
89 131 247
114 170 199
53 27 175
245 63 202
137 18 38
200 219 34
60 34 153
159 221 185
8 64 25
141 104 69
88 18 3
173 91 149
131 241 146
125 87 43
53 85 145
209 33 121
109 102 93
229 3 194
207 103 69
215 120 40
82 28 83
125 62 112
22 204 80
190 14 120
232 148 58
183 1 125
227 43 114
232 116 51
141 207 24
77 25 111
18 235 194
211 67 172
176 116 79
70 156 168
84 34 61
199 43 121
229 15 165
217 149 205
57 4 104
91 25 109
157 88 19
106 169 65
83 72 8
86 79 73
58 97 120
229 49 205
11 53 18
177 254 215
132 42 134
231 133 176
148 28 113
212 209 198
185 233 142
73 114 40
2 174 187
74 109 4
37 38 125
151 27 198
111 74 239
137 91 2
153 203 50
134 55 29
69 185 105
136 101 1
36 237 248
227 121 252
142 144 126
66 207 228
88 98 217
166 142 234
217 137 160
223 252 39
149 221 136
14 115 139
44 16 85
160 232 105
16 194 151
242 37 135
109 241 104
77 4 189
152 194 201
202 87 208
101 82 55
55 92 38
216 149 27
110 65 173
43 213 222
156 171 103
6 209 105
169 44 131
23 174 77
118 21 36
192 56 189
44 74 60
37 117 219
251 79 229
38 246 60
81 139 61
79 252 17
236 119 138
200 182 163
109 236 98
203 136 34
227 190 173
3 117 233
132 131 203
73 150 201
80 188 25
125 13 106
23 60 28
116 38 38
74 155 67
62 83 32
128 134 86
2 39 23
223 214 110
27 65 235
114 242 131
114 127 96
167 77 238
254 148 93
163 242 214
84 205 10
142 233 38
187 68 135
57 64 233
187 229 49
207 1 191
109 76 70
231 37 218
40 16 214
129 83 60
32 168 8
125 158 202
34 41 84
150 52 216
190 121 12
44 26 158
53 153 9
93 195 77
254 172 143
89 195 128
157 63 98
193 214 150
205 50 232
76 38 108
77 80 84
228 224 28
236 7 23
111 152 91
156 189 230
209 253 0
75 163 36
142 179 85
66 177 108
100 130 231
75 22 128
62 199 248
244 160 4
24 157 4
116 221 39
88 153 57
80 137 117
239 245 160
207 77 176
61 85 243
210 103 34
152 90 147
99 244 42
185 126 148
30 109 248
243 89 211
149 127 199
210 206 224
69 126 57
196 109 119
100 104 103
200 76 175
208 149 118
14 129 125
191 242 88
150 132 30
83 247 31
121 10 140
232 100 231
73 180 12
164 118 252
59 110 160
176 198 58
94 83 107
36 18 110
220 234 63
123 207 211
36 191 46
161 185 214
218 214 48
202 40 106
163 131 222
57 148 120
0 81 221
209 41 95
180 119 178
217 120 196
243 64 199
67 89 249
177 178 28
49 250 200
210 52 187
98 178 192
97 146 177
55 83 201
88 34 54
136 5 141
42 77 102
33 232 184
234 101 161
24 241 183
131 192 246
94 205 8
16 31 213
177 99 237
211 156 251
126 249 20
27 211 14
3 121 36
33 245 6
153 135 40
152 81 56
135 181 37
64 100 65
147 85 202
213 221 76
44 139 47
120 83 111
92 53 91
240 26 30
18 2 47
184 136 196
8 28 53
227 44 203
237 133 128
87 152 246
81 119 221
244 15 189
64 49 59
0 76 6
119 31 105
234 164 92
223 155 8
68 40 137
120 124 30
143 236 229
25 238 247
232 30 150
28 234 153
193 233 39
210 229 85
250 27 0
218 236 219
53 37 91
2 99 246
51 242 134
131 161 142
22 230 135
91 196 125
52 226 57
194 52 110
50 240 28
13 180 22
61 46 34
84 32 38
98 243 165
109 132 147
61 254 250
19 9 135
199 121 97
100 223 135
5 34 254
42 125 230
49 2 237
9 226 48
227 62 42
33 91 20
154 16 128
180 220 216
127 152 219
251 206 40
55 92 206
245 214 8
176 148 207
42 248 40
110 117 15
56 147 151
177 112 74
144 198 62
179 119 201
138 49 21
108 124 238
202 22 117
52 49 92
197 33 1
41 197 173
7 25 69
43 80 217
143 139 205
253 236 168
147 159 219
107 248 190
118 111 188
183 176 139
242 184 111
103 91 157
162 128 106
18 89 177
41 87 3
199 168 171
214 151 178
137 142 162
126 222 107
209 133 224
58 62 191
147 73 28
242 76 132
182 201 155
174 28 101
5 224 223
163 228 214
147 193 229
42 98 163
247 247 101
214 20 43
40 170 78
206 232 228
122 52 24
115 236 66
146 43 141
67 166 228
213 139 98
15 101 56
43 133 75
250 45 75
42 157 148
237 221 193
47 178 197
125 221 215
78 212 113
132 114 198
224 184 61
213 251 206
16 72 113
233 171 23
95 93 204
179 196 229
203 38 1
193 29 177
181 14 160
108 200 97
9 14 204
13 112 220
15 152 189
109 28 57
130 179 101
111 249 141
110 146 52
66 38 219
69 36 194
80 211 81
93 145 249
63 23 116
211 138 252
230 156 61
8 252 76
123 94 196
5 213 186
154 202 36
26 174 212
47 154 250
239 144 168
77 65 2
100 166 100
140 219 152
174 209 6
231 152 222
30 6 21
55 198 197
82 27 13
201 55 46
70 145 14
123 86 47
49 132 202
253 177 212
243 242 74
76 88 75
140 144 42
63 164 96
34 129 165
59 225 36
45 3 197
57 92 40
198 179 108
249 85 249
94 154 67
28 152 76
183 33 223
134 61 97
2 134 83
94 176 220
48 151 74
18 9 59
31 238 143
191 109 23
131 188 161
215 250 32
23 123 81
132 94 124
197 64 209
97 210 17
118 28 195
223 246 194
119 7 42
236 247 151
127 21 71
14 70 201
2 110 151
2 195 52
232 114 101
20 8 170
14 242 11
217 28 160
110 2 234
173 232 4
252 103 69
50 137 215
173 115 112
90 192 15
162 22 115
43 115 122
241 35 228
128 151 57
108 93 63
194 48 101
217 88 207
187 50 175
163 169 200
26 149 154
139 86 119
177 7 45
123 114 171
15 46 218
218 35 29
128 206 118
139 135 14
210 84 9
16 83 101
54 158 73
240 202 70
142 189 177
62 68 58
98 43 181
49 71 164
194 200 85
84 152 176
18 173 161
162 164 250
231 145 85
204 78 184
106 145 240
228 230 76
127 35 144
53 225 44
46 218 137
63 144 219
36 203 39
113 54 136
73 98 57
222 0 129
59 86 221
101 60 210
69 114 177
93 169 229
228 207 29
245 42 131
197 69 25
248 140 40
196 132 148
14 25 121
213 127 229
231 234 137
181 93 101
138 242 66
64 42 145
64 68 4
30 78 110
67 253 75
44 180 198
205 137 21
94 127 155
30 233 190
190 156 32
81 1 128
29 97 69
70 190 24
248 166 32
10 231 223
218 200 20
140 248 74
142 99 226
131 53 73
35 223 102
143 201 110
121 211 208
123 148 79
200 99 51
146 177 87
243 116 187
107 246 185
93 152 237
59 3 14
48 128 182
133 215 169
254 233 82
27 111 136
104 178 15
35 145 145
151 8 184
177 49 161
168 219 56
8 213 49
33 25 58
85 8 155
105 3 146
106 180 251
160 51 97
45 118 77
84 127 215
166 189 27
81 203 165
36 148 29
90 172 35
147 37 241
66 71 86
11 219 140
106 180 81
217 132 82
228 201 94
206 64 234
240 137 179
65 9 216
60 17 238
108 241 97
106 142 211
217 188 130
54 224 101
20 174 142
58 136 71
117 187 5
95 71 164
167 116 77
151 212 67
80 111 0
250 88 35
251 110 95
162 127 126
106 183 0
44 24 206
11 140 34
151 186 139
221 142 117
53 170 52
5 253 122
155 76 49
68 142 30
137 21 237
108 25 33
27 110 129
112 241 231
168 21 67
30 218 134
70 71 26
14 235 237
5 101 147
11 137 227
143 233 220
108 106 5
234 242 233
109 42 71
57 3 19
134 179 239
170 77 75
196 204 156
234 36 54
25 223 199
125 234 45
237 104 10
71 220 96
189 37 29
100 126 28
18 199 164
129 132 155
240 253 105
247 240 3
82 178 81
105 100 11
127 18 198
110 72 25
89 102 86
238 177 51
45 246 32
198 143 105
70 16 228
162 4 205
152 41 55
221 0 253
20 51 189
141 168 244
52 212 180
113 4 145
115 95 29
12 140 146
219 204 178
176 208 228
59 131 21
249 163 227
200 82 224
124 51 18
91 69 16
87 251 119
132 119 190
113 204 252
9 179 19
49 90 234
17 208 131
208 93 49
128 48 4
250 167 112
227 182 184
236 208 96
144 241 134
49 130 187
238 83 30
53 178 62
225 110 181
215 169 240
217 50 197
243 63 115
152 156 70
183 50 64
32 19 41
97 47 242
68 206 106
252 164 167
43 192 5
47 127 79
79 39 234
130 130 164
57 25 57
17 70 113
73 84 219
245 80 71
149 147 156
130 89 199
76 29 225
43 142 100
104 113 102
182 225 202
89 250 232
174 224 230
66 232 149
130 21 118
224 170 197
15 183 114
138 233 24
47 175 144
224 12 27
218 182 231
4 89 128
116 116 91
61 52 13
67 194 106
17 224 16
149 63 133
85 253 128
122 221 248
225 171 113
100 247 13
220 137 11
160 192 82
58 40 208
153 110 205
144 236 74
235 225 24
119 60 73
199 113 247
201 25 184
215 199 114
144 109 72
232 165 183
250 25 73
132 108 181
160 116 208
49 237 45
175 195 213
25 124 55
72 192 89
179 106 23
4 127 46
197 188 221
118 213 159
19 102 194
188 49 83
76 108 160
92 160 40
175 181 40
107 118 162
153 96 241
31 141 85
149 76 195
81 190 146
219 53 204
139 153 188
179 168 12
93 233 45
36 204 244
232 155 166
118 84 171
5 124 243
5 2 7
25 119 115
233 4 72
214 23 100
34 188 234
184 14 179
127 167 125
115 180 177
69 209 105
100 3 66
6 121 104
226 228 122
87 97 63
74 68 49
8 80 220
98 10 15
208 146 150
203 210 70
144 72 156
165 70 11
16 102 64
54 202 101
11 5 61
175 162 85
24 136 119
229 169 38
197 40 247
48 41 200
175 193 46
217 191 109
199 184 39
149 226 162
96 10 147
133 229 197
125 12 49
177 4 108
208 85 87
249 74 90
119 6 131
184 58 5
236 138 237
15 128 196
43 170 2
104 94 124
113 95 189
72 162 151
13 223 123
143 125 105
178 237 128
155 162 81
98 94 136
240 124 100
185 191 87
176 45 166
144 29 231
13 209 89
34 56 57
242 57 75
120 209 191
222 141 87
194 132 88
237 26 168
248 68 81
165 43 136
129 132 18
77 49 49
175 128 137
37 241 8
124 79 15
131 36 53
166 187 127
160 83 176
78 205 175
236 44 103
110 251 196
209 142 170
153 132 79
114 213 7
226 56 154
58 11 192
183 139 154
125 216 70
15 21 243
145 47 208
147 206 237
72 222 243
246 131 85
19 46 218
42 149 126
208 78 251
57 65 117
144 123 7
179 236 73
1 0 55
75 21 179
243 246 30
95 229 126
92 119 188
204 214 75
160 248 81
182 88 234
173 250 136
32 243 84
220 68 201
137 24 27
22 28 71
223 34 115
178 30 107
122 179 47
120 36 10
76 110 85
106 247 39
140 203 34
151 232 53
199 63 204
159 248 226
194 138 126
110 115 252
18 29 187
128 93 198
194 199 52
144 144 29
182 65 143
66 95 119
254 103 29
29 169 77
4 59 254
212 46 143
85 121 217
16 251 0
229 59 215
227 179 213
179 50 136
1 17 110
249 203 11
57 148 27
37 56 161
151 12 145
207 133 184
113 57 25
98 97 88
68 185 253
142 13 108
189 75 226
61 98 89
3 100 67
0 222 228
133 244 162
13 126 71
198 219 194
57 190 117
40 73 193
99 71 79
186 77 169
104 86 105
69 165 62
70 243 181
132 55 115
109 186 132
47 250 187
38 221 38
62 164 172
209 12 113
6 66 152
205 176 198
187 12 82
78 211 207
14 144 30
137 209 55
113 91 10
215 65 31
200 143 4
65 153 15
109 166 148
247 146 197
102 84 236
190 216 6
204 131 166
238 46 241
5 70 14
221 74 76
41 115 156
74 54 0
111 160 34
104 224 198
201 245 172
4 179 193
188 193 102
202 166 51
44 166 4
82 12 60
126 204 55
244 134 110
44 250 2
170 220 191
238 198 144
128 62 75
80 246 117
188 145 239
205 70 6
133 92 214
23 139 136
208 37 24
71 86 111
46 248 214
68 220 210
86 241 234
166 162 243
229 140 115
117 163 171
144 25 13
175 145 149
67 32 211
159 117 180
164 65 125
208 210 114
16 56 21
41 31 72
9 198 57
162 169 234
119 167 128
60 97 174
133 154 192
207 212 200
74 57 60
22 43 87
204 116 79
220 105 167
109 213 0
226 191 234
100 127 99
123 138 181
74 164 124
242 195 246
216 180 119
207 197 146
227 50 251
76 180 147
124 17 135
218 11 88
108 172 238
244 194 52
36 66 52
109 253 155
240 198 103
109 2 138
172 148 51
216 150 112
126 65 58
62 2 177
182 169 86
67 86 191
86 51 72
145 46 247
220 72 81
72 11 109
19 16 34
170 138 150
218 203 14
97 85 60
217 138 143
78 185 156
110 137 63
47 116 72
108 73 169
222 207 84
212 168 118
151 25 25
191 12 10
59 105 130
193 202 235
109 39 49
114 190 202
177 6 177
46 124 71
249 187 122
190 27 214
131 30 239
74 214 12
43 230 145
186 70 185
94 123 48
18 176 133
190 199 199
23 152 120
189 58 54
47 104 80
30 169 212
31 249 177
142 140 62
186 148 207
226 184 159
174 2 234
160 26 72
3 145 192
149 97 136
102 190 227
172 31 181
233 108 50
43 144 33
67 95 82
125 27 163
2 235 16
97 81 199
122 26 221
10 53 46
117 83 141
229 122 252
166 10 53
138 178 140
233 34 21
126 127 250
49 228 25
210 13 36
227 97 148
137 127 92
142 61 199
132 25 149
220 195 197
156 176 226
163 58 6
88 203 223
21 47 77
26 199 26
248 114 73
155 252 123
209 109 198
238 238 248
21 75 179
160 67 190
3 159 41
104 241 63
21 26 236
48 203 74
155 56 137
74 171 154
233 108 130
79 61 197
134 1 175
147 239 227
198 24 216
221 11 89
251 7 129
154 227 135
176 142 101
91 218 123
183 244 181
235 131 77
52 24 44
223 190 150
195 23 92
35 224 174
56 104 58
19 135 33
88 179 159
148 58 100
232 43 33
53 95 29
139 228 213
14 3 205
185 11 39
241 116 174
79 23 64
128 3 122
254 64 50
39 100 33
114 101 24
82 154 90
138 55 149
199 171 40
176 118 59
60 85 228
227 92 91
15 216 38
116 137 166
95 215 70
108 8 45
169 45 61
223 216 253
132 94 218
38 181 97
250 5 139
76 145 98
36 65 132
90 235 237
190 31 60
55 108 73
53 73 45
84 141 174
22 165 229
104 183 23
93 194 111
249 109 80
79 140 208
65 216 65
251 146 78
238 228 191
103 175 165
109 158 27
182 72 110
14 77 249
43 182 152
135 90 162
105 103 166
226 1 29
96 48 20
75 32 126
63 103 121
123 236 131
100 114 2
113 48 234
193 157 184
160 53 231
57 169 28
221 88 75
40 30 228
233 133 69
206 27 128
37 89 42
175 54 150
51 140 116
30 147 96
161 148 85
86 28 250
96 182 193
214 139 11
15 34 88
181 110 42
245 181 119
47 93 41
248 2 23
71 31 111
131 215 23
40 181 239
100 132 57
251 103 70
81 197 64
74 8 28
253 54 165
189 221 26
219 40 127
38 187 246
195 207 88
233 84 18
138 204 130
172 77 196
229 131 173
71 132 130
171 199 105
41 35 206
93 43 141
14 195 56
36 51 54
221 85 111
244 35 0
138 189 65
88 253 23
29 20 82
52 99 21
89 109 240
203 237 254
106 129 82
2 160 54
106 209 171
98 210 212
223 164 27
96 129 186
38 154 211
92 253 42
120 191 7
138 170 97
247 206 80
105 126 188
124 188 92
115 66 10
148 25 4
234 194 57
33 118 84
85 32 196
179 72 197
199 25 6
43 8 29
221 202 28
175 183 27
230 30 252
27 121 197
36 123 171
30 155 72
53 174 235
44 236 52
238 189 108
236 229 249
201 224 64
61 18 153
252 3 197
152 211 37
6 144 36
231 162 152
93 146 194
241 203 84
87 16 135
75 149 115
247 81 20
154 143 124
106 2 217
105 207 8
225 196 165
173 132 159
237 244 88
17 141 110
34 173 111
175 126 202
74 52 202
162 57 246
103 82 229
195 222 62
96 126 21
206 241 237
119 42 144
200 108 198
171 9 226
125 0 204
193 12 183
196 52 144
236 116 232
126 235 76
225 33 53
95 94 145
171 52 116
200 115 252
252 44 211
184 69 191
185 119 198
213 174 85
75 241 202
231 57 49
5 31 250
228 240 227
51 200 181
246 53 105
225 81 238
45 97 138
69 33 49
17 4 96
164 166 236
211 77 248
128 17 222
81 136 20
153 25 143
169 149 67
183 51 139
213 46 42
85 32 160
5 221 81
117 89 177
140 56 116
216 162 107
184 77 141
42 234 154
222 109 217
246 54 62
127 2 113
41 247 83
170 90 1
157 194 153
223 147 241
147 199 48
54 42 53
196 18 198
88 64 235
82 245 42
5 79 91
189 93 209
92 162 117
187 225 176
68 245 11
42 83 36
117 254 213
114 9 95
177 7 130
191 198 192
138 31 245
51 137 26
38 158 21
175 91 204
36 185 9
145 227 123
194 215 89
209 249 123
42 218 209
214 65 46
205 67 29
110 227 122
126 87 176
139 81 138
76 96 122
194 22 119
102 176 227
222 129 153
238 131 3
153 236 232
34 133 49
104 36 210
191 118 100
23 175 150
182 102 77
134 204 56
199 56 4
148 114 172
178 44 211
201 240 33
145 177 100
164 244 193
9 44 11
61 23 225
174 66 90
155 118 151
52 105 204
103 33 26
57 249 228
194 28 148
71 27 98
106 252 77
115 227 172
250 221 40
170 163 11
149 74 39
116 174 127
12 167 155
24 213 27
67 194 250
17 171 201
214 21 143
147 39 88
105 98 232
99 213 99
43 246 155
135 166 7
43 50 182
175 240 180
127 13 199
172 213 204
218 53 68
116 227 7
59 164 238
238 190 219
169 58 43
118 96 132
95 2 48
2 104 14
135 184 245
23 11 180
57 191 116
53 122 221
234 229 248
173 151 15
236 24 200
93 60 229
122 168 58
78 164 89
0 195 131
89 184 216
215 163 237
45 75 109
179 68 238
245 51 28
135 241 133
130 156 46
89 240 253
81 192 232
51 87 193
161 11 190
235 129 55
243 35 46
185 242 76
46 252 173
158 107 105
57 191 20
84 67 97
154 134 78
37 223 76
205 85 79
202 6 90
87 123 214
103 45 27
207 72 53
101 187 86
109 107 125
244 220 226
100 152 182
177 99 184
90 161 67
200 71 241
192 112 179
56 46 178
234 208 2
76 135 62
128 90 72
189 72 166
0 124 16
164 114 163
72 118 15
43 114 12
89 180 243
62 4 70
18 220 250
64 124 33
232 223 142
10 114 149
154 118 52
155 246 148
200 129 41
247 201 37
202 115 166
201 152 121
72 64 78
36 196 80
165 182 46
104 48 174
184 175 229
43 198 128
0 211 141
246 39 125
235 140 109
56 39 237
156 122 151
134 98 168
132 110 85
158 193 183
226 113 62
70 17 175
148 42 195
183 100 50
213 235 232
38 178 116
37 224 95
190 153 62
129 241 73
12 91 14
162 243 211
223 244 157
119 148 18
225 144 119
72 102 187
202 201 119
34 42 64
228 54 102
140 79 147
231 246 28
248 222 226
7 106 237
167 121 105
137 198 175
102 46 6
74 86 197
169 205 253
189 106 67
106 183 193
101 51 88
71 153 228
143 167 28
62 113 114
36 40 103
205 225 252
92 193 151
149 172 186
54 181 247
233 70 185
26 29 113
177 242 194
127 200 193
44 165 156
164 70 107
107 41 85
12 187 227
110 140 92
115 63 133
113 131 90
190 84 154
154 166 144
80 203 205
66 59 190
88 132 38
231 161 222
237 161 131
193 141 215
110 5 178
17 82 11
242 171 254
222 107 196
253 9 104
21 11 99
229 193 173
171 247 111
27 32 246
11 97 95
3 154 1
89 37 155
119 17 184
157 223 116
223 62 179
133 24 38
63 51 207
44 225 121
1 75 178
67 173 249
6 154 85
169 145 27
43 94 147
71 47 201
61 159 114
188 198 166
34 91 118
170 171 7
119 12 11
58 68 79
154 240 17
172 118 200
108 123 200
239 12 161
17 26 117
226 189 135
251 189 42
100 66 183
205 112 178
178 69 82
179 63 110
129 234 4
191 147 228
166 166 118
5 205 0
203 108 178
133 254 219
212 58 196
181 189 177
27 29 242
65 123 228
129 250 82
187 66 234
247 82 53
142 47 108
167 127 115
139 120 45
17 178 39
191 84 107
145 242 205
132 131 246
115 194 249
182 159 115
59 24 182
15 56 242
106 110 67
248 247 187
17 189 197
143 35 141
191 126 125
86 98 120
84 62 74
59 254 62
57 195 249
202 228 121
52 229 140
129 102 183
19 238 76
227 180 199
235 214 5
144 191 63
198 79 2
88 228 62
219 79 129
34 187 233
238 116 161
160 140 218
140 108 211
24 241 239
12 114 90
182 121 198
138 185 254
161 99 101
252 194 206
77 112 73
241 192 143
102 106 253
247 244 99
171 156 173
184 88 12
236 121 168
68 199 3
242 158 204
254 109 30
193 140 190
16 182 66
127 91 186
240 254 239
18 77 237
166 45 206
182 11 87
136 144 96
65 68 187
209 241 21
216 41 57
186 78 128
173 133 184
54 222 8
69 38 49
224 143 121
149 212 196
242 20 123
50 32 229
219 138 214
118 18 120
84 170 117
203 244 51
73 100 89
70 120 27
228 29 233
208 244 233
95 101 63
205 248 182
164 102 75
249 127 131
29 125 38
28 75 42
53 18 80
93 212 231
125 235 136
221 101 87
77 177 247
29 129 237
221 172 102
254 136 199
49 133 142
126 252 22
190 126 156
88 143 228
137 189 198
198 0 197
6 41 7
250 28 21
96 39 57
5 50 106
254 85 230
47 113 117
137 40 198
5 152 88
175 155 44
71 248 97
80 229 179
179 254 209
187 27 147
107 206 148
38 105 12
169 175 115
135 64 80
226 79 157
47 40 143
11 71 133
172 17 18
21 135 73
226 77 60
30 233 244
149 22 56
65 2 236
173 141 196
162 41 219
55 73 117
161 191 29
57 1 109
83 113 239
80 27 52
3 119 180
195 189 184
37 46 186
37 109 150
248 82 195
66 45 80
48 151 99
6 34 50
194 187 71
174 85 17
195 204 14
185 22 21
8 24 196
164 161 49
30 53 247
139 171 155
115 227 28
211 206 92
204 58 218
137 178 29
103 0 191
213 16 195
33 233 87
72 89 139
70 212 21
102 15 2
74 11 209
170 125 127
11 239 54
168 219 65
250 165 142
135 236 77
44 203 213
93 242 15
173 166 0
175 138 157
8 122 240
56 108 212
102 0 130
161 215 45
218 190 172
70 244 198
19 134 136
249 215 35
104 106 236
141 164 217
221 97 112
109 215 159
237 6 13
210 224 136
18 200 115
207 121 139
138 143 216
41 210 234
114 125 6
134 169 171
145 93 16
203 151 6
151 20 132
210 205 132
27 235 40
209 196 59
179 157 129
104 74 47
57 176 17
199 225 73
218 192 167
54 199 10
21 165 174
183 96 74
166 57 229
76 65 241
113 56 210
178 209 12
216 230 239
207 196 109
82 202 214
225 75 88
206 96 191
97 129 5
56 230 58
169 188 88
104 37 32
113 116 23
182 105 88
244 47 192
194 114 117
211 93 117
230 42 145
35 54 1
211 72 196
31 80 31
219 119 14
63 249 136
214 43 47
162 1 205
177 240 99
105 170 102
142 56 100
131 36 189
88 129 82
161 196 88
83 123 198
66 5 229
175 144 95
227 253 15
239 189 182
193 36 125
21 181 240
184 181 52
187 174 204
146 10 7
248 238 82
47 194 6
132 18 242
18 148 73
42 183 165
98 131 8
165 234 29
167 109 91
80 125 177
135 252 26
237 193 167
175 128 193
91 197 40
146 249 137
162 118 0
219 5 48
222 140 172
4 240 89
81 88 43
150 132 110
20 48 210
108 26 95
179 81 221
181 239 7
0 101 90
30 13 237
87 109 20
141 163 45
253 153 205
187 68 166
85 30 5
32 245 121
30 53 103
11 219 64
62 104 68
138 174 130
165 21 74
179 115 186
21 95 250
236 119 100
28 207 234
228 131 108
243 44 6
91 187 177
171 129 219
253 8 82
183 124 97
43 235 114
80 185 179
40 221 10
73 6 182
160 174 37
137 199 79
32 38 240
113 29 104
76 241 102
147 134 49
120 26 62
51 236 2
162 210 169
99 92 161
169 156 33
175 212 84
156 238 190
89 9 240
57 239 38
146 146 176
105 251 245
238 146 117
184 229 131
236 152 140
3 63 169
92 74 157
254 228 5
156 202 251
43 195 133
99 71 174
74 172 172
155 138 196
29 114 66
89 221 157
62 29 82
72 182 3
10 79 64
0 83 8
89 240 208
27 19 42
158 159 37
220 249 55
221 64 9
72 71 65
36 39 246
29 209 198
83 169 195
64 203 175
140 193 209
29 235 72
140 238 77
159 18 150
109 28 44
79 179 124
90 132 66
109 53 87
189 40 89
100 76 12
104 192 231
65 113 106
92 65 42
157 41 206
83 52 21
183 197 30
177 117 99
143 20 120
127 95 3
62 114 211
109 118 112
195 82 97
73 71 123
35 188 105
59 48 125
148 119 33
15 162 73
130 28 81
107 247 107
134 199 188
160 150 230
100 208 15
235 95 62
36 19 43
39 200 192
43 123 154
12 13 0
18 242 82
19 190 12
58 169 228
99 190 181
208 232 222
141 58 10
222 9 119
226 189 96
118 43 11
10 172 61
90 164 104
222 249 45
77 47 181
249 88 95
64 217 172
26 149 187
163 180 100
182 185 157
96 244 111
33 127 59
181 236 135
31 101 111
113 30 250
2 130 177
127 125 164
10 214 21
217 133 107
40 92 167
106 233 62
3 118 123
28 244 163
237 56 160
138 58 22
242 198 38
93 58 63
175 175 20
126 102 33
170 247 86
148 143 9
98 166 189
145 72 87
241 233 137
180 116 32
11 38 10
51 48 41
145 64 158
138 158 89
146 6 251
114 224 62
248 29 24
12 109 138
199 141 190
0 250 232
117 49 223
199 148 73
42 103 72
109 37 195
158 159 140
69 223 198
36 241 191
48 12 7
107 240 112
126 188 94
113 100 19
14 235 4
28 147 142
67 3 120
210 76 224
142 192 66
208 39 169
168 21 206
55 207 42
21 236 76
163 5 145
219 210 71
20 196 248
162 208 10
252 211 235
249 132 230
12 129 93
135 179 192
253 138 2
199 169 141
152 127 250
119 244 38
77 53 243
219 218 137
213 170 1
184 229 5
127 235 192
173 40 162
181 252 82
249 77 111
3 54 6
130 34 186
165 191 46
115 218 254
69 96 116
59 114 163
239 12 23
230 165 148
230 243 89
4 63 182
236 238 97
170 122 165
201 89 164
73 181 97
73 69 13
193 251 244
197 211 229
143 104 37
115 41 100
62 248 95
198 221 37
18 4 79
238 27 248
99 228 5
55 161 119
42 223 207
173 53 4
204 93 245
99 119 217
254 253 133
40 126 59
145 51 198
189 200 18
251 8 233
207 91 156
27 79 143
185 170 60
122 74 88
29 136 75
177 247 82
38 147 41
52 199 247
69 158 117
129 70 194
165 133 65
217 98 248
239 185 238
252 82 235
202 130 160
115 55 172
230 254 227
245 117 180
104 185 254
83 167 40
30 206 211
207 8 46
150 43 43
80 38 240
141 82 201
26 152 72
21 70 48
9 208 124
184 155 108
131 246 62
98 46 101
227 104 230
105 46 223
99 7 96
217 182 252
153 161 180
230 126 34
220 207 147
27 189 84
232 122 9
183 94 74
75 25 168
140 110 157
208 117 154
191 217 88
129 39 83
63 42 163
236 243 213
185 235 134
145 220 251
11 0 193
214 21 246
234 41 61
140 206 176
35 11 193
145 197 10
132 179 35
149 155 83
113 27 83
125 103 22
154 30 106
32 6 237
16 114 63
84 205 235
31 16 201
179 50 63
151 11 3
148 227 215
76 208 86
152 246 91
41 43 137
247 184 41
237 15 24
188 50 253
99 187 33
81 94 88
228 0 25
67 2 241
41 21 106
108 51 190
114 185 74
247 91 151
236 218 82
73 34 31
14 93 247
173 94 125
231 127 229
84 232 247
87 109 177
54 221 15
234 130 135
244 219 228
114 240 205
124 4 206
53 34 214
14 217 120
81 63 3
116 115 159
121 112 77
75 78 229
65 134 54
219 236 137
132 30 234
217 248 87
196 120 236
146 192 16
41 215 234
230 224 70
127 44 19
247 159 245
99 149 227
131 32 72
202 153 127
22 141 12
222 56 75
62 246 5
53 69 92
10 14 232
68 72 50
36 206 222
254 247 235
247 201 27
136 200 193
235 26 128
93 166 195
112 196 192
151 79 83
118 63 208
148 92 7
146 100 26
156 120 144
131 243 7
171 199 35
224 226 232
55 88 141
44 194 87
78 67 167
10 107 205
235 243 73
253 148 254
37 0 62
155 238 237
29 125 242
102 119 25
52 158 77
216 8 2
197 70 250
171 15 21
130 219 87
61 109 173
108 44 55
49 203 36
37 47 156
92 65 56
99 254 47
191 229 132
104 115 15
153 83 6
80 17 83
146 198 124
178 237 164
126 17 231
46 242 180
101 59 231
104 226 19
163 193 162
31 159 126
174 51 52
208 0 125
101 202 203
209 131 194
231 100 157
220 195 37
107 20 208
87 39 112
239 141 26
206 63 44
52 79 71
27 251 98
108 188 186
138 192 104
168 186 104
231 116 122
76 68 115
169 212 97
231 21 77
41 252 44
54 210 143
148 49 130
89 236 195
202 1 103
18 203 198
167 220 0
175 121 103
241 248 85
252 95 56
197 202 145
230 35 70
109 193 185
199 124 185
197 159 118
233 108 66
145 189 16
91 17 197
164 98 104
233 229 116
233 110 38
158 198 249
242 88 233
160 222 75
107 16 56
191 35 234
214 57 35
237 235 27
18 235 114
109 182 59
34 13 174
160 13 99
156 218 204
244 203 69
217 91 137
82 131 6
200 63 150
193 191 192
165 246 144
157 147 29
63 99 193
59 110 172
135 20 59
49 86 200
167 140 50
128 225 120
218 249 112
99 210 12
246 157 30
112 173 155
106 233 57
95 242 151
127 178 211
21 30 42
42 167 168
151 164 163
215 129 228
70 187 154
227 43 176
246 41 170
155 229 141
175 175 46
213 95 74
149 229 41
148 118 214
135 141 76
162 20 30
237 189 185
220 234 215
150 37 60
16 237 162
70 197 47
1 210 254
115 203 126
101 122 194
202 222 1
40 211 79
132 191 196
241 199 155
158 240 169
227 228 141
165 33 71
20 141 95
86 120 217
21 88 173
23 160 95
181 82 221
26 131 138
150 143 8
135 210 67
36 164 203
109 81 97
133 56 42
209 83 194
63 57 205
211 205 112
249 241 199
94 169 81
75 33 84
218 243 178
113 171 27
41 21 209
0 86 212
43 109 233
181 41 195
223 44 103
137 218 110
193 113 169
154 237 232
165 127 56
162 168 124
110 50 64
73 22 177
218 167 119
249 36 182
155 107 63
128 199 89
144 241 20
6 222 209
42 207 219
111 63 241
237 9 100
124 211 197
65 242 236
169 185 30
55 88 179
143 106 41
242 103 47
203 178 75
204 7 2
41 105 208
7 53 166
195 45 190
53 60 221
66 42 155
80 218 185
241 140 124
28 28 168
21 55 24
104 250 99
131 55 208
88 164 175
180 159 106
41 115 150
51 249 149
87 208 93
104 169 45
196 115 175
100 109 243
142 198 7
195 57 164
78 214 24
191 88 169
199 82 0
71 14 130
167 211 221
179 201 49
102 137 0
42 40 157
9 76 127
155 98 197
137 221 145
128 122 74
41 67 48
97 154 27
26 217 254
89 198 62
63 82 179
91 104 73
168 122 135
153 181 45
84 153 48
181 141 70
182 194 74
37 18 148
168 6 24
58 26 244
68 128 173
159 187 70
165 236 122
190 57 139
67 233 56
72 49 197
147 212 101
120 105 103
71 248 28
80 203 249
151 108 168
33 199 31
137 199 107
166 138 68
178 133 31
15 111 206
49 187 184
12 7 144
184 19 206
50 169 247
92 65 26
246 237 215
133 12 14
173 106 124
233 119 202
31 159 49
222 32 248
92 85 129
123 4 237
41 75 248
204 46 213
144 199 65
46 238 161
211 30 153
91 229 77
219 159 36
133 183 110
34 248 123
8 252 12
159 193 27
131 23 66
89 39 55
76 234 41
199 154 153
240 4 249
209 141 132
16 20 239
96 139 175
193 4 176
122 224 4
115 207 226
109 14 18
163 92 85
7 68 215
53 179 36
55 134 32
40 155 64
33 100 57
165 22 9
116 117 44
10 37 194
35 120 237
244 39 3
121 22 31
134 38 118
45 56 209
195 37 188
222 24 52
77 38 51
150 41 223
63 244 248
77 246 100
118 32 2
24 97 91
197 174 155
78 43 195
143 198 120
170 145 31
196 105 247
222 170 231
159 106 186
110 132 152
89 86 53
158 3 28
60 38 30
37 84 3
97 106 116
92 242 237
15 193 54
143 21 111
11 52 15
207 88 227
229 119 55
48 45 27
137 156 247
204 221 230
163 6 109
72 147 173
0 32 194
63 160 41
186 55 210
153 60 94
80 87 61
175 97 27
254 213 235
181 93 27
199 76 161
176 102 182
123 169 245
228 92 165
122 238 97
107 8 170
18 120 151
124 12 88
175 184 237
40 69 186
21 46 35
161 139 239
165 196 162
19 42 87
177 150 130
76 103 145
179 108 30
148 111 188
185 95 121
27 95 252
115 176 177
247 57 165
190 66 203
53 95 1
121 3 186
198 55 224
14 135 97
89 19 60
86 179 142
6 158 72
223 83 151
207 36 61
90 14 192
62 187 126
112 220 67
105 149 0
220 254 249
251 34 94
196 141 145
177 58 96
253 188 156
189 153 135
68 26 87
129 58 10
157 202 244
231 107 0
130 158 252
47 53 242
138 95 175
59 43 187
79 87 0
102 233 101
34 248 78
249 136 157
244 99 90
248 240 178
89 174 101
21 97 46
46 196 51
49 111 12
112 138 195
40 13 42
190 131 32
247 224 159
72 111 226
26 163 155
205 164 248
83 73 103
156 233 179
155 184 30
199 217 241
138 115 225
146 220 180
104 68 16
0 160 116
126 22 146
107 248 213
119 57 63
217 47 128
133 252 248
60 100 156
18 5 91
154 234 131
74 12 119
134 125 19
102 112 64
72 195 231
11 60 188
142 181 231
154 167 89
36 175 98
181 249 184
66 83 93
251 83 177
166 39 160
51 228 48
34 162 212
187 21 129
147 212 240
242 232 234
108 240 164
104 83 56
13 226 8
121 64 161
252 69 139
4 16 84
164 142 117
132 186 27
178 190 86
119 218 32
244 243 111
11 97 29
59 133 39
186 245 138
175 187 254
46 102 44
24 189 230
230 88 58
157 148 195
216 94 47
203 97 201
32 148 29
31 32 204
45 189 127
242 247 248
129 90 5
5 211 189
121 34 116
188 12 71
239 142 153
236 91 200
74 71 108
133 76 135
19 185 175
108 3 39
101 206 120
146 90 91
193 203 203
178 194 25
52 34 12
31 2 166
46 89 227
116 106 172
245 166 238
189 4 239
170 127 171
198 0 53
176 127 80
80 41 214
182 233 102
190 214 68
193 21 46
8 44 247
190 186 168
112 254 147
147 170 241
45 86 220
199 204 126
46 113 157
58 50 131
45 67 208
213 17 65
34 54 101
147 31 36
163 41 56
99 123 60
35 102 166
167 110 211
236 175 67
165 72 94
77 179 100
100 49 33
92 26 160
117 132 254
92 229 160
109 184 15
187 80 1
43 35 147
189 254 169
35 68 133
173 165 145
37 151 85
217 100 193
154 67 238
125 198 66
102 45 33
14 75 156
22 20 245
161 194 241
116 29 43
86 60 104
213 208 138
80 22 107
97 160 70
163 248 108
57 12 27
136 36 186
178 233 199
205 145 225
17 148 53
230 144 70
9 221 105
61 103 30
155 43 233
155 82 188
189 239 151
20 141 183
11 164 53
244 18 196
90 105 15
22 150 38
12 128 63
49 13 236
24 147 204
254 105 154
43 112 189
172 148 221
216 130 155
19 149 18
25 176 196
129 1 197
65 128 78
26 197 79
34 93 200
198 133 115
216 199 109
130 74 200
219 13 176
118 83 52
110 26 113
114 86 183
224 91 176
161 249 73
24 228 62
109 123 82
151 185 201
146 109 155
138 113 9
234 89 225
222 155 168
232 164 137
169 220 217
242 56 54
165 104 197
99 171 223
134 86 69
164 98 46
48 199 120
85 46 226
172 217 164
59 133 224
178 157 235
6 204 8
122 238 92
246 241 3
230 92 146
242 198 43
216 146 113
247 228 168
79 8 151
55 187 110
25 229 12
119 97 139
79 127 240
2 29 24
210 59 35
110 31 81
73 234 121
122 158 127
240 162 229
14 154 19
109 115 74
223 150 132
94 140 168
30 231 170
219 145 54
204 196 6
251 153 235
163 37 227
218 24 148
0 221 78
77 209 187
234 213 59
173 215 205
231 212 15
129 36 254
79 248 184
100 117 80
125 66 56
80 20 251
220 153 127
154 70 86
21 89 88
201 106 158
167 174 196
134 224 49
50 98 223
143 197 80
116 22 173
213 176 3
16 141 79
157 100 238
21 243 69
45 167 12
224 170 204
146 12 32
132 191 25
83 245 1
251 11 159
25 96 32
185 216 36
205 211 150
119 165 128
247 15 83
165 210 24
136 69 31
105 59 210
75 34 22
232 232 172
73 116 253
82 21 162
4 222 174
177 72 131
249 113 70
98 155 131
41 138 226
51 143 78
36 132 67
156 224 180
117 103 243
87 56 63
148 95 70
148 87 22
80 88 30
245 218 114
137 86 113
60 87 220
50 241 218
56 109 89
223 117 234
132 42 144
19 235 121
8 249 218
34 18 27
201 183 61
191 57 211
151 222 174
247 171 105
202 149 240
97 173 49
240 33 155
60 73 43
31 142 88
138 15 157
152 107 47
93 157 152
240 102 164
246 236 73
174 43 152
186 20 141
243 231 139
2 13 47
147 115 163
20 48 246
205 140 131
217 101 158
14 153 155
224 191 151
2 72 149
2 90 104
236 49 136
139 82 140
249 62 224
48 70 62
148 214 123
228 142 80
74 251 173
139 252 23
13 239 126
96 55 139
85 110 169
225 206 23
241 86 200
213 136 125
90 53 171
79 63 81
216 13 66
232 187 77
28 144 150
4 248 244
15 249 20
208 220 7
170 248 191
4 35 151
199 70 183
20 194 157
4 49 105
35 180 80
30 206 70
135 202 170
8 91 184
148 227 201
124 95 135
20 177 82
247 89 188
78 56 236
72 19 121
22 39 121
142 14 221
22 10 237
248 145 73
221 120 53
211 68 98
122 82 192
98 144 121
164 106 42
58 65 82
146 19 70
94 75 62
116 39 60
189 101 215
54 220 59
50 201 59
224 206 189
251 74 144
34 29 54
57 69 161
138 22 148
134 188 191
38 183 71
202 110 247
70 1 237
231 35 239
85 177 117
98 225 122
236 159 125
156 0 243
91 83 53
113 38 79
41 95 237
115 191 190
109 149 27
241 96 19
63 96 109
149 137 164
243 73 94
149 46 120
40 201 1
59 32 100
231 45 235
54 217 107
12 154 16
55 36 10
8 11 38
213 60 134
89 0 211
98 68 158
83 239 135
206 152 198
159 145 13
163 30 160
115 159 202
28 62 191
85 145 182
0 104 69
1 107 214
65 182 203
185 136 33
139 172 249
93 106 252
193 220 248
8 95 25
22 19 163
117 214 213
48 142 167
134 200 141
236 37 156
37 8 206
71 94 20
214 167 94
155 113 96
182 57 168
21 127 210
237 182 70
235 1 242
136 57 119
158 71 119
29 40 124
33 6 240
102 23 253
21 124 85
176 125 135
51 50 203
171 99 215
126 215 43
102 204 111
114 37 40
41 187 203
93 236 165
214 65 39
104 75 103
108 150 91
204 213 120
13 239 122
88 65 70
225 12 74
18 227 20
108 107 193
177 239 155
124 39 42
22 166 157
26 166 57
224 12 166
185 226 82
80 152 68
15 128 179
68 161 124
88 97 32
19 179 15
129 37 129
186 97 114
249 144 126
187 64 187
77 7 222
12 207 36
137 190 28
66 44 208
28 169 149
163 134 235
52 211 37
159 43 250
79 126 204
95 62 248
179 49 31
13 6 211
10 128 35
226 52 67
64 241 149
154 55 169
89 105 142
63 58 22
248 4 57
132 222 108
207 16 24
81 118 126
2 92 54
100 146 81
24 96 124
172 36 181
173 64 198
31 159 86
207 246 192
248 92 241
130 221 99
151 72 172
59 64 189
141 190 175
84 46 125
28 123 199
141 66 60
63 113 201
91 227 43
148 42 126
230 219 32
29 90 13
242 219 72
97 51 18
66 38 60
159 12 26
238 79 77
111 122 252
237 68 198
116 196 38
50 190 122
120 179 217
72 206 24
248 238 15
114 217 20
111 113 210
227 162 156
149 21 206
211 88 71
19 252 215
200 195 170
231 48 34
74 133 248
32 141 34
242 159 34
23 59 153
237 117 18
36 93 44
197 84 136
176 251 90
43 37 151
238 55 170
18 214 8
213 104 168
254 122 139
137 121 193
239 148 0
61 31 47
30 108 120
218 172 106
252 228 149
52 70 7
208 60 159
187 37 197
201 243 231
40 102 104
195 149 162
180 76 96
129 247 225
114 248 30
40 110 48
33 16 35
29 212 196
216 75 23
235 18 0
240 27 214
34 252 225
143 244 50
199 155 40
215 60 157
69 193 54
170 240 159
7 209 152
128 50 186
124 211 188
62 40 242
191 180 210
43 72 244
61 42 62
174 242 203
214 148 18
200 229 14
140 22 119
102 233 27
17 166 141
127 137 143
12 50 204
115 128 122
127 203 135
155 78 219
55 117 111
60 198 158
28 14 68
96 116 202
116 149 166
96 206 78
90 145 175
74 146 201
40 150 162
95 144 107
105 235 61
151 87 66
254 143 144
162 206 250
35 42 208
70 18 49
2 150 73
16 199 57
176 243 184
80 100 190
204 99 216
42 195 156
115 151 137
205 79 201
214 8 190
118 77 103
195 231 222
84 8 159
189 226 31
48 151 154
134 189 223
173 53 102
122 144 60
110 233 237
183 131 249
206 21 229
104 24 254
214 144 36
87 149 175
143 38 191
28 141 98
242 39 219
238 115 134
166 64 65
216 233 124
211 74 54
137 239 87
90 222 81
181 202 16
139 238 105
227 234 17
101 100 186
176 99 71
170 129 176
160 202 65
158 167 67
76 78 17
83 2 20
78 51 97
175 29 96
0 129 73
250 183 3
139 177 61
155 213 230
247 42 18
11 67 77
19 95 251
72 55 144
134 144 142
216 155 219
253 53 30
74 158 191
68 231 110
188 196 191
6 7 234
46 222 70
49 28 111
57 199 250
24 235 52
125 53 164
221 0 196
113 181 153
250 139 94
61 51 131
113 114 21
238 80 253
226 6 146
148 64 100
15 222 231
239 143 237
170 123 23
237 27 63
104 173 77
180 161 80
151 239 162
182 150 8
16 127 17
20 163 36
92 122 42
147 108 105
209 216 170
199 172 29
185 11 139
36 215 149
31 14 234
50 233 117
241 186 135
186 236 2
84 154 113
151 226 216
128 104 103
150 198 119
242 166 240
8 169 1
175 142 217
141 146 188
141 250 97
122 135 220
144 164 71
175 254 219
245 23 144
195 240 230
228 250 54
76 164 45
254 171 63
127 74 132
5 198 9
119 114 56
85 54 168
147 211 122
215 235 150
86 33 147
65 236 59
200 53 111
202 52 254
238 194 82
220 206 207
75 137 127
11 235 170
188 120 169
7 122 162
241 107 68
71 53 99
173 216 90
35 23 112
26 77 250
77 238 113
237 20 10
243 139 94
146 179 136
210 8 158
15 94 153
12 180 45
73 18 147
158 173 39
110 178 162
195 226 196
196 218 132
132 6 219
247 121 170
18 86 162
147 15 0
215 19 9
28 18 54
190 110 190
67 92 196
198 210 239
157 226 71
98 91 232
6 14 132
186 56 217
8 100 243
128 244 181
20 226 148
71 37 14
111 196 34
209 139 242
117 20 136
53 108 195
93 32 149
8 214 211
66 20 161
42 148 76
251 236 211
144 92 178
129 87 173
12 210 137
90 146 25
37 223 156
47 47 27
151 3 124
119 205 86
63 76 151
166 5 5
202 144 122
212 207 252
41 161 197
100 123 235
149 142 76
73 208 13
73 72 85
226 82 208
1 1 202
86 104 29
107 231 110
137 129 132
172 15 66
172 119 103
146 160 126
235 232 76
217 11 41
188 113 12
163 181 157
89 156 173
231 49 120
220 76 133
244 148 234
109 23 143
247 241 173
121 100 13
10 82 150
45 90 244
24 152 190
88 38 244
14 106 247
95 87 129
171 74 28
212 193 24
208 240 245
157 159 31
243 143 118
45 55 1
93 16 10
232 39 210
240 111 107
66 14 230
104 87 40
38 176 52
123 78 204
219 113 135
176 90 234
213 40 15
195 146 39
209 153 31
146 33 169
105 117 21
51 75 61
67 178 106
224 74 116
22 154 61
190 82 154
28 30 131
203 142 148
117 158 35
177 35 107
34 78 6
226 226 132
213 32 142
14 233 206
81 160 56
254 104 134
34 12 245
242 134 194
41 215 64
32 15 204
31 81 156
177 236 218
78 179 147
10 102 81
254 144 38
6 194 113
147 199 162
169 159 101
10 36 188
15 142 251
70 122 131
148 56 250
201 122 163
6 82 171
94 106 5
47 76 63
133 160 90
80 128 8
242 133 129
183 13 144
125 245 27
97 2 190
128 37 76
212 78 212
40 104 232
23 221 170
231 121 23
235 184 198
236 181 239
118 162 250
65 134 176
70 135 57
147 135 230
254 40 107
222 13 235
87 98 235
237 242 67
248 79 230
147 163 30
174 57 238
232 160 101
236 78 25
166 204 114
223 190 42
149 187 138
175 186 69
5 81 156
238 204 145
203 91 47
51 77 103
149 185 144
141 104 150
2 141 182
125 157 104
65 30 206
174 42 83
244 176 244
1 215 121
150 47 237
70 183 22
184 70 111
182 157 219
157 169 120
184 158 191
88 248 138
38 20 40
186 32 189
204 53 14
143 222 86
207 218 86
186 194 161
39 215 217
84 216 60
159 102 33
100 27 169
154 27 96
41 123 220
83 253 1
177 216 57
99 101 6
251 241 169
0 205 87
126 169 191
132 97 198
2 69 52
44 220 13
88 191 214
241 214 190
224 234 54
27 76 186
193 118 125
48 220 107
6 155 187
66 47 150
10 63 5
19 221 36
1 67 8
139 230 201
143 198 215
216 116 96
198 16 14
220 80 95
14 245 26
43 11 208
178 120 155
128 174 112
213 197 105
225 217 221
170 51 148
102 22 204
2 136 40
129 143 135
44 126 218
99 90 174
139 155 34
197 91 84
65 51 179
233 45 69
91 165 243
83 24 41
20 128 88
70 245 160
48 216 7
193 198 78
155 199 126
119 150 209
246 214 132
168 179 125
167 251 3
38 28 193
236 176 14
94 84 162
184 116 126
70 33 146
55 34 57
137 76 208
109 34 251
123 193 144
180 254 247
198 39 245
126 14 14
51 4 133
183 121 124
245 44 91
248 141 119
159 143 120
126 38 203
110 95 8
72 31 59
133 1 157
134 126 249
56 22 248
186 202 40
249 210 20
14 52 84
3 54 92
1 145 197
12 21 38
246 148 106
124 112 182
233 171 64
0 242 52
72 96 185
53 47 166
79 47 31
5 61 120
4 192 115
68 116 40
116 105 127
144 128 195
157 80 30
77 215 141
80 108 136
89 77 128
57 217 139
31 253 147
1 163 88
136 78 240
127 55 215
143 24 61
225 134 53
162 204 150
183 141 126
61 223 233
5 154 24
61 35 173
234 58 47
243 15 198
3 113 132
8 241 160
195 176 239
199 200 145
232 205 43
58 108 247
121 43 54
41 130 209
56 23 76
102 158 9
227 94 0
143 65 125
56 90 106
84 13 254
146 148 169
109 226 35
14 225 41
75 247 131
16 107 238
143 172 28
103 54 123
136 188 139
25 16 100
47 214 101
30 26 109
185 137 36
242 42 91
51 225 137
39 51 63
49 238 60
185 239 103
6 90 210
177 150 145
200 246 194
56 118 16
119 216 159
200 211 211
134 207 25
189 189 100
121 112 159
229 55 195
13 190 52
108 28 221
88 87 200
174 239 35
109 208 107
120 123 106
19 99 67
107 181 121
79 146 74
106 133 4
142 67 177
83 48 254
154 65 235
183 194 21
69 15 131
82 189 21
148 180 173
95 63 176
156 116 187
217 75 213
7 125 68
208 48 79
32 197 88
226 224 167
126 241 130
85 71 138
171 27 200
52 33 109
172 41 88
53 20 40
89 64 29
140 206 170
237 157 91
86 175 76
185 187 214
211 157 55
25 245 100
25 7 54
159 22 18
94 227 99
127 43 4
26 17 236
22 50 229
112 239 43
209 10 236
48 58 14
64 215 175
19 140 195
84 207 17
198 75 97
50 205 180
89 142 58
5 94 251
238 38 62
156 162 69
46 103 227
46 181 72
189 21 99
59 115 200
87 142 205
134 196 40
99 4 105
112 89 235
166 206 8
209 189 86
254 225 79
134 216 199
37 198 213
166 237 124
162 17 231
230 97 70
161 29 186
203 215 85
21 13 15
214 204 158
110 70 230
83 134 158
183 51 250
1 237 23
189 208 241
236 96 157
24 98 19
223 138 129
228 155 239
132 98 77
47 214 16
200 228 155
113 243 73
175 152 241
186 234 97
172 38 48
100 104 240
4 56 49
50 176 21
216 204 194
242 223 70
88 167 237
230 143 177
196 253 143
164 197 210
251 235 119
37 196 217
49 201 44
52 196 48
245 175 83
118 11 20
177 201 149
254 123 192
86 109 62
104 187 136
221 49 120
242 13 124
37 110 152
232 43 48
69 44 128
192 135 26
243 159 215
153 21 163
231 166 111
77 5 190
175 243 207
182 98 18
62 92 98
15 238 244
41 87 206
236 151 154
35 74 235
240 92 53
240 229 97
179 41 254
174 220 248
88 102 165
143 230 78
151 32 111
187 250 32
216 242 223
20 78 11
122 176 233
62 69 87
91 200 231
169 180 197
65 186 107
30 38 40
148 117 165
24 135 184
235 96 232
182 150 98
182 215 6
86 111 110
18 139 92
48 35 105
37 75 142
174 167 41
67 45 194
96 36 21
18 213 29
11 191 18
196 133 110
82 40 69
232 83 9
98 7 226
46 181 8
48 12 157
202 236 235
236 27 174
209 120 141
180 196 151
23 115 68
17 85 251
4 56 194
70 189 198
187 220 178
174 28 220
164 232 215
2 243 143
203 115 19
54 61 172
128 81 47
58 145 47
17 135 31
192 239 23
101 183 33
76 61 72
162 172 230
130 147 181
147 14 136
55 111 86
169 198 207
86 205 61
205 29 9
221 96 192
225 135 89
70 31 152
194 76 97
237 7 113
10 12 100
54 8 119
145 116 156
67 24 26
183 69 61
44 232 152
152 240 148
75 24 25
226 216 152
215 162 226
217 208 135
56 230 41
4 162 77
194 37 19
34 225 58
142 202 66
161 136 119
220 130 142
67 106 220
218 121 219
51 195 218
82 159 163
127 221 186
157 146 4
151 221 25
73 164 201
128 86 102
176 146 227
44 238 160
9 196 157
3 28 227
59 170 54
40 237 115
29 113 64
122 144 137
253 142 191
75 156 18
247 176 73
226 187 23
125 154 87
144 213 184
49 12 104
10 85 186
230 239 133
107 213 193
213 87 1
117 8 5
160 81 71
60 60 70
105 204 193
191 202 128
235 0 9
133 221 97
154 54 148
130 9 118
158 198 209
160 170 167
56 44 225
58 250 8
42 253 202
215 53 191
238 20 253
163 100 172
163 185 6
187 176 160
235 222 79
16 155 71
239 223 186
35 225 103
218 216 103
175 142 202
197 113 223
15 91 209
86 99 179
68 41 50
168 33 201
247 16 66
217 242 126
65 207 76
22 27 68
55 249 101
57 184 84
80 81 125
137 29 201
144 252 210
173 195 29
189 15 25
123 44 200
142 49 205
136 142 229
58 169 239
30 11 34
59 57 247
10 43 62
125 250 156
227 91 204
94 101 24
253 156 35
59 57 73
156 238 77
214 176 76
15 145 195
114 244 110
61 172 227
168 105 74
121 116 190
250 214 53
137 178 172
96 138 133
143 151 7
112 214 20
69 127 142
113 141 82
49 115 157
82 203 203
170 196 170
139 87 238
174 188 71
244 4 72
41 192 67
174 107 131
54 58 106
164 211 40
83 193 171
238 141 242
198 173 212
13 72 214
237 154 75
48 16 170
67 185 108
202 225 10
246 187 204
64 88 176
35 16 161
192 139 10
178 189 104
171 241 171
94 207 54
132 57 13
10 2 122
160 177 35
10 233 13
145 209 35
60 187 206
74 182 46
204 239 167
4 92 229
63 136 204
243 213 88
150 22 142
143 144 106
208 236 113
81 195 98
207 225 55
131 193 59
6 81 62
82 249 187
224 194 43
116 202 69
232 100 150
208 44 75
63 138 142
112 222 6
230 109 166
0 221 105
121 11 56
83 132 229
43 126 72
107 91 33
94 201 252
155 129 8
33 142 147
247 168 153
176 21 115
216 8 5
57 240 134
37 40 65
151 227 49
10 247 76
168 36 229
138 23 149
50 74 102
26 112 44
78 120 213
203 28 170
249 124 198
194 142 186
228 12 67
134 119 192
234 22 159
248 18 149
45 12 23
104 37 18
138 39 164
64 82 190
200 80 88
246 119 46
201 63 51
136 39 17
218 40 175
64 128 252
230 250 170
94 52 248
56 251 108
106 193 201
63 69 146
27 83 134
48 161 134
234 9 114
54 71 46
106 231 128
63 242 62
211 109 144
160 86 179
196 115 252
52 144 200
248 72 62
233 68 74
50 38 58
19 102 185
240 55 85
202 87 133
129 68 54
73 199 136
159 220 186
209 233 121
52 175 58
109 83 118
76 146 27
157 236 49
100 76 220
47 219 34
4 173 51
121 66 6
80 42 53
171 18 140
63 135 249
70 171 55
213 161 60
201 55 118
8 245 210
94 216 68
145 75 139
202 245 51
23 92 152
217 190 207
98 126 144
69 199 119
179 144 37
108 184 165
135 77 82
168 250 50
60 153 50
57 56 33
28 26 221
254 50 252
38 168 165
84 243 15
43 61 0
25 8 39
234 78 177
211 89 197
10 98 93
196 155 242
150 40 93
42 61 141
86 16 152
205 188 144
3 181 82
168 125 161
165 249 123
224 126 79
235 124 146
88 27 206
207 18 247
140 82 54
227 33 222
162 136 135
234 9 221
251 147 221
95 177 10
95 29 238
90 153 159
48 8 85
212 55 242
68 112 174
249 224 131
67 202 215
172 83 87
102 39 26
228 150 157
3 166 37
1 125 86
159 202 120
197 108 110
111 208 77
91 36 56
163 82 244
60 230 127
99 13 168
132 61 225
29 243 133
206 111 223
133 167 98
139 33 7
4 82 92
214 2 84
180 209 202
9 39 250
26 189 28
123 31 161
131 76 210
223 218 187
181 117 116
166 246 65
169 239 218
108 89 149
205 60 92
240 248 229
193 241 209
107 24 118
240 45 131
7 171 37
90 9 192
2 170 208
134 143 196
4 253 45
180 196 46
57 203 37
160 169 159
175 1 76
37 54 151
216 194 153
176 76 13
57 47 72
252 198 79
95 91 44
211 137 175
62 54 180
232 96 13
27 144 230
175 236 68
211 96 91
63 176 251
157 50 45
118 15 52
77 34 92
8 55 18
121 129 254
138 90 203
247 216 132
214 239 120
27 42 80
110 112 103
155 65 171
60 175 218
164 15 78
227 117 26
214 196 250
82 168 103
155 63 40
116 49 42
67 137 103
65 143 54
86 160 78
193 199 82
109 248 85
188 212 15
98 21 31
203 14 65
131 153 174
197 142 39
243 52 129
168 40 167
87 2 206
65 224 214
8 78 244
62 120 226
19 47 24
50 10 92
182 95 245
5 140 19
173 135 36
21 109 43
249 173 212
239 161 23
143 109 201
190 61 236
226 155 94
102 83 218
116 251 125
180 16 158
114 16 107
4 24 96
109 252 183
216 149 113
152 225 58
4 171 230
155 157 112
114 173 106
21 48 160
135 112 57
3 113 224
215 147 219
176 154 13
156 134 100
142 203 3
85 227 49
143 188 79
186 130 104
160 3 161
132 179 175
159 219 38
154 156 188
210 164 77
193 250 31
201 60 150
26 52 152
180 155 30
233 246 129
251 243 118
16 0 223
56 246 158
254 240 77
175 195 187
70 84 67
9 169 46
129 104 200
1 72 249
0 192 78
24 6 67
252 19 128
125 125 152
53 8 120
131 207 103
163 197 127
175 3 175
248 160 11
164 26 197
117 161 47
168 251 25
47 70 224
129 90 41
205 168 23
119 145 30
124 211 73
75 222 76
87 9 219
82 225 78
35 95 162
65 13 72
186 73 55
114 240 237
183 215 115
157 155 141
9 40 64
74 85 137
202 30 139
84 54 60
195 76 207
49 200 16
17 213 130
214 172 188
112 41 196
33 197 143
150 237 17
170 32 229
29 36 250
23 222 116
254 21 162
106 91 163
210 232 73
204 131 87
115 29 155
167 194 98
81 253 176
194 206 82
175 2 40
160 125 179
3 239 64
93 35 88
217 31 162
205 84 109
159 194 65
14 28 130
136 186 212
199 99 184
93 243 27
63 51 233
50 240 161
113 154 214
158 168 175
19 139 224
230 58 109
118 33 15
149 246 252
142 195 180
2 127 74
131 159 132
174 206 204
208 210 200
65 8 35
84 150 241
84 234 200
249 184 176
240 164 27
229 31 133
198 236 45
204 23 27
16 121 64
0 215 214
167 104 250
57 114 52
28 179 186
215 88 56
126 23 229
87 182 212
254 140 55
253 221 88
185 120 81
13 64 149
175 143 34
231 36 249
129 137 163
208 109 182
131 195 242
51 133 49
102 106 195
211 167 89
96 95 157
126 95 237
184 137 132
7 185 128
43 156 249
120 224 200
18 60 207
48 121 238
169 66 153
117 164 80
88 84 84
162 159 177
200 19 109
186 92 79
217 18 146
55 58 6
222 159 62
64 85 212
175 28 2
158 54 103
113 182 67
40 44 229
19 61 45
181 208 106
14 125 224
160 114 35
210 32 123
89 0 63
64 76 227
239 145 93
20 83 136
135 19 242
176 241 59
238 70 82
13 63 199
171 161 208
245 127 9
147 104 4
87 215 81
117 22 2
173 155 129
243 223 128
167 53 254
148 213 55
92 41 124
196 138 120
227 239 93
173 215 22
42 171 183
205 91 244
127 205 131
246 190 36
130 37 19
212 4 157
14 173 77
193 50 232
42 4 98
107 249 84
235 62 155
226 9 11
200 175 9
53 143 148
2 102 13
64 158 155
133 225 7
12 140 99
112 252 80
116 203 85
52 93 38
6 235 193
166 25 20
83 210 124
38 154 115
223 47 91
197 182 155
58 86 174
32 28 49
183 121 115
68 230 136
246 29 79
154 226 98
42 78 205
173 202 109
54 175 215
175 200 55
182 48 131
134 153 34
60 32 53
117 175 97
121 132 20
26 92 252
227 254 143
27 208 33
46 96 22
200 188 103
26 86 145
132 157 149
113 65 216
30 241 106
89 174 140
202 105 153
84 191 231
52 195 52
213 231 149
204 110 67
157 68 42
59 161 44
236 243 127
190 77 64
81 80 165
43 66 21
113 205 67
94 149 174
224 227 151
110 213 215
118 151 177
197 147 177
162 142 218
11 51 113
52 78 25
116 208 202
98 172 108
157 151 44
151 15 39
12 148 218
167 117 106
178 81 3
54 55 183
104 212 177
30 195 238
196 116 246
149 115 87
114 216 160
165 77 28
105 250 160
15 128 167
114 10 119
120 165 55
3 101 71
201 183 117
52 36 85
112 205 56
1 48 215
128 165 37
59 214 67
100 42 17
235 85 108
24 57 199
231 254 121
147 17 175
94 147 85
187 225 1
64 124 192
159 229 107
172 175 70
253 28 15
67 225 90
149 86 93
193 5 158
184 183 146
252 253 92
118 203 100
134 124 235
44 248 252
181 103 236
70 15 203
97 74 158
148 190 50
120 36 204
25 173 212
12 18 23
178 91 191
83 140 13
28 193 22
93 195 121
8 207 76
10 127 248
138 126 249
64 85 107
61 13 145
141 135 251
167 190 77
120 53 186
235 119 127
133 139 27
17 113 163
113 8 130
91 184 231
60 41 56
17 31 123
167 29 76
73 61 204
166 211 198
192 225 250
121 40 209
224 207 169
119 210 36
38 149 38
110 158 68
126 181 215
86 182 179
147 139 86
59 95 89
205 76 240
193 246 124
124 145 113
15 114 117
244 238 180
180 42 90
13 21 152
124 132 166
203 191 234
0 173 150
159 48 72
3 247 99
95 28 71
134 26 96
120 234 43
8 168 39
182 174 56
70 90 129
82 125 25
205 66 243
20 162 52
219 211 88
169 100 251
168 55 69
188 62 232
234 92 223
216 5 158
150 200 252
234 111 96
150 129 207
217 66 146
102 166 96
132 47 2
247 211 39
222 55 62
151 24 157
50 150 0
188 55 42
136 246 181
165 181 7
110 49 21
95 116 30
226 20 243
220 158 100
181 208 51
151 9 207
251 61 28
3 61 144
219 124 105
132 233 180
184 180 75
205 127 78
201 56 59
36 62 171
192 4 49
145 143 247
139 189 175
153 75 45
149 22 107
15 125 10
122 102 182
90 134 120
196 41 103
89 101 145
132 90 205
69 28 9
51 190 181
173 114 22
53 210 239
182 73 93
254 253 158
178 223 6
21 116 53
28 229 216
249 45 107
153 81 41
144 14 190
34 125 219
166 41 149
229 23 175
218 207 72
239 82 200
72 156 238
250 198 106
158 65 119
159 154 16
120 198 234
166 58 175
222 253 83
95 232 12
58 147 11
72 89 252
210 139 232
210 14 184
145 231 53
83 190 230
64 88 147
200 75 144
143 73 211
185 35 214
114 158 110
200 201 27
85 91 165
145 157 52
241 208 210
126 139 3
20 208 139
0 27 109
152 188 12
34 97 169
229 195 56
44 41 8
8 143 6
209 143 36
39 32 33
213 234 43
75 117 162
1 50 8
167 134 122
79 227 68
11 94 141
236 4 116
70 223 60
98 213 190
157 67 170
199 32 83
224 0 95
8 246 239
235 103 119
249 96 159
44 12 90
217 49 46
227 237 133
176 98 66
213 144 157
161 174 179
251 195 90
33 120 74
3 232 118
9 235 194
247 59 223
170 94 20
13 117 171
65 11 50
121 211 184
76 163 163
161 189 68
153 38 72
138 127 27
139 17 201
140 112 57
227 93 36
168 118 253
198 110 205
92 236 130
48 88 10
7 102 82
148 141 184
54 66 205
31 121 77
2 252 1
34 220 12
230 81 205
97 9 58
9 35 103
190 5 98
173 118 225
183 245 187
237 251 156
113 62 84
187 243 145
229 24 144
223 221 162
223 104 167
82 249 152
135 248 216
140 234 90
82 147 24
36 137 1
174 148 74
29 126 98
28 11 65
67 6 129
180 27 79
21 15 167
70 254 117
70 194 37
60 34 239
192 192 91
167 103 146
121 214 237
50 83 181
65 188 154
222 74 161
63 117 118
212 117 114
99 152 102
212 100 64
237 185 78
155 249 150
69 92 205
178 247 54
88 132 134
120 212 15
1 104 224
249 49 39
80 227 47
212 84 61
95 83 199
170 105 197
195 168 192
181 181 144
72 6 31
32 181 140
82 156 179
3 183 218
112 39 111
151 144 188
110 126 49
67 224 83
0 19 227
132 134 188
249 181 174
82 55 243
41 3 147
161 178 29
219 104 224
110 44 156
248 156 249
109 247 213
13 87 69
137 228 37
197 254 134
123 191 252
151 191 195
215 63 204
147 150 205
198 52 7
134 22 159
112 30 52
87 67 66
240 176 100
183 216 50
5 237 206
210 31 26
24 105 127
159 222 176
133 237 239
31 239 160
187 254 234
101 80 116
54 159 106
253 145 48
66 131 197
228 49 5
2 122 228
2 222 32
175 38 177
5 176 94
156 193 87
211 112 64
147 123 79
226 37 43
51 7 216
117 47 195
55 182 167
219 96 249
79 86 41
211 150 59
168 172 242
85 73 34
154 129 163
26 35 112
21 123 32
217 103 72
33 7 138
138 193 194
28 196 32
117 201 97
230 160 204
203 206 105
133 46 182
96 123 131
57 79 194
247 227 39
12 190 115
81 104 232
185 152 122
210 18 216
163 181 133
39 102 3
127 49 18
3 199 247
231 238 14
45 73 104
187 83 185
33 107 101
35 0 41
169 180 33
220 125 92
128 11 37
18 154 71
131 139 111
2 199 10
149 144 90
91 223 26
40 56 185
73 45 157
61 96 169
85 41 168
133 174 48
68 212 65
224 93 220
31 132 206
53 89 182
37 199 186
174 166 82
160 90 187
54 84 215
227 172 188
108 149 55
233 250 50
83 183 167
237 89 19
24 77 132
157 22 37
143 192 108
59 96 226
84 232 175
209 69 104
172 157 239
51 251 237
91 9 165
142 68 23
62 187 198
77 99 118
248 91 236
90 244 102
72 193 129
233 240 184
66 93 6
130 60 137
226 179 141
177 177 50
144 234 239
6 234 212
223 211 169
136 64 6
231 107 224
211 188 203
239 62 207
222 250 195
221 145 28
68 144 72
64 100 105
114 124 239
170 30 238
125 247 222
141 90 39
63 232 3
228 15 76
170 177 66
177 147 229
185 253 189
45 156 128
57 177 39
16 142 104
22 230 139
181 136 123
125 218 141
254 15 93
41 68 220
239 15 177
115 104 100
4 82 106
52 5 26
78 120 127
8 209 221
3 236 186
161 215 45
236 53 40
12 144 3
191 196 213
127 105 62
126 230 201
200 150 199
196 194 41
74 192 151
82 76 98
226 97 56
144 184 141
199 204 220
230 121 197
104 245 132
170 29 195
11 19 250
65 194 25
69 48 114
110 13 29
104 137 131
7 209 59
133 175 139
183 64 82
93 131 224
162 65 169
17 90 16
196 88 191
70 64 5
211 60 72
203 168 242
95 184 143
230 14 138
138 251 28
195 69 116
201 91 115
140 128 237
230 167 104
224 173 167
94 187 139
102 175 75
47 218 47
63 224 225
230 213 153
199 141 73
182 119 14
152 197 115
45 91 17
118 173 172
228 110 119
245 79 37
173 21 173
199 168 169
102 163 68
133 27 80
131 8 36
20 104 239
57 52 17
85 5 152
228 229 137
87 120 20
30 158 109
201 231 17
223 221 14
128 202 79
19 46 90
11 140 106
150 72 179
66 111 42
117 153 4
74 126 83
174 76 247
238 186 157
99 197 74
149 202 64
193 249 199
168 210 49
242 15 248
159 90 70
116 0 148
126 38 172
109 6 203
37 100 163
11 85 232
39 68 222
20 31 149
100 69 66
145 45 222
139 20 7
27 154 172
204 157 186
135 241 68
200 229 252
235 191 243
78 9 42
141 26 99
76 213 124
217 169 159
5 221 221
146 37 38
79 136 219
203 58 11
22 52 39
121 132 156
59 50 247
20 249 201
253 56 235
54 200 153
72 231 148
124 117 63
177 238 39
94 79 222
89 182 39
177 99 99
63 136 1
34 211 33
113 127 149
20 151 15
95 91 55
60 10 209
56 139 123
46 27 103
26 29 235
52 197 118
112 102 136
68 239 72
249 10 163
27 60 254
89 92 108
185 196 79
104 115 0
14 98 96
213 192 130
79 181 208
170 126 247
168 138 106
90 203 150
235 87 106
165 2 51
189 50 20
116 187 7
252 24 252
219 196 183
235 165 64
114 128 158
12 213 53
198 151 9
119 231 171
131 162 214
173 23 247
131 15 123
251 15 142
66 183 240
95 210 78
242 193 208
86 0 37
26 250 19
238 53 184
192 236 87
90 41 20
110 240 201
142 198 113
129 76 180
189 192 122
111 49 174
169 112 14
192 144 10
74 151 148
142 36 11
154 51 13
75 202 149
55 0 193
241 224 47
93 150 52
122 158 9
195 238 206
232 133 104
220 30 90
207 51 184
239 190 226
174 25 62
236 90 247
55 20 209
241 191 109
133 99 100
158 79 20
162 14 69
190 144 219
3 71 14
120 200 246
236 184 145
68 216 154
3 137 19
59 107 49
172 43 147
185 215 142
165 26 134
200 1 93
103 160 152
140 246 149
204 183 183
208 89 179
67 115 199
98 204 173
122 142 71
76 195 198
193 198 163
174 175 99
143 174 174
7 116 143
3 64 65
86 88 165
183 116 125
161 210 30
48 165 236
95 176 135
18 64 35
97 21 143
6 71 87
158 61 41
221 148 127
177 154 152
25 246 19
116 214 204
69 253 29
36 228 219
95 24 231
254 145 191
248 92 68
222 50 62
253 107 209
71 13 41
190 106 216
68 132 9
246 38 178
228 136 233
57 159 159
61 169 254
183 134 3
156 251 156
109 197 110
112 2 53
31 229 138
90 138 86
217 103 214
222 164 91
122 1 244
171 15 187
42 98 207
30 27 184
143 117 75
14 33 34
81 80 0
175 74 154
182 54 147
44 68 45
21 13 142
49 86 101
33 218 178
237 173 49
92 125 55
224 3 148
187 46 216
240 203 206
194 130 119
176 231 213
224 205 244
73 246 13
206 19 27
229 129 137
54 49 22
157 126 92
187 251 248
133 101 80
243 18 44
140 125 217
64 201 162
124 167 132
245 101 7
98 25 173
198 66 97
81 203 46
70 232 151
138 168 220
118 140 188
202 174 89
10 8 58
77 83 253
7 214 228
209 215 100
10 4 40
202 189 138
54 40 64
10 37 40
169 173 194
40 62 205
107 169 118
211 167 141
145 152 93
123 175 46
80 12 176
66 188 117
108 153 63
232 117 72
235 100 244
53 176 10
103 245 244
229 172 156
13 152 78
151 107 84
213 153 51
178 35 195
20 61 162
124 136 178
193 50 229
112 21 116
221 124 118
159 209 151
172 131 165
97 79 199
100 98 109
118 118 148
203 230 45
62 169 120
226 170 85
213 128 35
38 49 26
45 128 173
125 111 9
111 92 65
173 124 240
206 29 108
69 81 235
17 254 56
221 150 216
216 51 74
158 244 91
115 233 48
112 133 103
190 106 10
86 114 88
141 46 102
34 229 253
110 19 40
113 18 50
34 162 171
179 38 22
6 251 136
135 249 2
16 240 125
138 66 101
148 144 212
42 151 204
147 178 211
169 153 97
211 170 43
178 245 129
8 175 21
97 3 93
101 196 186
115 196 57
74 22 169
236 176 233
247 1 230
42 78 233
83 160 170
224 134 170
233 157 15
171 139 122
181 13 178
158 120 183
213 90 23
163 155 85
4 102 62
54 152 222
141 227 74
115 230 1
75 226 36
91 223 186
240 72 188
234 1 72
190 254 146
99 227 129
52 10 53
9 69 250
35 127 38
120 244 146
125 79 214
230 159 98
36 2 242
225 241 127
90 206 6
250 129 98
173 84 164
27 175 52
143 109 69
238 17 224
80 171 8
30 200 245
191 47 136
29 228 241
121 7 166
18 77 82
78 116 56
244 125 110
97 186 63
66 130 195
42 164 92
223 194 215
5 131 71
16 188 153
188 54 55
242 52 72
21 32 72
205 8 113
183 190 61
229 29 193
34 199 178
165 154 68
142 122 180
55 226 169
118 122 19
129 210 102
55 120 100
244 96 181
232 12 174
24 186 240
20 201 47
121 205 21
148 225 240
22 193 109
30 243 236
51 39 57
60 186 69
128 68 82
174 7 103
57 162 94
210 11 180
72 247 11
4 249 212
180 18 81
222 53 234
59 94 48
217 215 35
252 215 17
193 47 110
176 214 162
53 197 133
89 51 195
145 228 67
175 235 47
64 99 126
208 157 158
11 78 49
109 124 235
206 173 110
247 126 182
77 39 110
216 84 243
102 210 209
32 217 227
108 54 106
27 217 57
240 17 182
95 87 25
2 254 107
177 224 11
224 48 36
214 186 117
198 229 76
33 211 11
253 25 111
33 167 89
235 153 129
92 42 170
155 147 48
91 84 199
178 58 189
200 122 119
232 77 103
49 2 241
246 41 198
40 16 190
46 20 245
209 81 26
178 105 236
166 73 223
148 113 1
206 222 191
177 3 43
101 196 198
204 22 95
48 177 186
236 80 221
211 124 243
69 59 161
74 226 175
209 28 153
4 109 2
179 231 112
39 27 25
240 145 149
121 113 11
158 206 169
9 181 53
70 200 166
3 201 109
56 34 146
212 183 39
158 3 207
40 32 68
178 20 131
108 229 21
92 87 209
183 239 147
217 234 96
204 36 10
133 234 73
131 152 3
162 215 61
245 232 251
239 241 209
217 151 166
112 250 11
105 242 29
233 12 149
57 26 45
77 187 49
204 25 110
55 82 245
104 118 240
89 115 209
118 58 191
74 6 6
205 52 71
144 248 71
132 212 122
9 206 153
88 172 15
77 145 0
163 49 250
252 127 34
177 123 83
22 110 63
192 161 72
204 42 153
25 188 1
167 27 131
74 223 114
92 165 46
173 79 12
180 138 134
159 228 109
103 182 111
229 156 132
221 180 16
129 98 161
1 122 68
29 167 104
223 113 169
117 44 26
191 83 200
225 203 197
232 113 83
136 54 245
141 112 248
116 127 239
164 138 207
94 130 148
212 170 184
147 2 217
215 193 180
118 150 164
139 215 152
30 193 224
188 196 192
24 217 250
218 75 122
155 231 14
95 43 46
196 114 102
84 32 103
34 209 38
45 196 6
50 3 102
120 13 59
77 104 5
134 209 171
159 229 244
143 221 251
158 156 156
244 207 150
137 180 205
128 70 254
141 130 35
92 209 2
16 76 91
186 177 171
147 60 169
202 138 11
24 158 192
77 79 14
5 64 204
61 106 110
111 98 153
74 236 121
123 45 158
113 19 242
142 152 114
156 221 114
33 168 247
46 244 46
171 237 147
79 148 163
178 13 238
17 217 42
198 213 145
11 162 11
231 208 0
193 176 158
96 8 213
55 175 183
55 245 54
171 217 68
253 45 118
144 196 42
148 243 93
18 217 240
183 98 165
21 221 62
167 217 141
28 149 11
99 237 18
27 37 64
141 162 28
195 20 242
37 47 98
125 205 110
41 123 50
163 232 8
116 203 68
169 243 164
163 249 173
35 40 217
227 136 180
115 243 245
6 239 120
8 46 33
171 211 235
135 150 92
163 114 3
199 132 173
84 120 149
224 26 210
47 178 146
71 44 195
254 245 212
138 92 125
186 187 254
203 32 54
29 0 27
37 190 55
0 199 39
211 89 31
42 151 238
234 5 159
35 164 44
151 157 7
160 63 28
47 193 134
91 239 53
231 234 241
206 67 92
160 22 88
170 153 82
52 198 136
194 156 30
169 94 214
20 110 73
222 185 225
226 214 67
221 254 205
254 46 80
53 214 161
0 137 157
181 252 13
38 215 135
170 115 236
106 81 126
141 144 84
83 60 70
177 147 109
81 209 153
181 208 0
191 123 246
80 25 97
7 170 19
235 192 29
81 10 153
200 55 119
97 119 119
171 65 52
155 80 180
246 81 104
214 180 123
160 193 248
87 10 191
184 39 21
148 166 180
160 44 34
44 126 93
9 139 35
34 156 190
126 102 163
14 38 89
141 1 200
219 51 230
165 237 11
15 110 217
99 115 215
210 104 222
62 87 41
72 24 36
77 116 177
88 38 16
88 69 101
95 238 240
20 172 169
201 148 12
210 154 205
180 214 51
73 102 145
217 224 186
3 124 205
70 230 49
43 103 102
249 60 52
81 103 20
92 19 1
110 116 225
152 74 242
202 103 149
109 28 32
24 195 226
209 200 214
225 200 71
122 194 202
52 180 116
82 15 3
225 51 87
48 1 198
155 1 99
254 69 177
193 155 31
23 184 191
13 86 39
46 113 130
221 1 152
168 158 254
197 253 152
119 172 61
215 202 109
127 86 122
240 6 170
112 40 190
138 83 142
12 2 160
133 141 46
215 83 237
91 233 221
128 64 212
245 172 82
2 76 231
91 208 214
207 197 118
72 150 98
145 225 213
1 25 67
126 48 127
116 242 248
197 93 146
98 201 218
163 33 123
41 133 48
107 88 137
195 59 249
80 76 113
195 161 116
189 76 9
223 155 48
62 139 250
177 13 144
198 169 91
55 123 89
248 20 40
252 194 25
254 29 112
90 93 147
241 115 237
169 184 193
69 222 101
234 34 172
32 93 48
209 162 78
248 23 52
77 216 235
27 0 181
115 206 164
52 209 222
217 186 198
106 92 8
250 149 176
138 0 205
97 224 105
216 98 158
254 0 36
69 244 203
116 8 36
152 65 72
40 147 194
105 242 208
186 226 37
144 187 182
198 108 56
163 40 116
50 76 19
249 100 37
137 30 56
83 183 79
208 225 222
207 19 115
96 239 233
203 161 168
176 93 251
168 128 186
108 252 194
23 56 15
95 167 192
238 81 39
157 199 114
187 231 228
238 135 167
36 252 169
216 199 246
104 254 254
93 219 180
18 92 196
57 131 105
111 82 50
7 201 40
170 78 6
211 61 192
134 68 152
139 88 212
105 184 246
150 195 121
174 41 99
11 208 65
112 91 145
157 109 230
176 14 243
140 224 89
209 56 5
21 208 176
168 199 29
100 90 233
157 252 208
144 182 31
236 226 192
145 24 163
187 68 11
233 116 90
229 212 50
69 205 221
160 9 221
132 8 174
155 5 7
154 82 88
101 172 249
20 52 109
2 139 202
49 184 184
209 106 158
196 129 33
221 69 180
57 175 129
226 14 114
89 205 4
58 17 220
12 17 172
95 83 64
158 219 10
77 222 4
242 12 203
248 194 103
87 136 102
203 220 248
61 79 58
23 112 128
239 157 216
125 108 41
171 57 201
70 104 146
33 216 171
31 49 98
105 206 131
239 60 208
213 170 61
84 96 87
157 146 205
61 114 190
241 78 226
71 160 244
176 5 170
111 84 63
222 28 152
46 156 142
232 210 207
236 205 215
232 90 201
208 167 230
254 135 196
220 233 56
88 101 6
83 138 190
172 199 228
154 149 210
218 221 31
90 82 72
248 99 83
63 184 16
158 85 229
192 205 185
181 77 74
42 81 100
177 141 251
8 118 228
105 190 89
174 22 98
11 87 137
182 5 119
177 153 246
217 210 5
90 29 189
61 244 104
193 79 118
121 139 194
232 22 226
39 24 160
8 221 72
204 142 69
69 203 2
43 154 219
182 163 26
146 128 178
249 219 71
225 21 243
167 175 183
94 21 117
120 41 51
45 127 106
90 178 193
85 246 244
21 210 68
161 165 121
124 202 159
83 150 155
170 191 35
247 3 0
85 199 196
146 218 42
198 10 131
92 9 3
230 28 25
76 117 52
116 134 184
24 79 46
169 48 185
120 84 188
139 82 189
238 165 123
69 160 218
24 230 80
145 152 39
186 248 106
132 201 227
63 188 159
152 229 61
137 168 9
19 144 58
65 45 112
172 212 61
208 27 19
163 206 177
171 20 220
176 225 115
126 55 129
148 221 170
131 210 68
66 50 63
120 152 203
196 7 75
99 145 110
141 145 155
208 40 168
14 3 217
124 6 41
17 124 209
189 92 164
175 48 53
137 56 114
214 132 107
31 218 194
20 161 214
186 118 1
147 204 120
163 184 22
195 206 251
52 136 35
169 251 219
210 146 119
228 107 197
20 202 217
149 224 156
134 197 74
159 59 120
43 185 166
48 34 248
44 229 127
209 227 45
80 37 226
209 56 174
199 222 180
81 14 155
253 6 45
199 18 70
148 64 43
63 105 72
163 181 49
160 12 201
73 171 251
30 78 77
94 130 221
187 54 50
195 111 48
173 153 242
244 220 210
182 135 119
61 176 53
206 128 95
215 145 18
137 236 25
182 194 76
212 247 27
123 97 186
248 98 246
67 125 107
27 240 12
206 214 229
56 131 218
113 62 55
78 111 80
164 50 109
213 188 151
87 96 250
26 97 131
208 72 23
196 3 252
156 85 98
85 31 212
208 56 144
184 209 167
137 47 58
67 125 11
58 70 171
18 194 219
96 190 14
140 244 199
90 64 56
10 250 109
19 158 240
6 29 49
35 201 119
119 88 240
35 206 40
222 32 91
238 230 15
61 129 178
175 170 38
232 90 136
35 30 100
210 78 167
137 236 252
231 73 31
188 158 205
110 185 99
203 11 180
65 123 119
224 172 145
53 174 61
79 142 57
109 39 83
102 198 254
20 128 51
128 191 185
244 35 155
248 214 64
147 218 182
231 72 62
240 83 83
81 201 147
193 238 225
228 35 201
205 88 54
166 231 147
151 53 225
250 238 65
70 127 141
188 211 73
239 120 250
41 21 252
219 217 42
205 6 155
235 30 109
36 195 59
64 235 8
42 23 226
97 67 61
128 49 200
235 74 16
199 73 179
46 183 8
10 181 173
235 186 122
155 155 39
145 93 124
103 151 167
136 26 208
133 205 47
95 131 21
69 50 51
94 140 246
151 38 189
178 63 164
168 65 144
142 216 89
130 99 215
239 204 112
149 1 94
14 105 27
131 168 79
63 154 192
63 106 200
79 67 87
132 201 60
210 222 66
227 184 112
188 132 222
83 202 125
151 253 22
3 137 116
197 172 137
46 250 75
41 142 226
30 186 212
118 69 233
122 247 41
49 195 84
166 87 132
217 175 158
225 134 194
247 149 77
213 65 245
28 166 247
185 133 4
89 217 201
130 226 237
52 59 167
236 251 235
109 189 162
187 5 96
254 227 211
186 230 249
1 73 183
55 188 181
30 222 148
19 104 170
61 212 61
97 230 47
7 246 219
113 109 230
30 160 164
21 174 200
250 121 66
87 225 217
133 124 214
206 48 83
248 102 32
225 33 151
154 34 207
221 2 39
199 167 158
162 34 249
194 189 185
234 228 161
182 95 127
31 159 165
84 193 167
81 83 217
174 141 84
49 49 42
223 247 3
172 33 52
165 168 104
167 20 150
44 253 86
138 129 65
44 105 14
88 35 254
195 150 123
166 11 156
141 218 154
19 53 86
165 123 95
172 159 42
64 122 191
150 96 20
2 156 241
84 77 230
160 241 130
132 93 249
22 120 200
224 254 57
181 183 140
240 133 132
11 124 184
72 170 103
126 40 28
251 44 214
102 15 86
164 68 38
242 84 53
44 75 34
248 193 35
154 30 97
83 164 113
232 59 229
220 68 89
102 145 192
219 145 18
199 129 3
225 142 28
179 7 243
129 249 153
23 94 251
131 110 131
242 189 207
74 235 41
209 159 98
69 94 67
92 108 92
97 111 216
232 250 76
147 222 221
53 25 183
12 10 202
138 90 75
254 164 171
169 71 11
5 165 63
221 232 64
245 235 56
62 200 241
248 6 194
80 209 22
80 53 148
44 231 128
28 122 231
110 106 157
82 188 63
169 43 91
25 252 19
104 79 57
247 123 66
250 98 129
89 210 61
181 166 248
48 236 146
71 80 200
211 1 202
8 138 224
89 134 226
6 13 152
240 27 207
232 199 252
36 253 111
149 1 243
51 189 94
64 139 228
49 97 249
58 146 228
35 47 61
163 24 0
142 151 237
151 218 182
189 141 155
164 20 124
227 191 238
123 144 63
89 1 170
253 51 104
114 27 78
235 238 139
207 197 42
84 25 83
75 238 153
101 196 41
205 153 204
119 83 228
73 130 208
185 128 115
26 220 20
73 207 98
42 43 230
101 209 17
202 101 119
180 154 111
252 21 36
241 202 21
156 227 238
118 203 161
24 174 140
156 9 223
117 83 80
129 251 163
96 229 222
220 213 61
63 76 131
66 163 128
143 161 77
149 203 220
167 192 125
173 44 97
194 39 12
115 226 162
113 243 143
59 179 58
5 80 203
204 126 224
92 52 114
186 42 73
15 74 198
17 222 133
96 25 26
182 101 233
138 56 238
4 130 210
45 113 69
205 201 123
247 116 101
108 107 19
187 5 201
167 141 2
14 91 210
229 201 252
90 210 21
125 95 48
60 61 52
236 122 36
3 19 93
214 85 129
26 113 206
126 116 176
103 118 132
108 240 155
113 188 68
190 111 67
242 139 37
225 179 9
175 218 138
130 0 49
72 189 190
48 245 37
230 119 65
70 91 134
236 196 20
11 2 49
48 237 27
220 137 122
28 151 144
10 177 109
148 133 224
92 192 188
6 152 225
223 12 187
82 142 189
158 153 81
118 34 14
244 16 31
154 24 222
92 237 223
146 43 54
164 66 18
41 153 23
44 133 35
61 150 203
122 157 28
77 77 135
126 227 229
77 0 107
28 118 17
61 28 136
199 95 185
149 5 37
93 135 233
90 205 208
9 206 212
137 95 221
17 160 37
179 95 17
98 117 61
92 98 150
22 51 130
116 190 136
204 136 50
120 15 200
191 65 58
6 191 196
70 223 130
48 106 32
23 95 219
21 134 144
241 183 53
247 206 185
3 201 121
72 86 205
9 33 176
19 196 65
107 212 218
201 219 168
22 113 211
126 184 10
87 152 84
1 119 126
211 87 172
16 12 253
156 49 254
21 38 74
57 241 32
132 96 119
42 2 101
19 116 249
118 122 225
121 147 120
238 178 110
220 176 145
251 103 106
16 200 186
126 112 153
49 58 225
203 168 206
180 7 21
102 33 71
235 44 64
42 196 190
69 45 58
92 141 177
103 186 156
115 140 106
20 93 55
168 62 198
0 129 65
160 171 48
7 146 204
145 252 13
52 35 41
84 197 78
67 12 3
155 201 190
232 109 198
237 100 109
175 47 6
73 41 200
174 232 130
114 237 193
67 29 184
230 151 90
56 251 119
219 100 174
210 31 146
226 29 44
188 160 146
22 36 5
243 139 26
187 48 53
129 190 41
182 101 236
141 107 174
171 114 105
90 42 51
188 175 244
50 107 100
237 2 192
171 231 170
232 14 107
108 94 162
95 75 164
116 41 200
102 171 122
130 236 212
90 45 245
202 38 34
112 168 20
226 169 206
246 221 86
77 202 220
163 203 205
201 40 192
165 206 223
147 214 117
21 234 155
70 89 209
202 16 120
247 102 216
125 38 138
31 58 193
194 231 238
94 11 200
246 78 0
231 158 49
6 35 4
87 96 70
45 151 139
160 49 99
204 80 30
172 209 134
240 244 79
56 96 29
230 237 186
191 232 160
31 48 30
97 79 245
175 186 232
83 100 253
63 36 193
245 160 65
206 44 203
152 128 61
73 178 137
230 144 222
165 72 15
34 13 15
129 202 163
244 184 157
39 86 56
148 212 60
79 39 86
176 13 127
249 43 48
42 109 225
135 24 143
115 83 126
16 12 152
250 234 11
252 245 248
217 166 51
169 89 168
134 19 182
109 34 245
247 79 116
98 147 38
123 148 122
132 155 188
187 6 206
197 212 76
63 209 191
139 162 245
200 218 106
2 227 153
29 190 221
23 229 10
178 228 191
180 247 234
58 122 136
48 55 140
112 236 63
125 191 215
42 8 70
206 66 244
227 49 173
181 221 40
182 91 251
177 62 6
78 9 120
132 222 113
195 168 190
92 159 159
153 116 180
60 213 28
97 18 228
71 186 206
59 90 3
161 174 235
113 51 32
18 94 107
174 150 43
25 227 74
112 42 141
186 81 7
61 144 127
83 25 100
75 19 123
183 204 123
14 234 251
246 214 107
211 146 109
100 199 239
201 156 35
230 225 123
50 112 5
174 55 134
55 6 11
30 234 125
245 219 98
244 161 35
157 178 39
49 146 141
22 82 30
108 13 115
223 247 47
145 253 43
10 76 250
154 73 31
25 159 72
136 245 201
76 158 228
182 9 84
28 62 185
124 209 131
234 191 213
103 67 156
184 112 88
155 34 7
122 219 214
196 240 29
154 152 9
224 96 123
15 91 10
147 246 59
153 100 217
17 149 118
12 82 12
26 108 189
111 162 182
172 62 198
126 8 161
134 135 247
136 56 50
120 224 160
184 240 238
67 92 254
115 67 78
11 17 250
238 81 42
185 186 125
168 52 103
13 100 46
30 134 153
215 208 53
41 105 13
147 142 136
88 120 74
223 238 178
39 25 241
71 155 139
100 78 182
80 2 66
190 154 195
62 20 249
171 236 239
233 38 47
249 80 26
60 118 212
122 199 238
173 229 229
147 205 56
51 73 17
140 145 15
205 24 108
188 242 104
207 70 16
215 223 246
107 205 223
91 28 30
220 208 165
165 197 101
167 223 212
10 160 38
187 184 61
217 107 153
74 144 97
191 187 30
89 141 223
6 202 220
37 174 27
116 162 233
213 229 52
164 111 225
221 84 81
165 81 237
174 248 186
145 121 245
197 150 225
11 100 58
188 102 83
34 60 201
250 211 87
239 133 248
211 129 219
252 58 190
102 222 58
232 180 60
194 133 119
3 83 1
101 69 68
228 252 147
143 3 55
101 224 100
30 237 102
91 96 239
177 245 78
88 39 191
218 70 189
142 13 72
28 196 4
227 70 73
109 193 121
21 149 134
218 35 245
62 157 39
230 219 69
189 206 171
162 147 6
201 190 53
58 241 189
238 149 58
124 138 99
143 239 58
134 3 5
21 122 196
8 223 29
85 88 141
32 205 111
66 63 194
109 35 164
172 79 221
33 204 115
160 146 131
127 114 49
137 111 35
138 1 68
68 101 85
35 225 111
214 97 235
200 20 197
133 230 201
123 177 227
8 11 138
161 73 198
252 237 46
0 60 249
22 135 88
86 182 46
58 221 5
225 115 148
130 149 11
142 193 0
79 205 184
121 73 44
47 248 99
75 104 113
84 144 77
152 225 187
59 216 153
127 183 111
1 75 182
3 106 156
44 47 95
132 145 70
99 192 168
93 109 9
147 81 97
12 146 86
236 146 134
214 135 94
244 26 130
71 63 5
218 9 199
110 208 224
169 78 224
97 203 207
41 158 237
128 93 27
117 174 72
142 162 173
145 119 102
8 38 152
141 103 26
187 118 58
211 109 123
67 81 134
85 62 233
53 28 53
198 226 169
168 8 148
248 58 69
59 214 240
225 3 245
74 104 149
62 158 93
108 100 169
197 154 34
45 197 42
165 249 34
249 8 89
2 192 93
168 182 15
184 163 108
252 178 159
10 101 201
190 167 81
167 89 210
252 54 180
22 13 244
171 243 236
138 237 83
97 1 251
253 204 32
1 193 52
224 178 71
115 100 80
46 70 107
127 147 128
55 125 121
166 218 252
200 187 82
40 88 247
254 141 182
64 198 126
35 133 2
155 237 120
2 159 51
164 185 157
36 108 241
200 209 109
137 114 46
218 35 90
181 60 209
134 0 170
8 37 148
7 123 76
78 35 57
136 60 129
130 136 167
250 83 233
197 145 151
103 54 50
229 111 211
24 91 228
254 193 230
145 221 253
151 136 60
22 193 126
145 29 22
104 194 219
239 71 190
243 3 8
120 29 164
224 91 170
95 124 217
173 135 245
138 230 129
102 18 102
123 8 191
114 43 57
32 177 126
219 235 168
41 87 16
236 17 192
61 197 6
243 188 12
49 152 108
114 76 210
42 157 102
190 25 172
94 205 236
148 216 56
63 122 78
42 154 100
253 177 172
239 219 70
214 237 83
79 150 130
237 15 103
187 42 209
51 45 43
73 90 15
126 127 237
102 153 42
187 60 226
237 32 228
81 65 220
87 125 11
96 174 189
172 173 176
144 2 229
9 118 37
158 31 146
104 115 31
150 87 152
160 220 64
209 144 186
9 6 67
100 203 103
68 123 19
101 99 133
38 207 135
4 46 242
184 91 61
140 8 52
128 93 49
43 137 66
25 80 19
141 156 225
38 11 192
198 128 250
173 29 169
81 165 1
4 21 194
68 222 60
61 70 77
183 129 177
190 180 209
47 43 178
70 241 195
240 88 37
3 95 94
13 10 142
148 121 156
198 24 219
64 72 10
4 182 218
26 247 230
175 198 214
110 185 147
182 98 126
242 129 127
7 183 46
217 113 182
225 193 205
8 212 104
59 240 10
138 253 119
170 159 254
182 45 82
107 78 115
210 97 44
167 44 234
109 254 62
167 40 143
14 115 213
7 242 226
167 85 107
90 9 153
151 176 146
120 155 145
52 145 249
138 82 201
22 135 171
33 115 162
177 188 243
7 56 109
14 81 150
202 205 175
179 185 147
25 3 102
230 252 117
31 83 45
233 125 155
93 16 90
197 22 214
8 54 87
89 165 254
221 93 50
124 191 206
32 236 206
97 8 160
128 55 75
232 65 43
59 242 113
171 149 152
252 74 243
112 187 89
242 27 161
203 181 149
82 165 138
15 45 60
80 13 116
19 235 94
4 0 97
161 204 6
96 97 18
245 103 140
142 76 189
206 250 103
102 137 176
248 216 122
83 214 152
193 180 21
122 231 116
10 176 132
123 24 107
171 216 243
171 77 171
54 143 24
11 234 182
158 170 125
143 194 36
166 29 171
32 190 19
206 214 154
206 202 14
208 141 148
22 24 111
71 245 148
150 140 185
67 252 239
147 90 84
144 198 86
125 135 27
133 245 113
180 58 196
121 25 144
65 79 209
100 198 97
83 86 167
208 49 17
118 105 191
43 245 33
166 197 63
232 140 209
10 191 87
36 129 229
181 47 35
161 216 146
165 91 172
92 56 35
221 170 66
77 11 129
97 68 242
5 202 182
96 128 86
191 209 200
84 63 0
118 118 229
62 142 103
195 238 0
227 207 114
26 226 50
84 96 45
221 30 221
107 171 134
227 9 138
246 74 115
2 25 162
159 11 86
248 75 0
13 139 104
59 229 28
191 128 126
191 15 101
96 199 82
85 114 191
241 77 223
1 249 4
38 103 42
145 185 39
114 201 124
62 42 93
241 35 37
247 239 12
228 105 180
115 20 153
27 77 134
73 103 248
225 236 206
106 67 17
70 160 100
172 182 74
175 192 21
211 193 168
19 36 45
8 217 66
40 171 125
57 223 212
173 240 16
182 64 198
188 179 29
161 11 10
57 87 164
133 17 8
41 248 87
222 13 118
83 75 235
152 25 165
58 87 24
92 199 179
170 136 12
56 162 156
179 149 6
0 213 221
107 76 210
162 173 128
202 124 103
215 160 62
240 39 246
79 78 99
51 133 67
178 203 112
0 52 19
89 34 84
183 17 111
100 27 51
14 72 211
119 34 231
231 79 13
198 27 205
60 97 94
165 66 186
185 193 163
65 62 177
152 213 96
123 171 195
191 13 114
100 55 214
82 46 203
83 247 128
207 119 18
228 188 222
228 12 55
168 189 208
47 207 117
124 12 140
240 148 100
101 218 122
168 159 139
143 185 164
67 71 224
7 195 50
162 81 234
131 202 176
195 163 196
56 202 52
151 197 212
53 18 70
200 159 128
232 163 167
0 113 128
127 64 72
10 65 201
239 153 243
30 253 110
45 193 67
174 90 7
63 179 54
50 141 67
227 186 222
183 70 85
189 73 128
3 157 97
61 79 132
58 162 254
197 59 151
76 157 59
66 130 37
170 220 149
109 84 195
246 195 38
234 79 222
184 25 96
123 136 6
53 168 24
201 224 211
107 62 110
201 140 52
83 181 27
163 111 233
11 53 122
105 145 78
236 129 237
11 183 234
4 173 224
77 133 23
214 132 132
49 150 153
197 233 231
68 172 183
85 95 250
159 170 59
225 91 141
162 139 136
8 11 29
254 26 180
212 45 28
203 206 181
151 184 140
146 212 185
200 122 197
121 185 222
149 50 65
46 116 149
187 61 119
11 95 113
143 121 224
34 16 47
214 196 168
162 137 82
80 142 29
2 30 186
98 195 105
96 159 28
76 129 168
196 204 177
26 55 211
5 5 127
51 200 239
138 98 39
233 63 52
84 28 23
34 120 146
145 251 104
176 41 160
97 3 49
119 87 226
178 217 24
34 195 42
199 173 102
196 236 224
227 129 173
251 55 248
221 109 0
67 133 106
146 224 3
124 134 135
233 17 123
251 70 30
224 65 236
105 238 176
235 36 63
89 80 183
147 174 230
155 188 220
129 135 68
98 138 206
62 177 105
192 94 248
247 223 60
101 143 65
107 237 240
235 70 131
11 12 147
50 103 69
101 135 61
9 98 93
109 52 196
206 235 210
89 240 104
84 48 39
153 149 88
165 155 246
94 106 185
251 206 87
131 25 17
40 173 49
66 238 246
108 252 91
156 234 160
104 38 237
139 190 10
139 230 103
99 134 99
158 208 77
148 212 181
75 196 69
90 134 239
22 197 61
185 248 181
240 27 202
151 30 15
5 242 139
250 165 142
96 35 80
88 138 227
199 74 146
126 12 96
85 168 183
76 234 197
109 9 17
101 228 114
97 114 119
248 195 45
181 59 78
225 87 106
130 116 172
229 167 45
75 238 43
222 28 83
67 92 159
253 60 79
103 66 177
222 184 89
165 201 210
217 157 85
47 183 197
175 105 251
74 54 247
74 93 186
113 242 149
176 156 12
37 90 104
232 143 113
142 223 101
82 27 174
159 42 119
2 171 49
196 214 62
238 41 76
2 149 69
155 54 229
151 65 69
64 96 152
129 188 99
111 252 122
144 211 43
126 240 33
77 76 105
21 199 38
27 223 243
125 14 143
123 22 226
62 215 234
173 89 15
199 67 253
168 171 26
52 25 228
5 1 9
7 231 167
52 155 46
6 82 54
163 229 65
205 121 183
94 250 145
134 196 139
97 151 106
2 2 18
71 229 60
160 130 25
178 211 80
2 101 81
128 181 193
8 231 141
245 121 28
66 176 81
52 245 20
216 135 204
246 129 23
250 71 19
158 240 33
180 110 2
232 235 37
165 10 54
210 202 155
221 152 202
149 60 112
106 84 243
8 145 138
108 111 147
120 254 7
49 111 56
230 55 6
18 45 102
0 131 105
111 205 216
161 206 173
31 147 189
65 48 185
10 53 141
183 20 198
32 43 172
188 158 20
178 42 19
70 9 12
213 151 216
150 109 69
188 200 39
57 185 154
231 173 160
78 247 222
80 203 70
188 238 12
253 83 247
107 84 226
211 123 104
204 213 161
181 217 58
157 209 3
157 200 136
185 246 22
14 214 151
72 212 177
53 69 193
9 253 128
204 187 66
125 74 252
172 64 222
117 158 197
116 149 26
84 20 118
225 175 138
21 37 158
65 67 113
51 165 153
177 196 10
203 3 39
92 31 150
231 43 245
242 190 55
152 213 233
161 192 232
159 248 19
174 85 153
114 71 6
61 241 243
58 43 81
247 112 87
175 65 176
110 250 121
231 20 184
107 94 91
59 73 209
59 78 89
151 250 253
19 80 236
254 152 3
101 79 56
54 197 174
75 215 146
231 37 9
220 167 104
38 0 200
115 20 5
72 193 180
153 110 223
10 110 180
229 231 127
15 13 184
6 30 204
62 21 101
28 202 179
153 205 218
97 19 12
25 224 135
244 158 188
13 112 15
208 137 153
211 88 153
118 156 202
135 76 232
135 96 59
57 17 199
146 186 100
136 234 117
169 149 247
108 191 103
58 29 117
119 226 215
221 62 39
106 155 244
72 1 15
135 145 72
65 236 161
39 6 217
29 38 143
127 65 89
144 208 229
216 17 253
230 166 22
17 132 141
82 246 49
211 99 208
99 203 226
76 215 166
82 123 227
9 26 86
186 69 52
95 82 202
46 30 187
153 24 231
41 88 30
160 235 80
83 242 39
252 107 168
8 99 236
167 50 95
32 177 196
49 66 108
144 91 170
224 238 43
143 95 227
251 129 138
82 14 64
233 136 249
160 203 118
43 138 90
178 80 207
168 178 197
226 150 101
220 183 206
1 252 190
86 183 148
84 80 48
67 31 119
230 68 159
1 223 238
119 213 191
230 40 219
201 76 89
191 75 129
220 119 100
208 247 111
217 28 191
144 71 79
121 158 87
65 215 153
239 196 16
31 234 16
254 233 70
53 246 14
111 95 113
110 2 144
38 18 55
242 67 238
77 177 234
39 159 57
141 235 201
104 72 126
247 158 251
123 215 18
34 235 51
116 38 200
53 70 194
232 107 95
51 148 106
142 166 29
188 217 88
77 131 53
165 128 224
73 30 56
159 26 215
135 171 158
120 161 79
163 222 100
75 8 178
43 59 176
242 83 92
54 162 157
38 47 66
120 81 171
52 77 54
41 166 211
163 161 194
24 147 122
31 182 219
122 64 228
81 132 37
217 99 193
173 59 49
249 77 122
41 193 99
237 165 61
177 5 151
164 44 206
57 69 60
214 89 38
41 242 50
26 174 140
233 87 140
139 21 98
135 95 126
239 165 207
110 121 49
23 58 51
178 107 109
30 129 0
176 223 15
141 86 166
142 5 57
178 40 247
58 84 199
69 152 250
198 43 2
37 110 198
112 188 41
26 207 196
207 177 132
223 106 113
171 131 90
36 210 246
59 108 119
225 248 140
243 15 231
63 199 42
202 23 210
148 52 137
245 30 155
47 171 194
133 221 145
45 59 142
106 40 212
217 157 193
153 90 194
185 124 76
154 152 56
205 47 241
206 106 100
50 109 127
177 136 127
149 221 196
111 172 101
176 90 180
236 204 59
151 103 108
206 152 202
35 190 117
136 113 197
116 154 44
224 109 211
151 202 96
217 143 199
169 97 94
3 244 29
129 131 241
123 127 123
110 26 32
249 91 19
144 186 98
134 92 165
136 132 53
172 12 66
117 40 118
172 224 90
152 214 2
174 218 202
44 115 154
191 10 151
19 56 179
37 243 141
54 128 36
235 15 66
229 72 131
140 70 76
79 192 160
56 147 9
134 87 144
250 111 103
129 220 241
23 163 76
233 133 209
202 87 98
55 121 193
17 108 0
146 118 34
232 143 83
32 245 111
85 48 42
65 175 71
159 18 127
136 207 140
188 108 239
124 247 160
21 247 181
2 164 23
150 182 219
238 47 54
106 208 43
112 238 233
44 196 203
209 119 244
159 165 115
99 112 179
238 34 171
227 66 64
48 210 76
206 116 204
68 136 242
173 247 28
137 201 225
2 95 83
57 91 132
3 92 187
95 95 61
250 167 229
184 193 234
138 108 143
226 183 129
106 171 75
11 98 143
191 205 176
112 124 49
17 149 248
159 31 102
166 14 74
201 224 142
73 50 71
252 130 169
70 201 87
72 176 104
211 105 49
94 34 35
119 1 84
65 93 216
86 193 118
191 147 34
188 171 58
247 212 185
22 35 15
113 237 142
44 74 231
83 137 119
76 181 178
0 195 74
139 153 211
193 251 228
65 25 101
109 158 65
66 147 153
248 49 67
111 216 207
28 249 221
53 238 76
244 224 53
225 197 224
99 169 74
42 67 158
104 73 165
161 167 101
172 196 172
75 125 192
149 239 253
70 110 167
16 96 196
246 95 23
30 65 50
145 210 185
213 219 160
221 23 22
88 213 92
174 144 130
209 109 70
37 197 112
62 211 154
234 157 175
239 46 15
18 237 102
233 37 203
141 162 26
126 239 19
111 47 86
203 127 102
34 2 205
122 0 89
53 191 242
9 9 140
86 44 63
121 40 173
43 7 44
38 248 5
200 48 81
100 28 92
112 213 176
114 11 217
221 32 201
168 35 168
197 142 163
91 54 39
121 83 206
158 20 54
249 206 221
22 224 110
198 16 131
45 16 214
191 211 215
200 18 239
75 173 234
4 13 213
234 64 164
162 89 220
134 49 161
238 14 195
71 246 254
13 238 110
217 1 152
13 34 218
19 36 94
223 195 45
238 169 211
128 148 247
83 63 38
74 247 110
95 201 110
215 209 72
234 16 203
86 0 221
82 179 216
199 113 26
222 128 135
183 106 23
216 195 140
121 124 7
8 203 250
204 8 160
48 143 52
124 71 210
40 211 226
4 111 82
192 77 140
40 249 183
173 40 165
12 152 241
246 67 97
119 174 8
135 149 240
128 12 17
210 131 6
45 177 79
232 175 171
250 99 0
79 49 34
204 83 102
78 67 99
173 23 85
232 198 37
45 204 18
181 33 25
138 83 97
2 113 90
189 179 59
62 27 240
131 75 16
92 254 73
59 120 200
66 64 65
234 93 21
97 9 122
239 102 30
12 150 121
20 220 79
129 57 60
190 48 94
55 115 225
152 232 93
204 235 253
4 110 234
239 42 48
3 39 58
172 10 114
170 35 57
17 45 221
180 61 226
191 202 114
104 39 134
79 95 222
192 105 97
79 205 98
2 30 111
13 173 4
43 138 173
108 54 149
144 58 127
105 55 181
32 15 216
149 48 228
44 14 72
168 15 98
51 250 226
243 145 127
234 163 243
32 99 169
179 144 41
167 3 42
155 143 140
165 161 182
18 83 97
30 82 226
52 79 202
198 72 96
1 88 9
107 107 188
70 15 172
172 154 220
184 45 39
171 19 80
143 188 61
11 211 55
8 196 110
93 90 149
99 244 43
116 18 91
43 51 1
56 243 24
123 54 176
100 162 77
8 44 233
248 84 63
135 103 225
124 207 121
187 251 22
165 78 178
3 27 225
153 244 163
174 130 213
177 142 7
138 156 22
94 231 102
146 229 57
30 49 190
92 180 91
81 247 205
253 120 79
116 208 199
55 178 83
161 41 241
8 143 146
163 58 11
179 158 65
58 213 48
23 194 140
68 186 178
213 168 35
47 220 83
79 91 15
173 175 177
233 190 106
58 29 83
198 94 239
226 66 188
128 86 12
196 78 1
239 128 46
89 120 67
132 76 199
54 121 61
229 109 125
130 20 139
198 253 97
134 174 22
137 48 142
43 215 132
3 103 162
221 52 227
15 164 21
147 56 250
167 111 232
25 64 203
247 71 92
91 4 182
249 63 31
154 13 176
28 68 126
152 145 52
208 51 73
73 80 4
178 149 125
184 130 120
127 205 157
248 222 8
124 165 203
13 32 72
56 74 202
77 139 89
140 173 30
147 95 40
236 154 220
50 19 110
79 212 127
224 32 111
131 1 107
140 148 77
59 199 132
66 169 233
228 147 250
59 108 55
221 63 148
249 115 66
54 202 64
125 247 252
175 59 179
44 72 44
57 245 54
236 149 66
213 107 61
210 211 19
62 178 36
142 100 103
193 249 101
235 153 68
19 195 142
178 14 78
220 196 145
28 104 206
200 93 187
35 58 72
39 170 77
127 228 28
238 77 43
211 88 212
243 124 238
245 20 114
227 149 196
31 232 252
63 199 172
6 157 234
241 201 147
63 3 123
41 109 59
186 165 139
243 235 189
130 31 123
172 84 185
142 243 132
128 120 58
118 1 22
21 157 116
207 78 208
0 231 77
18 194 94
61 163 215
250 181 177
171 96 86
254 74 175
48 196 138
147 236 192
190 199 12
154 66 245
35 164 151
106 126 26
114 144 14
223 82 176
241 236 14
209 165 212
130 78 145
50 176 243
128 74 143
62 63 69
78 254 236
192 208 140
67 153 46
203 203 202
232 32 89
153 55 162
191 3 131
165 7 34
143 231 49
129 210 252
195 6 4
206 159 115
103 186 242
169 74 43
187 49 84
191 171 161
136 75 97
117 35 214
82 112 52
93 79 147
153 107 254
200 63 237
189 202 75
198 55 229
145 243 57
163 128 104
119 242 217
101 90 222
235 227 9
123 165 105
191 115 171
214 45 252
209 138 97
156 32 230
18 240 194
9 50 247
143 90 34
253 245 176
13 55 26
180 148 166
91 194 120
217 131 238
218 148 127
244 183 0
60 51 86
110 15 118
167 70 210
54 228 57
28 143 239
181 32 148
52 88 63
71 9 192
205 200 108
10 130 161
131 209 172
170 172 6
28 105 49
109 213 132
76 31 127
136 17 90
35 51 119
121 179 117
15 103 239
220 153 87
134 42 24
178 48 172
16 229 5
179 248 140
83 172 184
43 197 71
140 103 251
35 197 123
139 113 64
208 126 7
234 123 174
202 223 133
58 128 207
189 86 75
61 10 189
128 222 97
11 154 151
226 184 93
216 79 16
3 100 69
196 135 191
124 14 229
88 114 242
79 144 194
20 74 80
16 183 176
199 70 95
244 121 22
155 187 62
234 124 22
87 78 192
132 76 95
47 253 18
102 52 165
201 45 50
237 151 137
26 83 208
98 195 110
140 15 25
125 86 202
0 59 137
188 164 4
149 50 13
61 178 18
144 243 71
185 156 152
15 41 242
98 42 197
49 191 64
33 91 199
216 236 63
37 1 162
216 242 120
129 154 240
114 232 72
18 169 41
175 80 67
226 1 62
216 1 144
73 24 98
191 32 206
83 83 172
211 214 245
163 33 228
61 10 32
161 85 184
227 64 63
190 215 240
57 167 180
168 66 142
44 171 215
243 22 133
198 77 46
117 75 72
20 240 76
28 156 187
225 132 188
72 15 177
129 207 195
71 107 88
26 180 166
156 232 16
96 142 27
39 82 221
219 250 39
66 148 225
220 116 78
247 81 140
218 28 12
65 254 36
253 171 220
8 70 22
236 170 52
122 66 254
147 177 93
182 134 120
89 55 106
80 172 246
145 222 81
146 85 201
121 46 65
70 71 119
96 191 17
89 233 95
38 186 89
217 58 219
47 56 77
156 225 153
70 75 192
19 145 206
206 51 247
56 93 203
8 148 90
2 182 23
175 81 162
104 33 127
18 48 117
167 27 183
245 89 150
35 118 2
180 176 0
138 244 120
206 231 66
151 48 12
116 196 8
236 6 181
122 20 53
91 127 115
223 209 106
226 203 16
31 136 195
184 3 160
154 10 231
199 140 91
113 208 146
165 200 79
150 248 137
201 173 233
199 74 170
214 24 71
74 134 249
135 59 139
6 11 75
232 203 155
241 221 65
5 142 96
154 155 139
167 135 23
178 203 29
97 130 215
238 97 168
224 154 99
15 245 201
161 25 250
243 27 114
194 214 34
154 1 124
120 16 95
191 55 180
213 163 110
95 10 110
203 52 218
233 132 164
227 166 131
206 3 45
253 254 208
252 105 156
245 63 17
196 223 19
42 85 64
207 46 47
70 171 102
234 24 161
88 86 230
133 144 232
174 151 3
129 114 147
217 45 147
137 19 62
140 245 178
235 39 110
97 81 137
80 214 128
156 84 78
113 54 229
110 149 138
169 107 82
55 141 187
154 18 84
50 4 237
112 215 129
140 29 73
156 116 153
132 92 81
99 218 184
171 217 134
60 137 42
125 66 209
114 24 228
10 109 37
18 174 158
101 86 210
78 175 217
76 89 154
155 133 135
121 225 68
6 5 243
128 55 129
147 153 94
61 195 125
247 37 88
159 176 105
92 194 75
94 197 122
115 11 12
105 204 36
22 162 39
92 137 44
192 71 252
136 253 61
32 79 231
114 186 180
234 56 57
10 171 166
144 10 99
136 178 18
18 91 245
12 9 64
253 42 139
31 170 61
24 238 149
69 8 78
146 133 165
104 200 55
223 218 95
45 52 140
197 121 140
165 16 235
16 170 132
252 50 94
58 252 1
235 120 141
245 128 42
205 205 212
153 192 170
211 204 185
8 210 49
252 66 138
236 205 176
216 6 138
31 223 191
171 165 18
77 180 163
210 194 238
99 156 235
252 161 236
228 38 21
90 20 221
144 150 6
228 246 203
32 29 20
127 66 86
5 4 203
48 86 148
15 106 121
36 57 42
50 5 40
18 163 103
67 65 166
91 72 8
0 199 162
228 38 33
60 171 49
40 100 87
168 24 184
105 57 144
43 103 24
0 140 188
16 4 196
50 136 235
151 47 253
215 19 113
62 40 156
124 82 167
54 99 135
52 91 184
223 79 158
57 231 198
122 138 77
250 213 155
141 98 200
249 56 72
167 186 151
0 199 66
165 113 25
118 53 68
133 198 60
14 40 9
8 194 79
134 223 92
99 207 224
90 165 168
9 42 206
28 68 22
19 23 119
56 148 146
71 37 188
168 52 63
13 34 179
102 218 219
225 252 147
133 131 117
109 162 93
82 41 209
42 218 201
57 43 240
230 31 39
187 121 21
189 28 73
181 247 35
100 219 0
117 61 84
200 88 81
240 56 217
137 128 126
69 43 140
186 214 2
231 20 108
165 231 103
158 10 215
58 240 163
123 122 31
106 59 216
170 246 65
175 158 249
44 82 78
234 23 174
102 10 28
30 35 163
162 80 6
177 128 47
203 70 211
168 157 92
153 47 25
248 102 110
192 183 65
4 115 175
4 168 227
217 206 171
79 197 104
172 212 214
14 98 52
108 33 241
83 7 182
154 86 101
86 178 166
48 141 72
182 21 34
217 211 0
121 246 225
85 128 69
211 197 189
50 172 171
69 212 232
143 187 64
147 63 169
206 121 11
66 40 30
167 228 11
1 187 243
140 81 141
87 117 12
250 181 209
188 12 69
98 201 83
53 23 141
249 159 40
37 159 119
1 50 110
99 149 121
131 0 80
26 158 124
46 79 169
126 72 113
140 72 63
39 224 149
235 125 2
153 186 219
250 39 131
2 220 87
234 16 128
65 245 58
171 36 117
174 184 5
239 89 156
28 165 243
125 49 221
37 179 29
19 145 220
175 52 31
223 159 13
90 17 189
8 179 206
38 96 129
66 151 119
135 33 51
225 105 158
193 223 74
225 84 84
1 185 83
107 157 213
65 147 50
70 225 228
14 146 126
28 227 21
236 225 21
244 32 213
3 240 228
187 180 83
142 179 38
58 183 87
152 145 224
170 182 228
251 189 210
247 205 234
180 179 156
133 156 99
157 246 129
210 155 139
48 65 59
125 66 60
104 246 45
218 202 16
72 104 65
24 145 113
213 159 22
84 34 142
62 173 7
77 105 217
76 63 14
217 240 142
218 206 83
31 252 108
108 151 15
124 72 206
93 104 129
34 240 225
95 249 30
10 94 120
129 203 63
154 164 62
107 89 57
55 203 122
173 244 90
169 116 3
138 14 203
57 89 238
110 250 151
155 98 32
200 39 87
165 34 182
74 133 134
100 234 108
134 5 105
23 202 191
38 145 106
216 246 177
144 23 127
113 243 26
184 141 142
160 185 148
135 125 219
58 69 74
191 29 158
14 221 107
152 106 22
242 42 5
0 24 247
61 213 203
128 239 206
226 27 61
189 126 226
48 59 88
76 57 78
41 147 60
59 123 194
76 123 35
240 186 134
163 10 28
105 69 173
236 217 38
2 106 186
122 16 225
203 211 103
241 110 36
70 135 57
72 235 28
80 212 201
122 180 1
225 253 245
76 207 177
17 80 246
168 205 82
73 122 120
18 131 204
62 87 253
188 16 66
218 167 82
236 37 147
49 79 189
195 121 131
31 55 47
76 83 143
87 135 178
54 170 109
178 178 30
64 228 124
253 209 250
75 131 132
85 172 173
162 4 225
56 65 184
198 116 253
20 197 122
204 208 163
212 179 42
35 52 13
136 60 195
209 218 123
42 105 147
64 219 4
59 224 183
15 28 128
164 184 216
10 31 138
12 168 235
38 68 175
105 164 93
68 168 145
173 191 208
157 248 154
113 237 16
220 196 45
46 85 8
69 230 172
115 218 179
122 232 123
254 253 233
157 183 49
116 211 201
178 197 86
6 95 171
81 81 5
109 14 56
142 232 98
40 148 100
14 119 165
197 221 124
201 40 198
83 243 119
207 171 5
26 252 158
130 197 18
243 158 133
214 228 196
152 191 169
184 169 40
237 139 7
107 2 96
215 158 78
208 128 47
112 247 164
175 9 79
132 136 15
2 164 98
70 103 233
130 154 169
57 222 143
95 46 54
249 36 243
217 42 98
102 19 219
100 127 63
241 98 174
128 223 155
36 191 206
58 51 68
209 133 79
160 186 39
196 68 241
138 183 97
78 147 131
142 211 53
137 49 230
174 15 185
196 107 164
177 216 210
82 145 70
2 236 138
175 191 89
142 29 32
38 82 5
165 52 38
228 105 100
191 93 120
242 232 193
5 10 45
32 155 165
234 150 233
213 240 148
217 121 131
206 128 130
124 251 173
218 214 60
21 116 215
44 91 45
181 128 145
120 95 195
84 145 198
130 154 18
91 243 120
188 134 3
223 87 101
71 148 221
16 174 93
103 27 13
195 149 60
74 77 222
36 202 143
252 141 239
3 236 132
184 114 184
108 215 132
241 195 91
22 37 51
177 0 168
223 34 115
134 139 17
136 105 16
155 180 211
27 103 170
248 221 53
245 13 254
13 199 98
133 147 69
31 24 96
202 234 174
236 0 93
41 103 167
141 231 3
125 133 194
149 42 136
137 160 0
88 125 139
152 254 203
174 4 189
10 122 34
164 196 85
85 126 12
7 161 128
168 177 121
134 199 75
46 179 222
145 102 191
25 218 247
95 232 205
13 246 72
97 123 17
20 39 174
79 161 74
5 189 126
187 138 205
226 125 121
87 106 135
80 108 119
42 125 98
103 248 107
67 5 29
228 44 67
17 159 59
72 176 112
134 76 26
231 214 66
197 95 146
234 99 56
139 178 73
210 167 4
25 130 161
231 88 250
185 42 39
140 48 212
95 24 218
41 40 156
162 7 223
202 75 211
105 240 203
217 49 55
149 172 253
132 146 11
225 114 190
215 97 47
161 143 30
69 5 223
39 135 51
69 173 56
168 205 196
27 227 110
249 124 85
8 89 252
156 126 172
146 7 12
25 23 6
52 88 210
140 110 60
218 17 6
51 57 150
51 129 48
11 230 97
135 83 110
65 197 73
69 207 182
159 189 142
37 215 241
30 50 68
135 237 157
71 199 27
115 69 147
18 123 254
172 74 85
192 108 176
144 165 85
134 76 90
150 230 14
22 109 163
232 61 18
169 170 102
122 175 31
41 178 202
157 0 29
185 113 19
66 133 99
67 155 174
217 205 114
39 220 66
191 192 140
206 40 192
176 1 131
228 10 122
136 229 136
82 11 91
127 131 227
130 150 184
244 204 115
211 100 60
238 100 243
112 201 148
151 102 178
175 186 76
149 54 64
128 5 189
188 122 53
14 122 205
85 159 181
5 70 138
50 116 118
6 137 83
226 237 228
50 8 14
110 161 55
154 185 28
47 17 108
10 94 245
226 114 34
148 37 165
144 213 211
132 247 55
245 45 43
252 196 162
89 186 96
191 120 44
8 157 119
156 198 33
214 62 45
221 81 58
125 26 39
217 247 3
205 136 32
103 10 42
34 150 168
217 67 41
117 180 242
206 32 51
111 119 146
177 30 226
11 182 237
120 111 1
127 106 167
19 227 11
124 31 156
82 197 147
193 2 224
62 244 94
66 47 123
109 24 93
45 57 77
177 26 118
229 249 129
28 5 112
146 74 19
204 133 0
216 20 120
18 254 154
191 91 199
109 244 130
1 145 137
248 231 217
24 110 153
55 197 218
59 62 111
119 240 228
99 170 219
10 248 200
41 93 180
60 114 77
218 94 123
227 17 161
0 97 115
223 173 109
201 77 118
33 177 12
80 222 240
194 31 40
199 181 76
95 108 91
212 51 30
73 73 45
89 150 14
253 170 235
217 24 191
127 50 189
135 35 123
119 157 29
195 168 93
141 107 59
178 243 215
137 37 179
193 11 170
29 223 104
50 93 104
245 141 96
194 64 15
124 83 43
11 113 65
69 39 41
26 209 134
42 54 187
74 173 79
221 129 222
21 222 111
28 57 134
76 196 75
214 92 124
77 63 16
220 226 189
7 6 2
71 155 129
127 186 218
236 111 76
14 235 162
162 63 55
191 147 74
225 70 179
120 41 112
185 55 96
198 87 208
69 224 5
217 226 24
123 25 76
53 62 54
54 81 249
238 225 131
36 135 211
3 141 94
49 217 102
62 222 96
214 79 42
8 53 219
157 56 117
186 73 69
224 18 147
62 174 193
115 31 135
58 154 33
159 0 99
184 83 152
33 117 11
188 31 92
200 113 98
234 39 107
133 92 38
108 189 90
141 238 231
193 80 203
154 152 168
62 52 209
212 108 212
33 192 76
49 214 243
30 197 17
144 71 198
198 66 72
212 106 231
162 91 48
212 90 152
177 106 116
185 125 130
148 8 82
78 35 16
5 175 154
66 92 53
225 247 103
47 88 218
6 148 122
18 191 46
55 66 138
172 108 49
168 54 31
177 204 137
216 17 136
54 208 52
214 158 63
166 179 41
134 181 27
109 137 116
92 187 230
37 20 184
102 122 83
15 79 40
165 78 123
46 23 138
225 221 218
89 92 4
56 50 109
176 107 206
215 12 6
30 37 182
22 222 24
26 16 241
27 169 72
124 12 131
248 109 31
101 152 246
36 229 17
15 223 120
136 27 223
134 206 188
92 77 40
240 167 54
9 3 172
213 116 248
126 208 11
105 146 209
20 138 250
72 113 200
97 160 222
184 16 184
222 192 49
36 185 196
177 155 122
49 226 48
187 41 61
252 191 74
245 18 163
173 53 197
159 173 42
31 169 16
203 25 114
25 246 217
12 181 71
59 52 40
208 162 5
122 165 144
155 31 185
246 244 125
157 35 245
77 39 207
120 142 234
66 214 248
184 243 53
163 234 40
154 93 60
246 138 91
134 55 184
189 128 183
8 153 242
68 98 253
247 238 49
166 56 114
238 211 51
88 158 238
21 25 37
135 33 224
93 192 39
194 68 60
162 234 47
166 228 53
230 87 242
160 141 206
113 14 180
102 88 210
5 128 178
235 225 32
44 242 221
160 190 40
126 248 171
144 18 205
156 34 154
184 31 105
25 254 75
27 49 45
77 146 123
64 162 159
111 105 64
39 195 247
124 0 62
19 218 136
173 187 177
93 39 192
57 181 52
181 235 69
6 234 107
172 231 32
57 215 3
99 116 215
26 71 126
7 107 110
35 24 208
33 179 93
75 214 177
83 21 116
238 90 99
165 64 149
4 144 63
93 228 215
147 197 63
143 92 30
131 179 172
105 33 50
36 186 89
163 46 116
195 65 225
77 146 167
142 42 93
136 110 27
239 79 155
22 230 218
158 202 152
78 211 10
20 167 248
180 182 147
7 46 156
165 73 53
237 126 74
169 212 4
250 33 150
155 191 209
22 51 193
54 78 238
167 234 118
63 28 172
95 88 71
252 81 174
28 205 229
125 29 184
34 254 132
36 91 78
100 227 168
169 182 171
96 137 233
224 230 183
107 40 95
102 176 190
101 237 68
245 124 186
229 220 204
254 38 250
215 62 166
157 77 80
98 157 26
214 148 166
219 87 57
81 90 247
55 53 179
250 161 47
201 15 53
3 180 136
233 34 55
135 212 178
7 64 158
160 221 82
209 88 154
102 203 118
6 9 132
135 230 236
136 161 120
26 207 248
9 40 208
185 58 137
111 188 172
148 56 236
32 60 2
247 191 49
220 10 46
91 114 63
128 99 188
151 200 188
49 243 210
234 79 6
181 229 174
54 231 236
111 96 233
153 182 107
59 9 26
32 174 243
148 76 213
253 251 128
140 157 133
138 105 99
204 109 17
6 124 129
185 235 122
251 90 177
185 250 81
65 38 115
123 156 174
254 143 228
117 238 45
39 174 183
123 169 37
125 73 146
247 98 114
60 128 98
33 144 134
213 24 179
23 99 154
98 184 15
41 191 73
26 163 135
66 90 11
215 168 100
237 124 242
1 58 133
161 95 131
134 203 11
125 60 118
111 166 149
222 151 117
188 145 91
128 49 136
183 237 12
155 247 35
245 116 233
139 250 107
222 91 40
108 145 191
188 194 191
77 76 129
148 151 141
215 52 103
216 2 245
77 105 53
46 35 246
55 13 52
78 101 113
150 77 1
194 115 25
237 156 80
94 55 107
9 232 28
197 141 122
220 33 166
22 35 164
183 186 40
63 88 182
135 203 52
18 212 218
0 185 220
244 134 106
70 95 22
7 80 87
65 210 128
40 76 61
131 154 194
63 108 57
239 113 191
71 76 87
102 125 32
139 235 216
218 80 171
30 96 38
91 211 95
228 134 95
100 13 107
243 183 200
88 150 194
62 237 224
6 191 107
46 102 254
103 128 202
54 25 179
219 135 25
75 92 245
59 251 104
57 226 56
159 221 119
88 240 222
103 57 32
179 73 87
52 9 17
196 105 133
240 146 210
241 216 110
63 17 161
27 166 119
100 20 150
201 8 227
237 155 117
22 233 225
156 68 193
161 159 35
219 106 206
146 223 46
92 149 35
5 110 187
63 130 99
86 75 155
251 254 127
66 85 94
202 182 53
41 155 198
189 190 221
214 251 109
243 137 219
186 182 225
12 66 42
153 64 243
4 39 251
215 193 32
55 160 59
233 22 26
33 119 8
92 60 254
123 65 86
214 2 126
190 254 149
116 47 126
85 4 152
3 223 127
161 136 192
14 73 239
246 17 133
185 146 230
217 220 128
144 29 233
237 161 17
118 95 254
108 120 109
67 244 10
183 104 98
85 11 121
148 136 194
106 209 22
224 234 44
45 116 66
55 157 177
13 154 39
110 239 85
209 200 145
26 91 70
236 28 223
35 94 82
177 153 104
224 152 110
27 191 113
241 159 99
208 213 201
89 177 122
60 174 89
28 241 154
218 129 72
57 137 137
215 205 48
79 49 98
82 42 78
48 237 204
88 183 226
212 136 97
125 114 186
145 97 15
140 32 48
19 154 119
54 180 167
227 12 106
76 89 87
115 124 177
172 134 254
28 58 29
155 88 53
247 166 108
193 61 46
102 69 91
105 233 203
12 178 4
144 40 167
32 65 34
69 137 123
89 8 206
65 146 248
250 69 96
30 1 84
183 69 190
200 234 156
247 55 108
2 53 208
117 22 96
171 129 232
19 106 176
79 222 227
139 187 152
223 53 166
101 119 2
231 13 48
138 128 219
103 167 65
16 156 247
75 26 56
76 206 187
206 173 20
177 23 83
163 20 124
179 39 3
142 19 76
199 48 178
69 36 208
131 193 65
144 135 224
34 139 182
127 5 193
37 118 1
204 40 147
101 85 77
106 23 254
216 77 126
196 19 127
53 234 183
249 12 133
45 213 159
204 103 170
134 160 31
254 216 128
63 145 22
230 40 160
179 180 50
237 78 174
141 40 195
176 114 2
67 156 170
10 142 169
118 160 106
12 88 23
153 48 61
73 198 117
29 220 191
158 114 207
109 237 58
154 219 161
84 22 82
186 243 194
189 84 242
88 110 106
65 12 120
93 63 138
170 5 59
22 243 46
226 59 35
76 96 25
218 194 113
23 53 8
173 170 209
253 222 107
101 100 126
146 125 13
210 197 9
97 66 167
94 217 191
156 203 84
129 69 245
27 83 10
253 111 54
206 67 226
48 23 180
229 104 64
7 72 123
147 61 25
40 208 96
29 183 131
89 85 80
41 177 181
247 152 81
34 155 159
219 189 81
189 88 34
11 142 196
30 47 173
181 251 22
55 48 246
240 163 77
97 48 50
106 35 79
16 104 147
162 115 61
206 31 101
92 12 168
220 187 32
91 117 119
161 234 222
87 105 129
85 66 207
190 46 205
246 62 95
144 124 193
131 218 219
108 183 228
94 179 109
68 226 220
234 151 101
55 181 52
123 245 20
99 188 74
84 95 198
31 157 171
89 164 108
250 173 0
4 38 149
214 229 139
1 7 182
67 226 191
137 247 55
205 1 112
7 210 58
116 177 189
129 47 105
42 176 59
143 146 185
236 115 236
81 18 151
162 162 183
126 128 143
41 171 126
221 191 81
145 222 186
85 91 233
163 176 231
53 11 211
82 111 149
251 134 30
173 200 232
31 202 93
163 221 32
108 238 148
183 131 112
161 173 85
46 214 165
120 35 67
173 77 98
97 147 121
104 158 134
57 9 189
97 232 142
239 139 142
250 47 212
199 140 198
34 217 93
108 232 76
216 137 58
86 215 233
108 121 12
10 24 20
39 53 247
80 83 164
109 172 116
223 168 142
185 117 62
142 7 244
48 251 56
23 158 202
188 14 59
203 29 121
181 134 215
225 30 5
189 192 155
103 29 247
85 137 126
60 125 34
60 220 86
156 164 227
152 11 143
240 46 134
251 235 2
65 42 65
246 191 201
107 62 222
46 113 149
49 149 138
45 73 129
53 198 6
53 198 61
252 66 95
6 129 189
67 118 249
25 119 185
118 170 47
213 188 211
103 179 64
108 53 241
59 80 178
133 211 182
127 115 8
58 69 154
219 170 71
96 236 26
74 176 233
196 252 50
41 173 25
144 181 38
243 192 52
21 173 37
229 167 45
246 152 210
53 213 244
63 32 222
211 147 37
187 28 177
38 121 210
79 235 161
212 25 228
101 243 177
36 208 97
187 87 216
33 215 228
181 242 44
222 105 243
224 23 206
211 62 226
38 109 65
230 237 36
208 133 254
188 122 54
69 46 218
102 250 147
142 46 77
63 213 243
70 144 207
83 240 153
237 206 133
48 0 181
18 239 138
60 126 215
184 169 211
247 32 39
150 235 169
15 193 6
84 182 147
243 36 47
61 59 244
106 56 211
250 168 189
70 57 81
173 143 169
229 225 175
218 76 55
36 85 41
206 185 116
224 66 235
150 39 99
204 60 150
181 24 23
179 181 250
4 112 164
180 126 120
103 136 143
234 187 189
174 194 192
141 183 145
21 202 207
90 37 36
99 156 71
192 43 110
210 165 196
42 83 153
219 20 242
123 243 251
217 61 200
197 123 252
81 202 40
228 111 137
91 217 185
40 138 145
131 22 128
160 137 116
124 23 90
138 38 195
118 220 23
44 39 191
243 194 43
242 101 21
8 30 112
205 197 199
241 216 223
8 191 138
150 165 181
9 135 87
181 226 51
79 208 22
198 227 54
98 224 84
15 183 161
33 228 160
193 237 193
98 245 201
36 71 224
122 108 78
101 21 107
156 128 121
54 139 21
6 222 31
66 29 57
175 55 67
201 58 26
116 149 129
235 4 213
254 19 148
220 201 230
7 162 247
100 98 75
35 241 33
33 3 212
96 205 225
56 86 72
194 112 21
217 141 94
0 18 27
140 247 27
100 118 144
206 66 154
121 231 115
181 211 67
219 81 149
135 56 133
80 28 42
27 111 208
97 221 176
168 203 95
12 14 10
112 59 116
11 147 144
182 25 42
94 159 185
163 20 120
33 120 205
19 34 34
6 144 90
237 167 126
132 81 30
111 42 39
178 45 39
113 218 184
181 139 40
36 114 108
156 134 140
91 141 143
32 69 66
129 92 134
158 10 123
93 221 78
182 94 201
38 173 140
243 193 109
14 59 210
30 128 81
232 240 109
113 12 94
243 110 227
204 148 112
217 171 51
96 15 42
206 116 160
123 240 214
248 106 86
68 66 27
104 184 171
201 224 1
17 92 212
59 71 151
118 28 12
85 52 30
102 126 38
203 240 177
220 231 218
214 0 148
156 10 96
59 50 17
220 230 191
217 65 185
146 42 129
199 86 250
247 242 223
178 6 140
1 50 196
233 181 228
23 36 33
207 89 42
174 203 252
114 74 223
70 226 254
120 252 185
1 227 198
31 90 204
3 24 206
38 80 136
46 200 158
12 33 23
119 54 43
253 80 150
247 182 38
17 26 248
165 222 103
27 33 199
8 81 38
241 107 123
90 207 188
59 13 137
2 202 19
117 132 49
217 105 35
108 213 133
71 165 43
70 250 240
185 245 113
79 234 68
250 95 114
49 45 121
202 127 192
156 56 99
107 115 144
38 189 84
0 97 58
125 50 163
190 118 118
147 238 210
196 92 56
72 219 2
158 68 56
242 232 4
169 94 100
87 94 45
200 4 0
45 253 130
82 208 203
131 240 243
49 242 24
169 111 109
143 124 4
94 37 143
30 182 89
40 199 112
36 126 92
212 232 85
239 188 150
198 206 52
120 73 58
69 188 66
130 201 183
61 39 145
89 160 149
180 114 231
68 90 52
195 163 102
1 167 66
53 127 39
6 230 143
45 224 228
1 221 102
32 180 197
34 44 141
25 27 189
79 167 88
177 212 70
94 153 191
87 249 251
130 181 200
190 109 28
79 115 165
91 163 242
153 123 101
251 239 16
12 86 128
85 217 152
193 117 222
149 211 125
241 162 6
91 252 163
252 244 5
20 222 57
89 138 46
40 52 215
163 189 218
200 75 67
112 179 169
227 141 195
158 21 214
193 230 33
32 191 90
253 85 109
214 30 55
115 236 121
167 150 189
129 14 35
168 168 155
46 176 73
228 82 182
124 43 112
244 58 66
3 217 222
229 44 169
210 131 252
7 127 169
23 72 219
191 52 196
32 41 53
108 0 243
180 227 118
68 208 243
247 6 159
129 163 178
127 105 195
23 60 222
177 252 56
66 243 30
19 254 166
63 249 104
7 95 31
36 172 203
4 28 211
39 141 13
61 10 27
26 129 95
136 12 230
177 94 28
18 107 23
237 160 214
178 164 129
219 141 41
41 192 176
26 105 110
136 105 0
13 54 53
193 92 254
91 222 49
243 61 38
125 95 216
82 188 24
145 181 56
60 89 220
115 2 13
120 62 14
185 36 180
13 40 220
38 0 202
57 56 228
253 192 191
75 187 231
144 232 26
142 208 47
77 25 10
166 9 227
138 226 211
197 75 223
82 207 99
46 14 124
85 160 174
152 48 129
200 238 73
101 21 155
26 170 210
149 254 80
22 53 91
13 195 229
238 240 138
59 210 241
14 18 109
157 17 7
96 107 226
216 45 212
212 143 27
186 107 110
158 181 176
151 204 88
198 105 146
137 26 228
195 120 99
71 182 83
216 137 118
52 163 253
218 0 154
193 239 44
76 163 13
146 200 91
15 210 207
23 253 242
188 181 158
50 225 203
62 63 50
194 174 205
86 24 66
180 157 171
70 19 222
23 189 165
67 244 102
81 133 29
74 127 163
57 217 210
9 183 226
225 58 120
212 238 125
69 168 69
137 236 225
66 193 144
123 48 118
249 44 234
194 10 231
128 243 33
133 80 19
3 217 63
3 148 76
14 203 8
165 6 252
201 27 214
197 61 100
249 47 40
75 248 21
84 152 79
71 67 64
234 233 139
168 223 19
165 138 234
171 198 166
209 11 166
220 173 239
170 233 77
172 222 69
155 64 209
243 199 42
23 191 159
174 19 45
208 100 91
28 133 183
203 109 5
59 17 38
232 121 76
208 248 164
35 172 54
185 193 226
199 157 186
206 178 50
189 150 163
101 141 156
34 65 70
14 3 135
54 138 239
82 249 53
207 189 154
43 112 44
67 38 51
23 237 74
47 0 21
104 107 245
182 64 75
76 71 113
175 223 104
48 235 154
239 3 40
148 146 252
179 246 89
208 116 253
150 161 93
79 135 249
66 110 114
76 78 146
197 83 117
39 160 83
74 38 76
251 92 57
123 241 49
171 238 71
115 178 60
92 208 19
230 248 68
152 5 155
59 0 29
70 67 52
120 67 189
1 146 54
75 175 232
238 219 17
206 198 162
3 141 146
218 108 102
98 18 176
82 28 231
52 10 173
136 81 47
99 61 103
169 156 87
238 145 234
232 161 42
220 116 53
90 114 22
52 34 12
206 234 229
79 236 133
176 67 188
62 167 43
130 203 223
107 232 228
210 116 212
13 148 108
96 130 151
59 220 245
148 29 165
235 236 204
40 250 149
19 215 174
104 36 11
83 97 54
104 111 44
41 222 52
7 44 98
24 222 68
207 112 34
17 66 206
57 190 185
81 37 125
216 73 156
111 153 86
194 96 69
101 192 63
138 47 221
39 250 150
235 119 83
151 142 184
84 160 192
226 8 122
171 184 192
168 19 191
52 99 123
165 114 12
217 253 157
198 218 60
44 146 161
79 16 146
2 54 18
227 157 139
187 25 93
204 149 91
190 92 37
60 230 145
230 33 225
193 164 250
31 158 253
21 130 95
240 62 140
130 51 14
141 158 193
134 207 22
223 102 183
33 123 86
69 9 28
211 233 251
238 124 181
83 253 156
56 76 167
169 158 233
116 10 114
24 202 207
253 197 47
62 182 251
135 90 183
191 17 73
37 47 13
180 138 182
185 152 16
206 166 23
13 11 151
181 209 132
78 179 69
96 148 207
28 114 95
39 200 191
74 23 107
244 217 187
236 119 196
238 251 180
39 254 145
89 95 226
86 134 2
169 232 191
164 121 234
25 223 77
96 103 75
204 57 248
109 96 19
24 56 120
142 222 165
13 201 157
21 215 77
211 229 87
142 15 122
141 72 156
163 146 208
231 161 230
46 250 41
166 147 111
174 2 3
195 97 159
182 243 6
205 42 184
58 154 193
80 50 212
129 187 16
240 203 198
90 219 15
81 174 195
108 167 72
76 180 235
94 76 189
74 3 242
0 145 130
4 111 215
238 9 132
75 72 149
233 94 8
146 193 225
102 162 125
192 41 141
164 115 101
216 169 230
223 106 138
81 138 215
108 206 212
216 226 48
185 97 165
93 193 103
212 170 121
224 138 140
119 237 120
14 131 66
165 96 117
200 168 126
94 15 108
176 142 231
213 231 16
107 222 68
35 170 244
186 89 83
188 50 224
138 248 254
134 54 68
33 161 25
89 51 206
85 138 207
202 205 182
128 61 122
216 231 200
32 248 182
183 253 158
43 19 115
146 32 5
153 123 234
66 217 197
157 113 139
198 80 184
148 5 157
121 16 59
116 87 127
214 215 12
30 163 200
194 175 213
221 85 4
35 81 190
123 181 127
31 71 1
170 16 60
227 118 189
217 144 229
115 117 171
232 146 159
30 44 40
55 248 60
148 191 122
59 126 228
24 48 117
207 2 172
137 55 25
213 72 64
73 143 201
160 55 75
200 38 72
76 252 119
211 77 35
205 33 101
238 239 252
25 84 161
115 246 226
108 144 155
27 218 56
149 135 151
93 114 115
135 60 243
2 81 99
188 36 225
30 221 127
234 156 57
226 110 98
124 93 182
216 60 252
247 148 241
96 223 37
231 24 207
123 194 123
25 200 70
1 224 90
10 38 24
207 162 137
153 194 135
63 102 164
187 118 153
122 243 138
246 59 71
130 60 106
170 49 151
200 60 100
105 162 33
90 45 148
250 116 187
234 53 209
188 76 184
88 116 105
188 192 76
111 191 66
64 209 241
236 12 204
4 191 73
167 175 153
84 13 253
21 162 148
117 100 114
72 224 50
242 195 192
65 68 53
150 42 128
93 179 128
37 225 21
197 5 128
21 227 43
126 247 34
76 94 14
197 176 57
119 219 176
82 202 206
54 37 164
208 217 30
223 190 9
183 253 112
83 166 131
62 67 84
204 146 112
202 22 77
24 225 211
110 129 190
248 176 111
122 85 20
90 135 56
253 208 164
224 122 32
118 133 50
164 154 240
165 244 191
124 212 187
40 97 72
234 26 188
176 174 150
169 142 194
115 211 28
9 32 241
101 10 50
244 202 71
131 113 218
247 136 0
184 33 152
32 140 163
86 91 158
168 123 180
39 139 28
156 119 178
72 122 116
102 253 2
26 153 230
233 247 73
210 181 92
68 97 161
160 28 76
238 76 5
81 159 131
94 164 83
116 195 221
215 175 59
100 176 179
254 187 14
6 109 177
136 164 148
211 143 46
116 182 230
144 223 229
166 15 154
16 9 121
36 68 250
227 69 209
88 176 76
162 36 83
29 155 51
122 244 232
162 36 131
53 129 196
201 166 154
248 209 198
164 243 49
134 106 32
114 153 165
45 202 91
134 238 69
233 198 203
187 59 44
180 81 74
88 201 70
41 222 180
74 21 224
81 188 80
62 185 231
110 151 75
186 77 35
175 134 92
40 138 179
137 141 85
155 94 210
129 204 37
108 248 128
43 205 135
137 242 164
199 124 108
2 174 204
1 123 173
51 147 144
45 157 181
64 191 84
188 47 82
74 244 78
64 159 30
204 12 84
226 222 167
59 142 12
127 38 38
39 71 214
24 140 44
42 199 205
244 161 20
254 166 158
27 165 202
13 229 22
92 70 185
64 248 100
56 51 107
226 141 79
155 44 209
251 6 131
106 214 51
219 120 168
110 31 57
39 28 95
222 177 247
3 179 52
159 234 46
198 162 143
45 179 18
164 18 149
59 65 108
141 131 145
224 229 154
144 152 154
121 95 73
129 225 158
50 55 67
119 24 105
217 46 158
165 83 100
137 96 210
116 64 185
47 3 41
196 34 177
164 91 112
140 75 55
161 161 186
91 209 228
6 147 200
53 160 138
75 67 206
185 86 159
125 181 67
167 17 165
128 177 236
92 205 25
106 216 194
138 116 68
248 193 104
145 46 15
148 95 43
79 92 210
82 57 223
114 147 39
186 64 52
53 165 31
166 235 148
194 213 200
45 45 48
83 148 129
72 25 0
47 106 72
143 175 88
173 68 241
54 223 47
156 63 82
166 61 209
31 155 34
109 67 214
225 172 16
67 217 221
38 141 158
63 161 173
42 254 91
47 76 4
99 88 153
41 23 235
226 105 129
176 248 34
80 4 68
234 35 146
223 182 122
139 225 169
5 90 109
96 148 70
44 28 118
134 231 123
131 22 79
205 22 238
33 143 63
239 73 172
236 4 176
31 210 106
197 104 207
160 251 25
161 213 81
223 146 235
15 70 138
103 216 160
146 82 195
84 81 245
122 244 1
124 187 232
218 64 38
129 144 111
169 75 60
202 14 118
103 34 230
155 148 200
102 202 97
57 222 20
57 24 117
12 38 198
196 230 54
200 246 62
13 152 159
156 20 186
75 200 85
35 30 145
125 71 243
245 34 106
70 247 161
250 234 125
215 14 227
242 121 223
62 44 62
84 217 182
204 90 3
134 239 78
55 195 22
17 19 18
165 141 32
43 167 230
160 28 71
228 4 105
47 9 22
155 79 58
170 70 252
6 196 161
131 230 135
79 161 121
230 209 244
47 231 93
219 72 111
248 86 193
101 171 86
231 172 162
162 201 53
253 174 59
52 206 12
21 56 215
215 250 167
45 199 190
107 192 195
177 69 236
156 251 156
157 222 73
67 25 201
230 242 20
97 30 135
137 60 99
198 5 101
175 34 95
15 145 205
15 87 87
34 21 230
210 144 40
50 25 177
157 16 213
48 192 137
244 12 15
247 193 6
0 106 86
55 229 107
223 135 130
132 18 29
80 51 101
124 182 166
233 225 143
240 66 15
67 140 170
31 98 217
131 155 247
123 213 90
6 53 70
97 218 44
95 221 68
181 187 241
188 140 241
209 22 29
186 130 91
198 205 180
200 174 223
1 159 31
52 20 69
244 69 121
93 163 222
34 216 86
62 210 171
37 10 148
153 121 49
213 80 6
18 84 77
121 114 132
173 82 157
128 111 106
64 196 206
179 85 60
57 48 58
215 254 39
176 78 198
29 122 163
107 141 205
153 61 110
187 198 220
132 98 207
147 9 0
136 253 24
45 15 86
146 96 13
50 187 8
60 142 214
211 92 121
20 125 50
171 246 156
190 106 27
245 70 5
116 50 97
183 4 242
22 99 1
71 82 196
1 213 170
167 37 90
198 76 70
61 226 238
50 95 181
28 235 239
60 90 10
101 187 82
28 86 222
217 52 103
217 188 9
131 251 9
189 144 250
187 193 82
130 159 239
172 73 180
196 14 31
239 215 16
219 163 119
46 137 245
22 30 173
35 218 159
166 114 135
92 100 157
25 34 124
157 54 22
106 3 229
173 237 100
158 8 87
7 37 113
75 54 199
173 167 3
111 220 181
226 161 137
69 211 85
184 80 137
63 13 97
82 2 211
60 26 214
12 154 221
38 62 236
95 155 59
248 238 52
15 70 159
90 196 50
187 111 195
17 202 119
234 69 118
193 169 179
57 170 187
226 138 237
212 77 122
25 79 163
121 141 49
139 51 56
160 146 190
87 23 228
139 1 233
133 70 64
120 16 44
119 27 68
244 102 154
220 83 251
88 129 61
79 225 203
233 240 148
165 68 111
42 136 184
49 42 99
156 143 178
34 35 208
145 164 137
236 152 160
121 52 168
61 85 195
97 224 212
243 123 249
58 144 150
75 132 18
174 117 87
50 233 78
144 252 237
63 54 210
123 50 193
228 242 214
99 42 151
185 201 224
145 245 19
132 155 143
102 97 94
164 90 32
88 12 43
246 95 161
112 92 147
63 196 229
83 34 140
179 141 214
224 138 123
81 68 137
156 205 152
15 133 173
138 69 216
103 237 108
122 49 174
66 214 8
93 194 196
198 247 6
112 80 120
251 61 25
71 211 159
15 151 66
210 36 84
131 233 129
25 64 55
34 236 178
93 98 171
58 170 65
82 60 145
207 48 240
68 174 153
137 208 244
39 83 217
109 164 172
50 14 175
9 115 128
171 204 227
57 21 192
201 95 205
227 105 20
110 88 220
197 188 70
125 177 76
80 18 67
239 138 247
86 247 145
109 43 109
167 76 6
65 125 74
199 30 253
16 238 220
216 184 103
182 153 26
13 82 123
87 51 44
215 39 180
253 215 74
83 186 76
154 221 28
76 187 239
252 129 68
197 230 201
240 240 18
133 188 98
198 73 105
30 83 196
80 155 144
142 147 130
30 182 248
100 213 187
142 163 164
216 230 149
189 184 253
19 90 130
33 159 123
228 233 59
101 117 38
14 194 156
52 17 40
87 50 209
226 16 151
132 88 225
126 105 89
228 190 210
34 248 164
74 6 168
98 21 99
130 3 164
108 28 252
174 235 20
185 117 250
65 17 133
91 110 181
101 238 67
117 135 128
74 203 119
66 41 60
6 85 119
95 139 167
219 35 94
2 198 161
47 26 249
24 109 246
195 216 190
127 124 200
95 140 73
60 83 205
42 72 195
196 85 93
3 84 222
190 118 133
59 165 117
130 27 173
216 118 156
218 193 73
237 194 90
230 59 193
29 10 166
184 82 65
141 64 223
21 90 75
162 149 50
32 208 53
182 183 56
171 40 209
74 82 166
83 78 173
220 74 168
157 75 166
138 93 138
113 137 209
185 42 223
213 98 20
221 251 148
0 78 235
7 118 203
100 236 74
99 10 221
106 92 115
121 140 155
47 168 249
252 52 155
159 3 239
242 165 80
99 48 51
50 15 78
40 77 140
182 95 150
163 94 87
52 56 71
73 134 81
53 140 74
45 82 211
177 12 3
156 106 58
185 98 209
112 138 103
231 27 178
173 183 40
120 236 63
222 125 33
34 226 246
122 22 110
227 83 230
93 33 103
7 22 20
132 107 242
55 91 74
165 193 50
108 201 53
41 33 29
26 59 150
135 165 62
23 112 11
142 240 22
211 150 146
205 87 240
19 249 200
204 54 133
245 207 45
62 148 175
144 110 78
34 99 227
234 114 27
237 183 89
243 108 20
95 16 254
206 230 49
110 36 170
130 215 153
78 71 190
137 199 88
15 128 198
216 163 105
214 130 101
138 236 101
30 79 153
19 9 249
7 127 189
162 134 153
252 42 214
90 137 122
220 89 3
73 123 157
118 179 206
192 153 91
228 144 106
229 194 69
16 12 213
17 87 19
22 249 155
85 246 93
96 194 123
133 142 119
119 171 13
83 227 222
148 51 66
148 20 44
124 100 124
109 190 198
176 55 179
53 28 130
162 150 7
177 215 99
189 10 87
80 30 194
192 121 158
82 105 98
226 235 138
66 121 183
14 217 65
70 92 113
43 72 175
164 201 10
73 144 221
184 26 172
229 114 181
190 71 43
163 195 164
226 213 194
120 189 116
213 135 104
178 106 58
116 216 246
244 3 202
187 128 109
34 183 162
70 183 244
98 226 27
81 38 65
107 95 44
127 136 27
131 188 124
108 127 134
187 210 90
199 249 38
251 196 56
58 22 23
92 115 6
212 98 122
60 171 125
38 142 182
67 91 57
84 35 218
241 179 91
209 79 246
154 41 235
143 134 83
8 175 224
167 15 15
235 2 190
60 95 56
90 78 129
32 49 182
54 43 81
227 30 223
45 163 20
175 44 211
157 243 194
209 37 144
28 211 18
253 136 127
11 202 144
230 133 69
121 92 101
105 156 52
205 189 211
85 240 184
97 202 111
225 147 175
173 194 143
27 16 218
249 245 156
39 117 81
243 249 160
52 135 50
153 244 153
128 162 7
95 86 239
99 85 182
79 114 33
102 145 143
6 213 119
22 212 169
16 23 214
66 189 33
151 56 82
171 148 17
127 166 51
178 2 190
137 96 75
54 75 184
12 141 121
130 230 71
153 68 46
116 156 118
230 119 177
66 147 14
178 43 212
152 226 134
134 176 171
160 98 137
30 9 47
41 82 71
53 230 115
252 221 87
20 192 187
2 25 170
109 139 80
225 15 51
10 34 48
196 190 141
115 114 44
188 237 168
220 223 81
70 142 108
244 227 115
34 90 254
50 222 54
196 44 151
162 193 101
231 115 55
170 16 224
104 44 202
127 7 73
217 175 43
188 64 11
240 86 110
231 32 9
97 134 11
102 6 2
130 90 81
138 250 58
231 145 213
251 191 93
241 44 24
199 77 114
185 124 139
55 204 141
11 201 200
187 233 8
57 40 169
238 231 245
51 157 164
239 29 154
60 73 203
126 209 148
91 200 45
105 112 121
58 120 218
71 63 118
30 121 20
19 93 205
202 244 60
231 45 106
144 44 116
197 171 155
145 149 244
124 4 181
151 225 132
88 28 246
131 29 21
138 200 196
58 71 46
144 33 16
59 116 121
120 176 152
92 196 182
207 47 110
188 9 36
25 208 98
210 242 103
88 118 109
225 193 77
203 216 144
165 242 91
5 19 107
204 78 92
158 114 201
19 35 104
81 116 173
150 78 242
120 80 148
25 56 188
147 26 115
37 131 189
205 241 21
13 148 186
53 220 48
78 143 158
69 170 60
150 144 34
90 104 106
186 3 138
228 7 200
151 121 132
60 146 69
178 163 12
40 124 97
198 231 162
49 66 159
63 192 79
151 19 198
143 78 178
26 11 82
72 115 50
61 120 81
4 97 167
181 40 126
43 169 178
147 158 193
98 163 240
147 21 250
219 214 60
205 219 17
14 194 88
167 71 191
152 155 33
12 47 79
109 146 243
40 111 106
70 215 89
103 162 180
19 89 198
211 177 182
107 103 61
92 228 128
42 42 17
186 48 22
250 251 92
5 149 189
128 2 111
145 242 34
201 225 169
179 236 11
172 124 45
220 244 42
109 26 35
69 33 15
44 178 16
74 230 154
102 139 155
89 68 13
240 178 237
32 236 239
191 77 218
178 125 117
197 26 71
151 235 2
26 64 192
119 73 204
246 184 76
249 43 79
196 110 136
24 174 55
35 213 130
110 92 20
80 124 244
254 154 30
179 241 229
55 79 225
211 154 105
237 69 53
78 40 194
92 225 119
187 50 73
20 204 199
73 0 43
254 120 143
229 214 30
204 253 163
110 208 49
78 11 231
224 170 87
141 102 4
154 27 90
227 140 187
10 54 43
245 41 76
0 228 247
240 192 107
241 246 231
135 56 6
35 124 68
141 76 11
41 20 195
238 228 221
82 67 124
25 126 30
119 123 233
254 118 156
169 207 229
230 184 45
144 101 104
161 165 213
231 17 218
64 97 4
72 122 178
2 53 85
183 65 88
227 203 62
218 142 84
27 16 110
146 205 59
145 6 117
83 190 153
116 156 64
238 15 132
84 246 55
155 84 187
77 162 164
236 234 240
4 54 20
188 202 218
215 7 182
157 182 172
198 130 236
102 207 214
105 176 75
160 4 110
3 227 83
192 156 203
46 90 54
180 38 74
126 170 31
27 2 66
200 166 49
250 24 131
175 123 15
244 132 99
108 186 208
254 11 176
115 23 24
10 234 172
97 172 207
207 91 113
167 252 52
201 6 12
244 145 161
49 34 15
232 36 91
102 179 206
77 5 17
180 153 202
101 234 245
106 200 204
168 86 221
200 164 49
143 116 231
132 110 193
103 80 162
1 157 39
35 138 24
99 34 61
137 56 238
52 60 32
183 85 132
110 94 21
106 13 220
38 58 161
97 233 70
29 163 200
228 10 156
89 141 7
24 123 160
68 86 191
47 123 174
84 211 44
105 71 248
162 193 201
152 132 74
90 204 112
158 254 70
237 33 93
242 61 168
113 128 51
237 182 110
64 132 103
221 219 191
55 104 201
84 183 18
28 251 57
172 213 140
218 59 8
52 164 52
232 204 210
169 156 137
185 59 70
209 95 204
26 169 48
116 111 240
254 156 43
207 157 57
111 42 72
33 222 94
55 219 254
66 10 4
110 4 92
126 248 118
65 177 216
112 115 253
19 54 99
15 200 160
22 236 114
245 229 57
78 45 15
30 140 9
48 87 105
58 35 192
214 19 200
127 93 227
51 7 72
135 90 167
94 205 36
98 167 180
9 169 7
177 153 81
45 229 25
211 34 142
139 51 116
15 97 140
67 86 25
184 184 139
141 5 44
58 58 220
237 111 55
122 140 127
185 109 20
227 72 139
2 229 4
39 246 19
172 149 245
30 65 223
32 173 220
45 69 206
195 192 52
241 45 155
181 48 69
146 8 206
117 116 68
43 110 148
27 15 129
57 184 149
185 233 79
157 218 7
142 119 29
22 129 203
218 91 175
222 5 0
99 183 14
106 251 75
162 148 175
180 232 123
33 157 136
109 42 78
77 94 195
163 24 138
238 209 98
112 248 46
184 30 20
243 177 169
139 183 235
104 152 121
31 67 24
21 38 160
41 245 48
102 116 69
247 109 169
156 29 117
229 66 145
244 27 30
181 214 45
101 137 113
77 24 23
219 93 102
251 222 87
143 48 50
2 214 246
181 113 134
20 230 158
66 53 179
144 145 162
245 109 80
173 55 87
141 245 244
128 248 235
42 86 219
176 185 36
209 65 124
157 176 9
164 157 220
190 44 30
111 52 243
44 115 127
100 87 30
149 161 104
62 201 165
217 221 199
216 229 54
121 252 151
127 110 118
180 192 186
211 2 30
91 30 32
210 26 72
128 205 131
217 206 39
221 24 43
91 192 208
165 9 178
152 218 155
108 5 133
164 45 196
15 70 61
166 80 114
13 213 154
231 0 249
64 170 99
110 164 224
153 70 22
207 120 84
248 239 94
219 137 63
10 188 42
212 178 162
26 219 218
35 0 250
2 190 33
196 138 56
184 60 6
193 61 24
68 89 25
173 210 111
12 78 188
157 79 249
70 15 174
157 122 234
159 88 51
204 37 113
119 169 233
129 233 174
246 239 10
117 114 199
15 147 172
18 162 236
139 172 58
200 145 201
215 14 254
149 238 45
86 53 67
26 81 136
98 222 241
236 174 23
210 247 136
129 94 207
14 85 129
37 2 19
29 244 208
13 178 142
201 72 147
23 120 6
155 234 61
132 49 37
9 213 156
184 109 87
233 80 69
165 230 225
199 147 252
57 184 144
103 224 8
112 141 33
152 14 135
8 123 58
11 52 104
104 68 203
154 149 235
222 2 77
135 34 229
212 178 179
87 225 218
109 161 215
201 225 21
243 107 132
213 122 169
186 141 45
83 180 37
35 210 205
242 99 64
234 110 198
146 7 103
241 99 219
70 148 163
234 216 160
46 69 181
40 13 92
171 164 229
59 211 199
97 112 183
35 4 7
38 184 197
215 150 82
101 150 214
36 71 212
190 33 76
247 58 6
7 191 109
242 47 108
162 49 50
32 105 231
216 131 132
99 72 208
138 57 221
201 231 228
55 185 22
163 214 10
181 60 63
145 111 98
242 23 65
241 174 184
17 181 89
48 54 224
107 31 215
131 91 232
196 26 72
55 36 253
113 46 173
215 174 128
67 222 11
80 19 253
24 28 43
49 52 34
155 174 85
116 138 174
129 42 105
235 38 113
160 166 83
93 222 73
39 65 236
121 227 239
47 47 129
174 171 37
169 180 74
176 123 134
34 94 135
8 136 228
77 141 182
184 74 82
180 100 72
10 229 103
1 146 225
68 210 88
247 127 18
131 10 43
173 14 143
216 183 63
133 244 144
183 135 118
182 138 84
98 11 24
28 1 244
152 169 93
72 134 106
81 87 238
214 202 12
74 60 9
115 211 125
111 20 29
38 66 12
74 147 222
57 170 110
195 234 164
186 254 112
168 80 208
246 29 226
29 10 251
131 126 171
10 186 139
81 113 28
36 83 26
252 90 241
5 179 80
159 159 125
20 175 180
235 88 132
246 16 147
241 232 50
108 231 109
64 229 25
235 227 72
168 66 206
186 168 111
53 107 228
55 12 233
191 162 243
228 164 171
122 6 223
217 140 167
197 76 67
123 11 69
109 126 186
212 250 197
34 52 47
127 31 216
181 177 40
239 144 153
147 40 107
46 196 30
73 45 242
183 45 49
156 62 157
58 207 35
169 169 122
36 82 150
71 187 254
128 204 155
225 59 157
164 101 170
101 135 20
155 50 6
28 79 24
151 204 20
191 68 179
119 33 146
67 100 107
213 159 207
223 44 249
52 38 154
155 125 217
105 11 180
219 210 97
127 155 25
70 200 118
148 168 33
215 87 29
187 172 226
2 252 104
169 221 18
34 197 120
13 17 32
65 224 90
121 129 82
25 13 201
181 116 178
75 129 181
78 234 150
192 228 71
201 67 32
7 136 158
166 149 36
200 134 63
169 173 159
183 186 212
66 140 96
77 129 17
211 37 86
46 17 112
159 193 218
159 33 100
106 55 132
198 113 24
1 126 63
104 167 112
143 233 11
53 113 42
40 37 183
102 83 219
109 24 153
248 186 2
64 88 179
31 103 14
135 229 242
237 115 51
63 204 141
71 190 225
51 72 145
102 179 10
46 221 16
170 33 40
214 192 151
183 130 29
156 37 218
113 199 241
61 71 210
162 83 44
56 159 150
244 237 229
174 120 207
145 0 173
196 64 254
137 193 77
23 139 180
120 199 73
236 96 56
117 147 252
100 47 212
116 174 23
48 108 117
235 171 197
109 183 217
227 106 218
97 215 89
215 5 167
140 210 210
132 35 160
122 151 167
59 120 215
180 166 142
114 56 114
50 65 166
248 246 233
49 136 154
136 209 4
40 9 74
199 239 156
224 63 62
101 105 13
136 182 131
46 4 40
139 111 219
188 34 177
249 95 209
59 149 132
47 167 121
35 137 52
189 221 247
222 95 138
88 55 240
239 26 207
208 238 231
27 37 101
247 182 2
3 171 236
126 230 65
235 154 179
51 247 58
237 147 28
32 224 8
158 160 215
31 190 120
220 169 126
141 218 228
113 116 199
7 239 8
62 1 16
113 171 148
74 102 231
130 171 6
245 112 124
136 55 88
68 64 190
145 119 151
180 75 95
119 86 12
229 227 139
7 229 165
45 98 49
200 217 184
84 217 140
236 96 159
73 50 59
53 144 67
187 75 121
173 18 120
137 70 199
205 70 144
210 166 148
50 11 233
200 202 113
44 152 187
170 225 189
60 22 37
7 198 207
54 40 182
173 40 240
42 224 1
214 128 83
35 234 126
136 216 43
244 115 205
195 1 146
77 184 43
214 164 134
138 16 229
48 51 237
122 207 139
80 188 27
92 115 18
114 37 173
166 107 151
219 85 236
196 160 100
83 87 150
10 170 220
169 110 119
19 29 37
158 36 12
72 102 206
86 171 159
232 84 231
104 178 194
156 36 240
178 173 25
58 2 239
67 243 31
231 87 107
158 167 8
17 89 234
253 163 177
110 27 239
168 56 117
111 83 66
175 87 122
52 9 245
216 53 207
229 201 236
155 118 230
192 108 211
85 113 156
78 81 152
192 196 43
51 217 23
77 39 9
41 254 134
25 77 112
127 137 49
210 158 134
16 126 115
221 210 239
44 238 101
18 178 33
86 49 124
207 26 3
242 221 125
24 183 175
169 47 178
218 181 56
160 204 184
5 11 38
213 108 112
152 33 103
4 128 246
227 183 8
10 93 142
15 82 244
93 169 21
19 252 223
183 205 25
23 22 41
143 62 138
226 150 174
224 85 26
88 219 62
144 163 31
213 169 178
5 151 18
86 192 171
203 236 94
58 53 130
113 177 85
215 4 62
122 59 37
248 197 212
160 147 179
59 51 124
181 146 89
212 246 122
127 30 209
136 56 120
35 159 182
119 108 212
53 63 126
61 21 127
28 86 195
134 210 88
197 244 104
43 118 87
170 77 202
160 135 237
180 86 24
244 119 231
176 77 249
121 134 37
121 170 247
241 38 144
163 251 121
117 59 46
232 155 215
124 61 1
167 9 40
120 75 122
231 131 60
141 13 85
122 217 193
208 116 111
144 254 222
151 149 202
111 130 158
243 38 38
151 160 176
0 202 83
119 30 97
225 238 20
146 141 198
54 126 221
242 202 43
113 195 18
4 82 3
192 235 7
70 222 187
112 229 165
58 51 92
191 224 41
237 21 141
49 221 134
102 204 153
182 6 221
146 71 84
1 191 182
8 205 233
48 52 124
80 135 244
181 190 52
7 152 161
246 105 165
179 14 82
51 80 22
146 141 146
6 185 221
173 100 15
150 198 19
171 222 56
98 96 207
229 69 25
129 53 214
114 34 192
129 65 53
198 1 167
27 140 17
139 4 154
129 126 2
154 250 114
199 47 168
70 70 29
176 128 71
153 132 218
178 128 13
212 15 234
196 127 120
77 160 67
33 154 119
59 135 32
73 252 251
7 130 207
53 180 38
200 102 130
1 182 55
117 77 82
13 115 98
184 107 39
93 0 250
3 97 141
239 156 87
97 84 214
73 143 10
0 202 35
232 231 6
128 98 163
212 36 146
217 141 85
12 239 104
134 104 236
147 30 216
86 240 92
188 122 11
122 136 212
184 229 114
7 126 21
189 147 41
89 148 91
48 187 197
2 212 186
82 56 19
254 51 24
213 205 53
145 12 231
70 18 251
8 182 222
9 54 35
209 68 161
32 119 228
182 218 185
39 170 59
133 23 162
199 47 186
59 209 125
65 147 48
149 149 40
127 51 250
9 195 237
20 211 80
117 252 243
96 121 93
131 180 187
143 222 45
238 198 201
59 230 85
159 3 67
251 134 43
141 218 23
161 127 123
234 218 93
252 134 61
39 228 23
101 5 30
241 210 174
150 198 174
56 40 143
82 130 150
135 41 185
100 78 23
28 207 130
129 124 30
229 176 171
161 222 10
79 22 121
249 200 58
35 121 33
202 203 5
191 66 179
0 71 6
254 78 226
91 95 162
227 203 106
73 116 233
116 113 205
131 121 57
155 53 113
131 147 4
160 86 105
209 57 200
11 101 223
199 242 92
100 43 231
39 210 109
243 9 150
254 244 34
216 249 10
0 232 67
200 78 190
83 116 8
232 176 28
216 9 214
112 131 30
156 36 5
67 85 32
190 168 169
0 228 99
120 249 7
103 68 186
89 58 224
87 160 182
120 215 234
248 34 6
121 57 141
243 109 192
14 113 187
176 124 108
238 72 72
87 169 107
40 40 6
139 52 142
197 60 117
94 220 143
167 95 85
135 42 247
156 53 247
230 42 218
23 125 156
154 206 16
187 153 35
21 108 143
89 26 154
54 19 19
34 20 181
44 167 127
45 150 4
112 71 128
162 244 172
183 122 210
70 150 6
57 252 199
85 133 46
124 51 5
203 158 96
47 113 162
112 58 235
247 199 36
5 197 53
241 5 230
74 76 187
226 67 182
17 76 192
19 228 62
24 175 177
236 117 237
208 249 167
245 75 139
191 102 15
63 228 106
250 151 0
196 16 237
165 161 82
240 97 65
134 106 72
219 234 46
238 65 33
112 181 21
70 254 248
49 22 250
168 23 252
157 70 225
123 183 206
173 194 73
29 249 107
145 178 88
175 213 146
0 0 197
248 156 106
201 52 100
30 137 107
215 144 142
123 168 6
65 216 51
250 173 14
144 67 70
62 150 205
157 213 226
228 190 195
55 90 164
229 193 254
129 140 48
202 195 48
7 141 19
78 46 40
182 130 54
145 160 65
42 167 0
228 7 20
35 92 50
203 13 55
111 230 125
94 69 215
220 169 201
67 54 175
62 9 196
125 134 171
61 139 204
175 190 31
111 170 193
251 1 138
194 131 248
215 153 168
100 118 58
98 166 47
58 241 40
243 252 182
251 62 185
92 90 114
93 152 254
25 104 81
55 242 204
219 202 35
247 38 122
250 131 7
51 168 177
123 209 207
194 151 246
70 186 106
85 10 163
152 0 162
110 126 143
121 242 4
184 116 63
6 154 203
162 248 108
95 51 41
201 25 196
62 188 151
232 220 225
43 30 27
160 94 42
153 105 161
66 245 247
72 151 234
252 101 196
205 49 211
217 203 61
96 239 253
117 216 238
209 200 24
156 78 241
57 250 171
196 8 14
93 37 109
174 108 123
84 219 208
68 220 195
165 130 201
119 220 173
132 252 90
246 44 179
150 232 114
190 52 200
218 104 26
60 138 55
21 149 190
32 125 205
163 147 239
15 13 83
22 85 232
69 123 125
82 186 13
223 157 91
36 190 90
45 194 33
24 102 99
109 91 138
134 216 164
239 87 1
246 62 151
192 170 129
45 144 142
79 121 146
162 185 97
21 94 246
157 25 98
245 203 74
243 88 208
84 179 131
122 151 232
57 131 168
62 235 220
10 116 208
222 36 188
198 71 219
210 169 168
80 10 163
52 23 233
141 245 148
245 253 109
182 84 4
176 41 239
68 236 102
173 226 238
153 125 241
162 203 177
104 20 211
5 48 248
226 174 110
67 81 101
16 57 101
68 168 170
67 221 207
49 70 247
109 146 218
198 49 53
61 17 28
195 21 27
98 230 96
201 134 186
164 79 113
88 208 84
239 47 219
122 83 115
238 36 158
100 183 81
251 181 173
21 115 208
236 232 4
68 231 215
36 18 14
85 220 189
199 179 235
175 57 142
157 238 73
24 227 51
223 168 207
206 64 249
95 135 148
96 225 68
113 135 88
177 114 109
145 74 190
167 109 212
138 50 250
214 226 203
243 132 105
45 173 157
185 139 20
232 42 68
77 21 157
155 248 57
151 225 208
87 205 136
139 247 93
213 194 80
107 77 197
14 77 144
25 180 6
46 12 168
48 48 157
211 48 107
33 247 42
207 98 49
48 66 162
39 40 187
201 113 184
62 148 187
105 220 154
152 48 86
130 49 141
14 170 20
14 98 175
116 183 42
16 23 71
85 82 38
193 250 108
74 194 83
98 45 254
110 64 69
234 144 122
156 12 32
211 221 195
128 70 104
54 181 41
62 21 85
251 234 232
125 11 91
167 214 114
182 51 113
26 41 142
248 184 188
218 123 120
170 254 87
73 65 123
139 1 205
66 234 199
159 187 130
9 24 167
36 76 222
144 109 60
36 145 68
69 149 139
136 1 233
20 144 101
32 66 154
108 97 155
84 160 35
63 157 77
234 166 46
60 97 130
184 191 141
20 53 237
96 20 131
212 254 248
101 135 218
171 36 198
10 143 93
54 8 92
53 196 48
47 122 212
46 91 126
66 46 214
41 69 9
81 126 98
65 200 165
224 250 186
190 112 203
51 238 122
148 95 4
93 58 237
32 103 232
209 63 98
69 65 14
29 175 126
92 155 250
66 53 105
189 213 210
200 157 62
254 165 67
120 152 140
204 178 206
12 231 252
206 197 5
218 227 146
170 64 87
118 108 72
138 218 148
73 159 185
108 11 26
179 67 60
212 200 160
115 198 33
184 92 85
149 147 211
67 127 128
155 250 107
71 225 50
178 38 195
181 44 24
28 96 97
118 162 240
14 99 200
220 68 25
79 205 253
9 125 214
135 110 124
42 121 178
58 201 52
74 89 251
142 116 147
134 52 116
137 119 220
182 111 123
219 252 29
135 175 245
204 217 14
229 48 23
33 74 159
6 227 144
130 43 84
73 185 212
113 134 174
198 183 174
72 158 15
13 110 39
95 90 220
161 188 138
232 205 232
29 5 173
13 56 24
82 116 83
250 166 165
43 184 17
166 85 89
216 201 35
208 164 197
46 234 147
1 52 189
167 90 173
2 154 62
56 90 208
104 66 229
110 158 21
174 95 53
166 201 78
61 207 180
75 31 217
88 168 140
240 41 86
130 243 209
63 72 186
110 222 47
186 175 173
240 44 126
137 115 147
230 185 219
86 240 187
44 60 44
240 83 127
9 96 114
216 81 28
194 154 216
133 204 83
48 254 115
9 246 192
243 129 35
102 95 45
189 231 50
38 143 14
143 214 32
156 194 189
6 73 134
108 8 34
69 25 98
141 64 250
78 134 207
201 17 55
195 2 186
26 249 95
209 54 61
29 20 185
9 117 148
114 177 116
200 103 166
139 231 152
55 133 155
50 34 57
107 33 72
179 102 107
79 33 98
178 158 48
112 182 230
196 201 87
40 43 208
218 124 32
2 119 124
221 90 109
138 144 14
44 240 212
39 205 131
25 216 99
57 32 35
232 249 105
146 73 142
64 54 212
218 188 154
143 244 110
236 183 171
5 122 247
134 45 198
4 233 233
111 186 84
49 254 120
235 145 131
50 79 19
242 132 88
190 189 221
78 213 23
229 175 64
213 179 22
56 114 165
93 169 2
189 253 220
57 100 227
222 83 11
152 59 105
107 16 118
153 243 244
231 1 154
190 95 104
165 110 166
188 158 56
97 21 134
136 206 109
250 143 106
219 227 93
1 219 223
159 166 132
244 31 42
54 211 140
113 158 166
36 218 152
48 220 144
76 196 7
103 153 225
162 189 29
224 210 225
240 137 170
8 116 152
193 215 41
223 201 125
138 37 16
108 225 108
175 40 115
185 212 188
159 146 207
216 57 183
114 16 180
105 214 71
133 171 24
94 173 223
46 251 224
32 77 40
211 58 152
14 247 188
140 149 71
216 210 46
119 181 252
111 150 206
79 131 120
144 163 224
122 76 246
90 249 175
187 12 18
88 5 157
234 182 18
238 185 214
105 164 194
183 240 155
105 96 194
208 176 55
36 53 173
111 99 119
211 122 128
75 33 212
228 162 130
165 9 122
5 254 212
151 169 178
152 97 102
24 227 55
54 171 163
103 198 104
54 44 141
63 4 207
104 19 45
225 152 30
217 27 29
28 216 86
95 46 250
66 38 194
233 51 180
137 106 53
42 169 182
62 236 207
240 178 184
75 86 15
171 196 179
233 87 74
66 35 59
68 230 115
169 131 142
180 124 127
138 17 34
248 51 235
218 15 57
68 65 137
221 213 220
211 134 52
110 122 92
53 183 164
111 94 212
79 17 32
1 210 213
160 88 241
248 102 229
121 15 8
24 172 67
210 114 153
135 120 1
113 122 184
115 18 106
161 237 239
51 204 90
219 98 191
222 132 219
209 187 153
108 54 182
106 12 26
214 121 48
110 144 71
240 203 50
102 240 141
33 131 188
134 69 7
141 125 41
241 52 200
52 18 140
57 249 200
65 174 150
104 188 250
132 105 25
1 89 136
226 40 252
251 119 141
32 212 117
153 17 209
220 214 69
152 239 50
163 163 237
13 229 112
175 189 38
25 83 96
117 251 224
171 118 157
178 23 111
88 124 141
208 14 182
125 15 116
218 115 89
171 36 35
24 49 205
133 37 106
126 100 179
209 209 4
99 5 64
73 219 58
75 130 139
230 164 50
207 133 212
4 37 228
119 81 40
93 159 214
19 70 128
123 232 177
95 211 254
157 248 65
175 184 75
215 195 109
142 221 110
59 170 32
114 38 2
238 53 57
114 107 231
106 68 138
139 86 120
239 106 169
179 143 93
160 173 31
225 137 223
220 242 27
107 183 147
154 222 70
126 31 216
47 123 101
183 102 53
16 207 99
40 63 82
55 117 89
99 158 51
116 8 0
138 63 236
237 191 67
175 20 236
127 37 193
14 157 74
91 38 66
89 233 31
199 182 48
51 90 165
82 103 191
250 14 5
212 197 153
13 115 25
139 136 218
115 121 192
75 242 167
64 99 81
118 155 2
198 103 112
174 110 230
19 203 49
62 216 28
83 199 251
83 67 210
127 73 30
93 155 251
171 127 139
126 52 46
76 126 110
60 172 119
252 64 174
208 37 63
157 234 53
182 107 221
91 2 35
114 73 42
7 143 114
9 177 51
197 105 196
36 155 130
14 232 85
117 150 88
86 49 17
171 207 90
162 100 145
41 234 149
88 81 211
187 200 223
130 181 11
182 125 171
64 130 218
203 61 207
139 194 200
40 147 217
202 90 74
9 153 201
239 134 243
118 178 8
51 146 112
76 206 88
207 162 83
248 254 250
192 205 50
193 133 46
170 7 146
145 239 68
47 90 111
42 10 241
58 82 59
36 18 210
30 66 251
236 80 148
11 105 174
34 145 91
22 65 127
217 87 17
5 225 12
194 76 122
204 81 101
75 239 139
36 183 204
158 39 62
181 123 50
152 26 52
150 107 11
80 93 10
13 154 222
2 241 100
12 134 175
212 145 118
226 52 131
127 112 76
213 33 133
67 204 161
91 157 19
160 248 193
54 102 108
39 54 23
37 14 217
112 236 239
130 174 168
252 51 64
98 218 117
115 198 121
87 177 12
45 57 126
244 238 32
206 112 224
41 234 111
8 128 110
128 203 93
31 219 184
219 165 193
16 84 230
4 29 112
135 11 101
163 90 30
163 82 184
218 41 57
151 28 139
116 74 45
197 45 200
25 47 71
110 239 230
166 128 76
35 92 249
125 252 205
95 17 161
169 46 47
17 203 141
124 197 203
226 119 109
96 129 131
154 99 111
147 139 4
28 50 115
132 110 73
221 150 141
115 30 40
203 53 225
169 16 228
90 62 43
167 7 73
240 190 169
196 142 22
223 229 228
203 105 241
98 26 167
196 54 235
193 241 68
121 24 128
56 46 222
44 40 75
140 31 147
118 0 161
200 39 249
46 94 51
86 215 230
93 43 0
128 38 41
207 218 75
224 226 239
180 219 21
243 53 169
122 59 215
53 212 43
56 162 159
220 10 252
134 31 73
113 84 102
209 230 47
233 64 160
196 120 217
209 161 62
119 63 218
141 147 84
92 89 254
87 224 140
238 21 121
67 82 178
50 184 35
125 33 221
174 238 128
101 130 49
152 199 110
223 35 1
223 90 220
12 245 201
125 104 139
204 202 32
180 94 237
152 81 232
217 185 180
151 209 158
149 223 234
232 52 214
25 226 119
188 28 13
90 223 228
69 137 66
58 23 112
23 64 125
24 147 178
144 177 26
92 95 128
184 168 10
45 31 102
213 21 97
134 189 48
51 234 70
150 137 43
153 70 51
69 50 183
96 168 141
73 41 164
182 181 136
136 41 251
233 155 76
126 35 168
15 187 145
71 229 230
43 39 178
63 189 253
213 114 163
220 109 227
172 146 138
166 147 227
90 10 155
41 16 245
209 182 137
136 122 20
241 49 163
89 125 166
116 205 90
145 165 19
1 174 65
245 17 79
141 184 67
133 76 101
62 70 175
135 71 228
165 81 141
46 225 145
42 139 202
253 134 222
37 53 46
151 181 254
212 42 161
41 29 223
73 12 199
61 244 150
121 97 124
227 44 157
203 67 252
64 101 59
118 44 209
79 109 85
141 67 57
183 237 122
55 204 18
186 240 45
74 129 97
212 154 144
25 195 55
8 78 219
33 20 23
202 209 20
76 221 128
60 111 253
131 151 115
70 219 243
209 233 208
139 215 217
211 5 114
100 113 153
11 58 12
127 171 148
60 86 108
111 121 198
127 133 233
142 200 9
142 158 89
79 28 156
71 79 45
78 41 204
185 216 51
122 102 83
203 100 159
144 131 136
151 37 69
217 26 16
191 23 199
5 197 184
48 63 175
85 94 98
130 74 69
202 90 127
169 78 226
153 124 222
90 110 48
251 113 139
130 114 120
181 87 212
45 137 11
33 35 211
87 151 25
174 186 21
42 240 127
16 45 23
73 129 204
40 201 213
7 177 132
48 37 108
194 32 119
166 27 150
202 116 56
40 91 82
182 132 220
184 69 156
63 197 236
222 78 129
32 158 93
98 246 102
11 9 64
94 99 249
193 22 223
37 87 53
10 143 74
10 67 7
142 218 0
17 69 254
100 141 33
168 161 58
36 215 4
158 62 106
127 241 88
57 51 151
61 193 58
195 247 57
195 206 161
26 169 105
163 15 37
156 242 169
209 219 72
232 128 254
221 1 177
126 167 65
39 194 40
53 215 83
183 199 212
71 249 137
202 64 77
223 65 74
108 185 67
233 23 165
1 70 113
70 178 22
240 16 178
224 10 90
158 35 119
21 130 235
195 189 70
143 249 229
248 240 23
215 29 143
54 186 29
79 3 190
143 51 229
44 226 111
134 224 162
159 149 158
237 250 100
47 84 81
87 186 160
175 180 100
90 245 64
122 125 61
79 87 41
209 45 192
212 49 248
219 71 181
229 137 202
248 239 57
253 133 135
27 34 236
56 36 204
80 66 217
96 116 69
92 178 117
225 157 189
43 111 196
70 89 176
156 98 43
178 29 161
177 30 103
123 207 72
66 22 83
62 243 26
29 139 127
54 162 148
179 99 41
169 243 175
129 51 68
15 158 169
254 116 90
165 37 188
68 193 203
47 55 43
133 16 165
248 217 144
98 71 27
33 57 30
42 100 39
156 17 195
160 136 104
122 14 152
125 139 250
51 176 227
182 113 113
59 63 27
100 114 68
112 14 231
44 117 139
25 202 17
181 2 70
181 195 145
89 234 60
162 103 224
199 211 149
240 61 43
94 50 253
96 216 251
109 57 24
142 30 88
109 167 138
227 229 75
98 101 83
128 83 204
194 66 201
241 150 250
146 130 60
50 231 178
53 200 185
45 89 122
79 0 150
238 12 149
26 24 249
122 145 176
87 236 136
129 84 134
2 213 191
118 86 195
201 23 243
41 155 238
11 253 107
193 208 99
89 213 193
31 33 38
175 75 128
120 248 127
232 46 39
186 183 81
237 196 45
142 50 229
92 189 146
147 41 162
170 251 56
123 129 149
84 149 78
16 173 247
23 207 108
215 83 215
14 113 8
195 2 236
145 56 108
109 147 104
30 125 183
31 141 108
191 230 117
197 144 51
221 8 172
57 168 199
221 80 125
75 109 135
152 219 56
79 94 99
120 93 70
1 141 41
231 38 167
50 199 137
30 95 181
91 197 183
76 22 156
57 101 225
43 6 40
86 79 79
104 29 240
9 127 171
197 107 116
184 40 200
243 136 162
48 0 54
177 250 229
172 239 28
69 80 20
109 203 48
133 78 228
168 109 180
143 86 129
40 138 200
117 49 134
61 205 56
40 115 5
102 236 77
53 120 197
198 186 31
1 139 11
87 84 169
38 93 156
42 98 151
158 13 133
166 111 117
83 123 191
254 152 18
186 11 209
191 174 133
122 172 170
98 150 105
89 214 146
181 50 163
14 103 79
211 19 24
131 213 106
114 123 89
135 71 139
205 175 214
238 228 110
97 142 1
224 248 185
125 114 34
63 149 176
53 91 252
158 39 122
83 79 138
52 26 49
136 130 81
59 152 23
204 122 57
216 8 168
107 97 249
72 60 25
38 248 151
166 251 234
43 241 185
66 165 102
232 187 7
36 164 227
211 222 187
65 226 21
109 46 156
96 193 90
81 244 78
24 20 57
88 126 172
232 167 5
24 179 3
15 44 217
172 31 201
31 197 172
69 56 120
184 91 102
91 177 100
110 92 69
168 190 49
165 236 197
15 97 171
225 186 213
146 111 160
101 49 213
144 233 247
24 198 144
233 76 225
28 169 133
113 187 68
135 179 238
93 206 184
33 156 87
243 129 9
25 140 179
51 37 213
107 199 110
73 132 0
13 132 45
138 158 132
185 76 7
38 45 164
49 61 149
155 162 169
69 148 106
80 11 237
210 99 100
52 217 195
229 201 199
7 186 38
127 221 2
22 85 96
119 28 126
140 144 78
244 103 26
234 221 158
110 115 201
29 206 242
220 208 137
100 62 65
94 76 212
28 91 113
174 206 41
83 41 105
107 205 161
79 187 122
207 129 103
74 22 247
231 107 221
91 74 99
216 29 118
130 44 48
16 154 242
113 98 140
11 105 129
166 36 150
170 95 130
82 3 235
106 253 49
187 39 164
132 78 160
153 37 4
250 225 238
72 37 91
132 190 96
121 177 90
22 6 43
111 155 66
82 70 157
206 111 178
103 66 27
32 70 76
208 188 24
200 75 33
237 183 184
21 199 214
95 220 59
252 196 49
35 211 104
188 167 156
43 214 177
156 242 71
28 90 35
78 62 211
250 65 26
64 231 235
72 148 243
25 119 233
68 96 135
224 223 163
168 172 50
221 122 111
245 167 151
127 11 143
140 196 216
185 23 69
67 215 73
153 216 235
83 83 184
236 153 19
84 197 223
216 149 55
29 204 146
23 86 12
186 8 8
49 67 141
123 172 60
30 150 33
128 36 124
83 247 122
16 108 102
97 54 17
43 130 89
26 57 98
149 98 39
247 23 131
156 53 253
110 11 186
224 184 92
136 193 22
152 95 130
62 185 40
51 86 138
146 79 141
223 198 184
249 138 205
5 119 205
156 121 149
171 218 61
196 227 209
154 92 119
40 239 49
248 191 6
64 146 241
135 54 0
120 197 93
101 49 129
160 190 162
239 67 91
224 35 250
20 173 31
253 53 148
57 66 207
195 128 119
227 93 107
244 24 157
232 45 118
122 160 228
222 158 4
44 158 99
111 229 108
59 13 97
53 23 34
63 238 64
152 186 226
67 199 124
168 82 239
155 71 56
215 125 161
212 253 151
187 46 226
101 111 146
67 5 31
88 214 206
11 183 103
93 56 201
82 214 184
36 79 240
159 171 4
247 125 131
73 225 62
63 33 42
37 57 199
121 97 51
99 101 92
160 43 69
83 200 31
97 80 151
155 135 141
201 100 54
108 217 245
252 244 199
178 62 27
174 67 229
41 55 184
208 32 101
197 107 227
78 41 76
126 163 145
206 228 61
29 238 236
124 56 234
243 176 5
121 222 99
131 129 109
167 45 175
151 99 189
95 222 25
79 29 84
50 16 75
59 97 51
170 131 2
231 197 146
146 230 12
4 59 247
155 100 125
121 119 6
109 60 67
253 157 210
170 231 162
152 146 105
74 21 199
179 120 1
184 233 60
142 248 163
17 55 19
10 98 187
110 52 200
16 77 62
5 91 163
82 72 211
80 143 188
143 246 139
95 163 131
90 177 18
21 215 176
247 94 32
183 116 176
111 175 42
71 224 172
114 8 49
105 138 195
142 176 215
64 151 42
146 124 135
167 112 142
65 91 153
135 42 143
137 46 9
79 32 143
107 36 7
171 166 194
46 65 13
85 5 123
234 64 182
10 216 9
136 224 4
198 154 170
111 177 195
43 211 75
173 26 165
48 234 185
88 130 207
174 116 139
145 214 28
126 156 41
247 117 30
96 198 27
34 122 125
153 210 62
170 184 174
234 29 72
213 173 110
202 38 137
243 233 220
212 198 181
241 233 85
62 91 179
181 117 120
58 35 119
69 212 232
161 166 156
36 27 224
87 25 179
14 94 125
184 171 75
8 168 13
113 36 106
203 86 127
230 137 196
117 46 17
45 238 132
58 222 207
8 11 220
136 199 5
208 198 117
164 99 4
143 228 118
218 52 223
22 89 117
230 6 203
85 145 91
33 82 52
114 247 163
181 182 242
7 173 26
74 209 210
26 223 22
20 70 179
138 235 21
122 25 69
129 67 185
3 72 105
115 130 175
186 180 41
177 144 226
207 131 197
52 38 194
71 221 220
66 175 16
168 75 30
191 125 74
59 216 133
173 52 190
54 126 249
187 14 109
33 67 213
110 187 181
242 2 104
250 161 220
145 27 178
3 3 73
13 138 89
103 32 30
240 132 6
93 216 101
243 97 100
130 206 76
114 163 110
210 118 114
106 157 223
54 9 91
110 11 20
127 3 204
60 122 22
6 75 224
65 152 204
83 161 113
110 37 243
0 180 130
168 67 227
163 102 159
17 198 167
78 215 122
230 164 37
124 154 122
132 173 224
108 111 225
34 208 137
19 141 254
197 177 183
92 220 29
180 201 147
140 121 80
193 97 116
189 15 47
124 10 210
125 41 47
21 125 178
217 28 199
211 11 6
87 100 34
201 206 155
219 188 198
180 193 221
171 222 28
14 242 186
83 124 31
205 223 92
233 164 53
70 132 153
66 58 189
111 107 194
145 53 48
28 228 45
199 221 104
159 247 155
122 219 104
107 117 201
51 74 193
79 4 200
33 123 117
144 128 160
133 132 81
90 84 167
41 56 123
149 56 242
187 21 205
104 207 173
246 216 18
193 112 139
216 140 137
87 42 22
20 66 49
108 14 44
140 55 43
180 233 127
80 215 136
60 202 107
131 245 171
252 24 142
55 182 184
154 60 78
154 191 61
35 33 128
219 12 78
133 211 0
20 54 122
18 47 182
30 119 112
24 52 123
23 95 170
51 161 163
203 71 50
228 148 150
252 104 228
162 68 53
99 126 238
125 19 172
58 140 204
31 122 15
67 92 20
70 52 102
128 249 225
236 22 191
136 241 97
238 98 89
76 201 236
151 227 56
140 239 226
44 175 124
245 249 29
109 70 186
15 57 58
19 183 44
152 239 219
16 222 133
38 97 122
171 214 183
206 238 234
111 26 231
112 171 173
152 28 191
26 21 206
153 36 139
29 182 196
122 163 80
248 190 21
171 20 39
219 205 130
208 71 124
3 114 144
205 96 210
176 41 48
21 212 121
137 34 245
132 87 69
73 149 39
211 167 113
148 236 11
77 193 172
208 177 116
103 227 8
190 177 218
193 221 93
92 79 170
57 183 207
67 28 139
69 86 159
231 173 169
17 197 46
72 120 72
105 250 68
17 129 238
226 178 231
43 115 112
19 56 215
112 148 45
46 123 203
102 161 247
157 54 12
68 108 192
204 1 68
213 233 21
231 12 55
97 60 84
194 243 195
92 41 61
23 109 144
126 150 44
254 12 198
80 58 17
8 77 102
102 39 247
28 62 107
163 39 36
163 201 25
153 225 47
123 209 219
19 183 79
24 109 127
108 237 67
92 11 131
3 167 244
185 9 135
49 192 182
202 207 70
49 168 108
116 193 66
118 174 95
128 123 71
104 14 116
160 141 150
100 103 106
146 189 231
101 55 229
160 60 224
201 19 99
135 198 5
22 21 132
29 199 170
227 31 203
187 22 171
97 241 36
190 1 209
229 98 156
29 168 72
158 202 11
186 106 49
217 159 162
172 237 120
117 90 63
30 60 59
83 36 164
217 37 153
183 51 40
28 240 15
24 246 59
142 162 177
9 131 172
214 84 233
179 87 198
148 23 198
209 101 70
96 242 159
22 11 115
37 80 206
218 197 168
242 101 214
179 50 178
65 22 192
9 79 237
21 76 71
73 32 24
182 154 124
27 118 122
171 141 62
191 118 133
222 33 132
96 239 243
56 144 16
194 246 147
3 72 205
203 63 8
53 16 77
16 85 29
247 168 23
210 183 108
82 81 92
158 246 104
204 172 6
253 251 52
22 187 208
129 101 191
178 216 18
44 237 124
16 178 159
74 235 131
110 95 102
207 162 16
29 44 4
188 160 13
240 190 65
187 167 109
128 212 183
20 204 214
129 70 20
68 206 95
205 214 224
53 123 74
123 185 201
203 77 152
207 130 194
138 30 194
25 241 11
235 73 105
122 232 145
234 138 114
73 59 101
115 55 159
30 188 149
178 86 221
137 67 161
85 39 150
212 116 93
12 177 28
71 217 181
53 208 122
100 141 183
131 222 119
57 100 157
84 128 231
31 108 183
215 231 50
186 177 147
103 79 201
230 45 243
59 29 125
16 153 212
156 166 50
232 243 210
220 15 118
51 24 133
244 0 6
55 122 248
1 12 166
109 207 97
31 248 182
211 124 74
254 209 91
133 152 54
237 22 117
73 59 5
87 110 107
42 142 104
194 70 253
117 48 218
83 155 32
96 203 127
91 26 120
150 54 42
87 128 221
55 175 105
235 181 14
65 180 38
201 153 210
103 244 7
121 94 34
82 25 154
202 76 60
63 230 35
209 75 229
2 176 143
34 207 10
100 118 106
42 5 159
171 39 136
7 0 103
98 153 136
33 248 217
103 50 156
188 186 132
7 143 249
200 27 243
32 200 152
162 220 154
252 142 194
241 55 40
33 214 118
45 133 134
52 242 132
70 60 2
227 215 92
242 174 249
251 227 194
14 186 243
10 199 103
170 199 148
228 33 49
148 77 101
80 75 103
98 90 242
200 213 233
138 177 130
227 142 118
194 99 246
23 163 237
104 66 153
105 171 105
16 248 229
190 220 58
164 147 77
162 41 146
101 92 15
204 4 105
65 244 117
114 210 97
61 131 38
175 148 25
0 127 100
70 0 195
193 211 252
153 38 155
76 13 246
13 140 219
20 138 69
129 118 36
165 173 32
74 30 117
106 10 148
68 227 233
15 251 89
243 238 193
56 138 181
81 225 21
220 238 160
31 63 78
209 240 38
245 1 200
98 252 125
55 156 58
38 60 177
44 121 52
79 184 33
52 48 153
19 78 142
249 108 124
198 177 41
147 63 150
102 135 250
86 196 219
129 200 152
147 122 56
141 114 35
13 210 98
252 70 138
88 101 86
15 253 234
34 50 142
145 82 45
18 223 176
200 123 94
57 124 80
113 45 148
82 33 176
18 101 205
92 219 149
86 191 113
132 171 63
53 164 240
78 132 122
127 226 41
217 6 187
102 81 17
185 163 184
58 125 250
15 204 2
49 174 12
86 212 115
125 199 17
221 227 146
240 211 61
231 25 0
122 223 63
127 199 47
223 207 14
173 120 54
150 4 68
13 102 30
201 177 202
160 181 7
166 141 73
183 237 219
220 186 118
30 67 193
121 6 6
134 115 224
78 54 56
83 102 97
245 129 56
44 238 211
168 47 167
17 57 66
218 130 206
28 228 81
130 134 125
89 228 142
114 152 145
108 56 3
252 157 4
202 217 208
61 14 4
44 139 81
65 21 68
191 95 249
230 181 99
64 157 230
95 221 201
191 43 188
15 73 127
249 8 171
63 21 120
32 116 20
170 105 53
84 90 159
142 235 209
238 157 228
154 146 237
173 105 31
218 140 38
5 121 113
50 56 201
238 218 254
58 196 14
212 188 40
67 206 116
207 172 132
190 108 38
98 153 254
248 104 49
71 95 52
140 66 228
104 176 92
144 194 172
94 119 246
83 61 26
31 185 71
180 95 38
213 103 129
131 17 208
172 147 91
142 123 235
240 54 152
254 90 187
41 179 195
217 146 72
197 235 7
156 54 218
77 11 161
248 63 94
108 254 227
188 60 251
34 224 194
241 138 147
237 112 19
204 157 91
84 64 243
59 158 113
70 66 130
243 214 107
142 114 89
196 105 57
223 226 147
197 196 21
224 33 31
57 133 136
89 89 71
51 3 252
167 157 228
70 21 190
254 192 134
153 229 23
126 236 192
115 98 14
196 83 164
45 120 144
168 142 164
98 221 235
46 29 128
153 195 239
126 155 166
112 96 67
229 159 195
139 221 209
191 186 214
145 195 147
138 234 201
149 118 186
236 139 53
120 48 117
214 2 157
143 95 227
124 243 238
61 66 32
57 150 132
102 81 108
139 131 104
169 218 236
5 89 46
4 222 225
224 83 88
112 180 243
192 124 94
193 217 127
101 135 218
77 44 60
80 177 51
127 42 168
110 116 76
233 190 159
114 157 223
105 68 100
106 244 97
140 43 215
198 45 124
116 75 118
87 251 178
98 81 221
107 51 191
33 14 75
32 119 61
231 159 1
93 185 200
19 226 217
175 246 22
64 185 107
155 132 74
251 27 55
227 73 203
138 169 125
205 18 56
252 142 237
182 121 167
128 62 36
226 160 217
239 238 227
182 72 93
97 234 34
113 26 74
193 238 227
175 39 210
5 79 114
61 80 93
197 108 125
158 80 10
143 59 171
59 125 109
182 166 232
199 108 95
40 73 152
123 232 116
77 41 32
21 241 160
39 115 234
56 42 30
19 128 202
13 166 41
158 61 185
18 105 142
106 86 181
135 117 30
55 193 182
163 19 24
101 21 251
120 2 93
50 215 64
115 103 41
237 171 147
232 166 63
168 148 192
8 72 148
210 135 93
132 188 211
65 207 141
251 75 148
188 240 245
203 249 23
113 142 37
119 88 153
38 208 222
80 166 235
155 222 254
233 98 77
75 145 65
20 125 184
137 17 90
75 11 217
185 30 104
96 5 135
32 90 184
237 181 95
233 187 155
59 29 124
190 80 102
250 96 36
30 55 155
91 51 138
184 74 76
67 61 228
214 153 206
153 46 62
207 1 106
248 110 226
165 251 96
105 160 110
29 159 42
223 90 4
48 143 124
70 83 69
90 7 124
176 253 43
44 116 191
25 28 102
103 112 96
40 165 18
36 17 42
13 49 165
22 195 206
126 134 93
66 228 151
86 102 145
250 70 173
64 15 47
6 137 19
228 109 195
103 108 174
203 240 85
152 125 142
115 36 65
59 2 99
102 197 133
30 199 73
134 254 89
56 111 198
47 174 165
192 151 107
189 145 200
12 70 22
222 251 16
212 5 178
137 82 22
167 107 60
32 156 108
195 122 43
41 13 101
173 250 31
237 112 238
177 249 74
16 182 71
6 188 154
59 58 174
254 64 115
131 115 46
222 89 239
98 204 81
30 128 54
143 37 24
166 13 135
146 176 201
216 56 205
62 196 152
82 16 176
182 85 234
132 199 46
149 78 83
244 127 81
23 35 118
64 103 51
199 33 11
116 108 51
52 225 128
180 150 47
48 253 78
235 103 199
6 91 77
252 148 239
238 20 4
2 33 51
54 48 245
160 159 132
212 74 68
202 142 225
113 185 244
85 97 73
92 40 200
235 143 236
240 125 0
102 230 23
106 22 221
169 142 58
80 252 69
251 119 129
155 212 171
142 41 118
206 118 88
165 48 154
78 227 54
208 183 218
161 87 13
83 63 32
175 183 96
179 225 246
218 116 254
45 138 252
250 118 118
236 134 209
163 83 226
252 54 19
60 156 93
109 43 40
190 10 26
117 89 47
180 64 134
133 48 30
149 138 252
61 62 155
61 86 78
56 8 163
201 224 218
101 131 57
72 168 66
207 177 230
7 170 170
173 16 138
206 235 154
239 39 9
144 230 241
108 154 159
92 155 202
199 129 134
68 203 76
187 182 205
1 142 121
23 23 109
23 77 155
240 43 153
208 233 91
164 63 100
63 17 100
121 150 78
70 227 18
235 4 28
138 212 52
135 5 23
172 125 58
13 253 157
156 39 186
68 142 32
100 161 175
204 7 168
18 235 96
246 164 20
32 87 178
44 28 125
193 129 7
50 30 250
125 113 135
110 133 209
160 24 195
26 39 193
16 228 161
11 42 74
247 243 52
82 39 138
45 52 139
99 161 51
108 188 202
133 201 119
185 31 13
64 228 218
35 151 46
193 177 141
38 127 73
236 185 193
225 158 1
126 129 250
223 251 209
109 54 2
132 253 63
13 205 63
114 2 229
38 244 36
175 198 246
202 29 150
12 177 226
8 84 71
10 60 134
221 253 25
54 164 155
116 230 206
104 49 187
67 117 123
219 68 15
127 227 243
58 57 108
0 174 220
135 11 76
79 61 122
166 196 227
66 56 125
225 238 96
163 178 102
29 90 190
51 198 114
217 214 171
213 0 224
204 164 33
219 52 142
147 202 3
99 253 64
73 241 198
73 63 153
238 196 233
182 93 81
208 80 104
101 191 158
204 89 72
94 199 94
114 138 122
27 81 97
101 151 254
94 15 16
147 138 172
208 46 59
217 83 171
188 67 161
139 121 192
198 177 249
201 75 249
133 71 138
82 27 33
87 78 132
154 198 238
225 199 11
127 195 188
195 90 208
66 165 228
0 172 85
156 92 24
112 132 120
178 139 200
99 218 34
240 215 43
69 229 253
197 139 57
99 112 1
99 151 225
29 230 129
195 136 159
95 198 175
140 14 218
231 126 128
224 46 226
129 104 58
147 50 203
126 248 223
69 60 81
18 66 71
241 1 32
182 86 79
16 125 211
39 192 186
64 44 163
196 230 93
90 165 148
70 166 34
160 49 109
250 51 50
165 122 40
180 188 140
97 109 206
227 94 213
201 243 222
21 58 69
129 251 240
92 11 116
194 202 87
6 2 23
27 98 244
157 240 8
248 7 228
238 6 254
115 97 192
87 46 218
222 162 123
34 253 135
28 234 181
221 134 63
125 191 32
253 61 45
246 151 28
121 7 124
217 1 159
197 80 252
8 150 109
97 97 72
183 35 114
205 180 215
219 115 63
244 93 83
172 185 169
55 204 138
116 51 19
175 178 179
12 79 200
81 234 28
133 27 58
1 59 180
27 72 201
107 138 12
240 41 24
103 61 236
151 181 92
37 157 99
193 13 105
15 80 135
249 2 252
250 129 196
167 42 231
210 134 164
7 49 125
54 119 237
167 116 236
72 114 84
12 137 163
233 191 80
130 172 103
212 160 124
114 231 236
44 189 173
141 207 64
96 41 165
228 27 163
186 161 230
110 62 19
36 117 150
79 122 74
166 31 235
141 104 208
55 198 47
99 36 154
212 37 108
159 152 35
205 49 226
109 7 12
76 138 198
151 145 182
73 147 80
52 175 165
58 73 82
112 25 68
149 50 202
137 122 143
35 148 122
20 67 236
243 139 224
240 28 173
14 253 76
205 118 92
158 13 164
105 48 46
69 238 245
24 129 164
3 170 77
65 168 209
103 34 76
175 81 101
97 159 117
140 103 238
218 111 204
44 10 35
24 67 131
22 204 216
119 18 214
39 146 212
119 55 140
110 2 192
101 173 231
26 224 49
210 238 180
111 95 50
131 76 166
121 22 17
52 65 229
209 148 65
226 159 20
209 37 28
221 9 219
50 20 13
162 28 26
202 172 250
16 143 93
33 205 32
180 91 219
227 178 69
53 183 34
21 68 118
89 215 248
90 100 1
96 44 187
98 157 4
225 88 46
248 153 63
80 136 136
146 8 149
126 54 0
75 42 77
96 187 130
176 194 6
164 201 89
112 228 254
15 157 230
114 27 231
234 168 201
7 51 250
142 115 152
78 20 196
196 133 84
251 174 156
253 229 181
98 32 21
137 207 121
32 64 214
78 25 187
68 164 118
198 121 91
215 135 30
97 236 178
27 33 87
34 114 64
84 164 194
234 27 201
147 181 153
232 55 80
142 39 92
162 179 200
27 108 232
4 151 176
20 41 147
89 175 81
239 246 49
113 9 1
71 246 113
244 154 205
106 192 141
125 159 88
33 54 13
88 10 252
20 25 12
78 23 39
45 231 53
94 223 19
243 66 32
27 114 186
182 210 104
210 157 195
159 47 163
253 36 194
101 147 78
9 43 64
112 197 187
196 69 11
201 240 107
158 242 240
132 94 135
204 81 74
140 51 210
98 165 1
213 105 106
28 228 195
76 140 144
133 9 249
138 98 87
104 118 27
206 231 248
12 42 5
228 130 108
55 21 4
148 152 61
154 74 161
219 93 79
57 10 201
136 77 80
32 123 75
66 81 9
35 4 196
188 187 11
234 18 112
35 249 225
15 153 185
252 96 26
192 148 188
150 141 241
185 71 82
39 93 159
111 184 122
192 217 230
33 204 4
149 180 160
122 130 163
76 62 58
75 235 170
5 133 17
218 192 238
4 220 84
88 4 180
59 249 170
243 207 91
214 229 213
139 18 19
114 9 223
178 2 7
127 45 9
240 120 82
178 78 126
244 125 232
135 248 48
223 165 144
164 132 125
57 115 49
100 165 45
229 251 55
148 236 105
174 18 84
114 168 75
111 20 166
161 49 103
35 123 160
117 125 21
44 53 60
210 23 100
229 180 85
239 126 122
10 160 104
144 120 70
166 83 27
131 80 70
196 132 177
196 99 66
223 87 82
24 194 29
224 68 220
143 231 47
208 251 34
0 104 123
151 223 166
84 81 241
163 240 46
227 53 248
132 156 46
34 238 227
178 191 103
155 231 197
158 208 136
167 40 200
16 206 98
206 155 157
67 231 42
175 104 47
84 73 146
115 53 52
106 250 132
236 183 100
55 230 113
144 148 207
198 28 22
7 252 198
135 194 216
210 187 15
102 177 198
168 82 157
147 76 162
226 72 24
144 252 207
131 203 75
249 139 92
3 131 40
128 160 4
26 44 129
9 38 13
93 219 205
185 83 190
48 106 70
32 123 105
39 10 177
12 132 205
51 121 230
181 185 246
88 188 64
11 169 20
138 179 71
242 183 244
178 124 41
136 113 66
20 231 10
147 11 5
228 188 230
226 26 94
69 225 140
113 20 121
226 179 87
41 168 128
37 99 61
106 130 181
87 247 162
234 175 108
172 254 181
6 134 20
204 5 89
53 129 120
55 172 168
18 173 46
219 144 154
153 215 119
141 33 142
32 172 1
134 105 184
52 101 123
58 184 153
129 8 88
160 183 146
15 93 47
49 118 101
191 222 221
204 231 158
234 79 174
124 111 98
178 84 210
136 6 234
51 249 130
232 40 115
45 80 191
68 93 136
172 231 61
127 172 72
82 142 43
247 167 28
175 246 198
42 127 212
33 199 153
77 10 151
242 171 231
223 18 6
67 96 108
171 80 77
52 219 36
185 106 12
164 95 109
223 117 231
80 165 91
194 179 215
237 176 126
28 141 244
11 47 219
103 200 32
209 217 216
254 155 129
40 48 87
91 9 29
226 189 207
120 86 17
129 64 87
88 2 189
84 133 230
175 245 209
196 84 174
128 51 8
205 202 85
173 126 231
151 142 9
226 125 114
204 45 50
18 195 179
170 44 11
77 146 92
51 215 217
125 231 91
140 182 161
252 88 243
243 35 224
124 180 16
77 89 7
214 172 61
133 111 150
166 16 75
49 109 12
179 244 244
147 74 229
170 210 133
139 20 158
237 225 144
5 3 37
153 103 142
10 20 66
56 91 144
88 195 152
254 74 165
120 55 218
242 115 234
114 84 187
195 125 108
203 88 240
252 97 63
221 26 151
79 116 66
128 115 234
60 212 18
13 113 183
102 250 61
154 96 98
222 44 220
164 10 2
199 191 69
79 254 115
5 215 137
105 195 1
250 230 1
35 138 198
223 125 69
69 211 247
215 219 29
18 221 57
241 29 52
142 35 178
47 194 28
254 194 66
246 207 245
249 160 119
50 63 186
132 189 158
168 91 3
233 140 24
104 244 150
234 216 78
102 66 202
251 114 120
93 245 27
77 216 233
110 245 51
143 210 127
92 0 238
200 247 236
45 92 66
166 171 233
211 68 96
42 241 97
222 222 162
77 241 211
188 142 130
250 32 40
250 20 211
119 31 246
47 151 4
240 212 49
44 81 166
8 229 136
101 75 249
6 59 102
194 47 91
211 54 149
107 202 139
217 118 38
117 208 6
243 26 91
47 10 83
134 57 134
208 239 142
36 162 242
57 50 88
30 149 59
41 6 238
15 224 221
63 65 113
118 190 218
250 21 131
59 163 168
84 2 254
232 117 235
250 95 141
120 1 86
112 214 64
196 230 94
216 161 74
146 87 60
253 253 184
13 165 99
97 7 167
14 209 109
203 180 105
56 145 81
15 127 145
81 32 251
114 120 88
25 87 117
175 41 77
223 229 165
18 54 151
38 70 147
47 235 226
167 23 31
128 43 90
52 70 228
54 10 151
113 70 175
77 94 71
248 26 217
157 52 227
247 144 63
36 79 128
73 177 126
115 234 248
199 61 134
254 99 48
129 189 172
14 65 52
79 45 25
55 150 122
2 95 3
95 62 29
210 180 217
210 136 176
35 254 188
21 121 206
175 1 40
177 231 161
157 184 227
54 48 215
22 30 79
232 71 89
67 112 2
187 235 6
42 195 6
121 116 70
132 236 195
97 249 36
49 114 139
171 71 250
148 23 44
46 75 139
69 22 36
190 149 12
187 46 216
231 5 179
171 54 21
55 42 75
35 168 106
247 194 130
61 86 80
112 129 81
31 116 149
116 232 16
27 158 253
209 162 154
198 93 116
207 10 171
4 253 9
56 75 47
113 213 25
231 37 71
144 180 98
245 223 20
77 204 241
241 216 28
36 30 163
10 53 130
55 111 6
251 65 47
222 23 55
98 69 22
133 96 41
138 36 6
98 91 194
197 207 7
104 92 18
120 42 49
167 64 102
201 120 15
149 205 3
179 43 137
190 8 153
227 111 5
102 188 241
115 109 44
63 100 57
132 51 116
26 173 89
254 208 165
54 190 132
57 234 12
84 207 150
169 60 97
220 223 31
218 243 200
165 22 26
146 81 43
99 32 106
64 170 58
169 22 177
93 192 120
29 44 176
221 242 43
252 200 185
212 184 193
224 140 248
126 146 32
166 12 144
204 69 10
83 113 146
203 236 251
50 120 116
163 49 2
11 128 32
239 168 165
16 117 200
52 166 67
172 31 35
7 63 144
134 21 220
165 37 32
129 241 113
11 32 6
58 171 173
98 27 144
156 23 119
33 205 248
35 167 194
163 39 156
134 198 64
74 164 222
235 142 28
219 205 99
162 107 38
112 60 76
29 71 92
114 181 18
165 214 151
208 127 200
134 245 145
141 56 250
220 166 231
55 123 24
74 152 83
110 65 8
171 127 2
22 5 3
5 186 26
17 224 74
101 170 5
92 159 197
103 216 138
140 141 94
117 200 156
169 91 48
203 81 133
127 223 225
6 154 18
50 139 170
15 2 72
236 224 64
132 23 251
252 135 35
195 234 113
214 175 117
187 211 124
76 102 20
124 117 35
13 128 175
233 110 102
74 209 52
200 51 38
234 216 98
2 0 230
106 235 235
162 191 69
128 250 156
0 74 211
251 115 179
228 147 188
105 224 90
125 168 93
236 1 238
16 231 251
62 199 138
117 247 197
178 159 98
100 141 151
240 150 136
100 106 74
221 29 235
41 75 156
250 183 198
36 149 237
81 202 126
41 33 50
174 163 217
196 168 201
138 134 157
39 144 179
146 174 54
59 12 33
155 84 218
98 66 178
21 238 197
151 223 195
36 217 6
114 165 133
135 49 164
186 166 29
235 118 17
131 101 215
33 91 175
157 126 220
128 227 104
197 80 98
140 196 50
58 57 163
106 3 182
146 144 52
170 196 217
148 77 174
88 202 202
162 76 69
31 153 200
3 76 85
97 122 45
74 9 49
199 88 96
179 240 92
167 136 136
29 123 72
180 139 163
124 231 114
27 235 250
127 6 238
68 186 75
7 239 232
141 53 245
230 36 227
117 237 230
97 227 216
84 163 183
230 123 108
31 251 44
5 210 105
198 28 21
64 70 129
9 41 71
204 200 91
55 177 10
29 238 124
164 97 207
136 203 130
185 171 217
35 113 90
109 167 191
144 74 105
236 183 173
6 225 22
141 242 251
143 117 50
133 42 121
208 186 175
233 21 220
98 195 128
192 137 20
251 69 232
177 234 192
202 154 113
173 191 81
161 187 195
2 107 145
207 79 118
198 37 139
73 6 200
79 224 211
130 20 157
83 210 92
46 34 176
139 77 30
15 232 139
36 233 129
248 33 231
220 86 136
198 181 187
251 174 176
68 75 138
190 56 10
147 33 209
218 52 70
115 75 219
107 13 67
240 198 0
229 253 152
41 249 75
233 0 168
245 225 95
40 57 234
106 169 128
155 38 148
242 142 174
113 19 178
180 143 27
168 26 179
52 63 216
120 56 50
26 25 21
31 154 208
251 241 198
155 133 166
176 223 221
177 190 112
52 94 195
95 0 3
83 4 64
208 6 69
106 154 133
127 21 234
147 17 149
48 213 232
161 104 44
48 187 124
89 204 83
210 177 113
9 54 45
242 233 146
3 6 17
179 49 178
150 136 153
21 150 9
17 66 105
67 5 219
164 65 37
44 154 53
169 228 118
38 157 194
17 11 88
195 176 147
125 170 73
3 178 239
107 225 103
249 130 100
93 159 8
88 62 93
195 242 136
189 217 57
140 87 36
135 192 109
33 81 192
134 244 39
148 152 80
35 189 5
169 183 137
26 39 28
181 205 160
185 225 100
154 92 86
185 42 23
172 209 12
10 68 137
242 5 46
106 211 186
232 1 45
112 21 78
151 106 142
19 20 251
251 166 242
253 77 22
60 15 190
167 115 94
71 151 51
242 32 33
220 155 53
44 240 6
61 164 194
38 192 228
152 242 82
52 242 19
54 63 135
134 206 9
170 114 251
58 54 9
61 225 163
186 225 104
235 47 113
231 231 54
185 29 184
152 17 160
251 145 75
168 76 90
105 241 217
239 136 161
20 37 15
176 53 17
32 61 168
236 216 199
23 5 215
190 21 171
157 102 69
246 182 235
225 42 204
69 251 4
5 30 117
231 83 122
113 29 152
213 199 1
204 87 55
128 111 235
226 47 12
95 217 66
155 70 175
219 108 199
96 93 2
165 25 55
247 12 142
223 230 128
124 113 90
14 2 29
72 108 105
236 168 77
152 246 14
23 179 21
113 162 171
50 127 210
208 188 35
23 147 223
25 177 12
7 68 72
4 208 32
45 132 235
240 211 180
156 151 227
126 67 53
98 213 58
117 226 132
227 45 179
222 166 50
125 84 209
126 195 33
21 165 188
166 254 151
125 51 190
53 213 55
150 200 122
42 51 76
183 172 222
35 219 160
192 168 160
195 35 51
164 13 233
125 80 81
183 4 179
239 237 88
186 21 130
110 63 73
220 225 87
88 34 196
109 92 64
232 250 220
17 192 115
210 81 190
190 158 108
207 73 27
60 228 2
231 192 31
233 37 251
9 235 42
231 6 170
109 187 208
140 55 117
183 153 207
82 245 5
186 57 73
112 180 194
53 193 14
76 133 24
8 216 136
67 88 44
144 59 126
76 179 127
126 239 93
104 54 246
35 194 100
253 116 195
149 29 21
49 125 228
2 202 11
193 25 207
171 49 192
40 145 15
89 28 241
96 172 18
138 206 186
186 241 220
6 189 104
233 70 47
192 15 38
105 32 5
232 38 5
123 166 97
122 39 251
210 227 238
209 45 168
107 36 213
74 61 105
192 42 204
126 186 117
148 60 58
9 249 27
129 84 84
135 55 99
57 202 182
188 4 46
55 188 101
59 160 106
201 189 16
175 111 101
250 74 126
61 108 96
245 68 190
33 73 218
224 198 110
105 124 248
79 216 142
200 212 81
73 98 242
84 84 158
250 24 55
7 159 218
17 15 216
238 224 132
170 205 122
247 116 236
129 37 67
153 246 35
217 41 165
214 233 179
153 114 33
41 93 131
10 246 158
87 129 26
12 174 142
193 127 26
125 99 68
228 20 238
23 116 23
123 44 126
167 23 80
248 19 28
252 46 152
41 108 202
84 182 140
96 77 200
85 166 64
200 102 113
188 137 250
60 178 243
120 40 103
109 77 85
139 233 203
7 228 62
185 209 59
170 78 113
132 46 63
232 116 146
48 148 252
80 145 202
88 178 76
50 166 88
200 0 195
0 162 36
207 53 167
41 35 81
100 201 148
109 234 132
216 38 139
47 84 91
174 198 181
75 10 145
42 175 222
193 251 64
126 175 253
192 185 95
122 246 132
233 36 181
228 235 174
223 8 50
139 249 9
41 253 70
58 77 247
123 16 57
121 126 128
227 215 200
219 90 56
94 134 225
28 237 158
233 187 13
89 38 170
43 62 64
102 32 8
4 219 124
193 90 1
5 108 149
8 105 90
79 83 189
235 218 40
172 112 25
74 114 211
165 128 166
74 46 43
199 68 100
100 37 186
107 224 142
173 168 128
242 102 75
201 63 85
12 186 191
20 233 39
198 243 225
159 213 146
231 139 162
98 179 101
27 40 8
102 206 205
149 243 102
149 45 28
128 7 70
8 39 40
36 163 180
217 155 222
84 95 183
199 8 122
73 118 57
27 157 104
233 128 106
219 125 97
170 205 148
235 106 138
23 174 221
23 90 197
171 86 245
217 187 41
67 73 17
113 13 134
239 59 119
152 72 243
162 167 73
231 254 18
111 253 120
14 6 216
203 33 252
229 191 147
101 247 148
44 13 117
90 196 20
187 134 17
101 187 118
168 229 247
188 43 94
100 231 17
91 200 144
244 143 174
105 126 121
5 49 41
79 231 151
144 119 74
151 132 137
246 74 138
176 14 186
142 87 130
181 101 115
70 161 113
116 24 98
241 147 34
64 104 3
236 239 138
214 74 30
54 146 175
167 214 45
190 217 179
139 225 103
31 182 185
113 104 213
74 76 170
32 37 221
179 225 241
191 183 197
162 133 137
114 176 202
123 50 162
113 186 65
207 51 50
99 11 95
209 236 181
250 198 97
232 154 125
61 37 155
128 43 191
41 7 45
10 32 72
109 215 203
99 209 220
135 122 8
39 196 72
10 11 121
74 109 205
121 215 247
121 73 176
193 144 218
220 220 17
206 115 220
124 165 149
46 222 133
55 11 129
107 10 16
65 132 156
172 179 242
123 13 166
195 248 151
137 223 219
46 219 171
151 212 54
177 90 86
237 254 136
37 143 20
250 244 145
142 136 94
4 115 196
134 167 184
237 17 162
239 247 99
200 194 176
125 46 23
222 98 104
254 246 226
73 112 33
71 250 59
62 21 40
218 177 133
187 138 8
226 86 184
202 208 119
212 159 81
145 109 245
122 237 193
108 37 46
166 167 35
63 103 208
180 141 252
104 190 228
80 35 153
36 219 17
96 75 212
171 162 143
196 22 94
101 54 53
31 190 83
221 61 227
29 55 119
41 33 175
249 236 85
1 19 144
237 172 15
236 232 252
19 221 30
215 222 247
130 7 91
129 5 181
93 180 159
206 234 112
5 115 146
91 23 195
129 163 248
32 110 199
238 32 154
52 112 249
100 17 253
118 182 0
190 72 221
189 100 211
114 221 87
195 250 131
199 117 109
231 246 22
36 13 116
8 6 80
36 221 103
99 182 253
97 198 120
205 45 83
20 235 193
239 61 212
53 117 207
130 48 237
92 219 231
48 190 138
244 242 153
137 119 226
108 124 96
231 154 38
80 11 141
30 227 43
78 253 218
136 199 58
248 200 141
96 8 233
68 95 217
95 32 40
54 73 146
179 12 250
134 85 221
189 97 85
54 19 149
60 24 89
126 210 202
144 225 58
229 53 48
37 125 94
128 5 217
20 82 74
17 150 143
0 129 11
85 225 234
181 147 173
172 198 119
98 123 224
166 34 246
211 225 92
124 62 114
20 172 4
137 202 240
218 249 243
122 211 99
118 134 159
61 151 237
242 232 103
183 216 31
244 68 201
110 235 68
206 37 107
14 30 71
163 0 104
131 30 155
191 56 169
100 226 249
225 194 197
60 193 124
29 125 178
106 221 156
155 27 227
186 194 237
44 81 39
231 100 217
17 203 56
54 120 50
24 165 23
40 233 145
52 29 211
236 129 27
157 231 25
24 87 200
249 212 59
157 13 164
248 161 5
7 234 113
193 240 89
144 105 174
79 186 105
192 41 10
169 156 215
254 246 165
5 89 19
91 155 219
236 6 211
239 212 92
74 181 200
117 68 126
42 122 40
189 236 98
206 100 24
71 34 198
168 5 205
234 51 177
99 107 199
50 40 80
126 111 140
126 180 108
124 167 83
194 236 85
174 79 245
3 221 136
83 86 9
73 151 238
163 24 107
95 253 161
40 194 37
119 44 127
145 208 40
184 0 213
215 240 4
172 86 93
175 225 136
120 213 218
200 203 211
230 208 130
215 33 16
56 16 190
230 28 78
118 114 80
239 18 231
50 36 238
45 225 229
103 34 173
175 117 207
219 212 134
243 208 253
208 29 27
169 37 191
110 189 129
9 131 134
236 224 112
173 225 57
111 126 195
67 169 155
167 155 107
92 118 123
248 128 39
145 194 129
158 250 68
152 107 32
89 77 109
73 181 157
164 62 220
26 52 211
209 4 86
162 191 196
71 80 97
208 107 176
128 201 50
164 31 122
132 109 79
238 177 236
64 218 41
4 243 252
137 2 68
181 57 92
139 12 34
158 34 69
58 198 23
218 122 11
180 96 109
171 84 187
104 217 2
172 55 85
239 145 40
59 79 98
219 70 250
83 190 88
8 25 133
32 60 45
39 62 110
175 26 153
77 39 87
100 35 65
232 3 130
226 139 182
119 31 158
223 170 224
108 177 147
105 17 15
29 97 251
149 233 48
86 248 145
202 85 36
125 166 172
223 80 162
63 106 242
101 180 47
45 31 141
37 247 185
118 104 214
186 79 171
120 139 191
18 236 223
78 114 31
83 70 68
242 38 228
146 173 146
37 188 137
155 152 110
31 111 161
6 252 30
13 94 31
83 199 46
159 71 196
111 75 30
75 138 119
101 178 175
198 231 204
20 184 136
150 16 165
213 84 198
151 25 51
207 152 121
51 156 222
133 202 254
247 195 168
20 94 126
239 7 147
139 91 198
169 186 40
78 218 27
162 11 160
216 215 229
209 84 156
176 208 67
11 70 207
101 154 196
29 50 251
31 153 6
212 232 60
46 252 178
69 81 245
56 7 175
159 203 235
161 115 191
146 202 63
179 176 134
53 2 155
99 198 68
21 70 143
147 72 253
92 11 28
112 137 184
47 150 198
110 61 0
118 164 52
13 184 114
47 144 222
185 185 29
86 136 245
155 185 226
152 238 32
230 75 80
111 250 110
39 156 127
206 114 189
62 57 29
91 248 143
79 83 89
69 12 195
62 95 188
208 247 232
227 184 29
243 48 141
238 144 160
5 118 221
96 50 112
26 178 33
124 78 114
160 214 5
128 188 252
168 66 169
247 236 233
165 69 107
52 27 138
211 101 118
141 92 149
145 159 194
43 147 120
152 143 168
41 177 239
1 162 94
43 108 138
201 45 127
189 57 97
163 73 236
252 251 193
239 192 109
184 147 6
85 173 208
158 35 202
248 114 231
78 190 86
19 93 154
127 110 166
153 161 138
165 129 145
53 86 241
118 44 41
95 229 153
156 14 251
27 187 250
69 89 100
61 139 112
159 236 87
50 229 253
68 3 164
173 242 86
208 112 172
135 99 238
146 169 15
27 231 111
128 76 73
210 14 3
242 37 135
193 77 28
37 11 123
150 74 126
147 164 123
43 192 13
221 254 122
95 141 118
7 81 160
118 5 229
181 106 153
43 76 144
33 147 80
153 92 34
159 249 11
125 101 26
239 30 20
62 44 46
233 82 98
74 39 119
158 55 13
130 114 77
171 193 53
145 153 179
227 213 51
148 146 79
222 229 222
113 5 210
90 24 53
148 228 50
164 190 227
128 7 144
209 170 229
53 13 165
117 29 110
182 23 186
138 156 0
106 149 16
50 82 94
54 71 216
224 185 44
50 71 144
92 137 113
185 191 188
83 113 29
72 191 29
95 74 245
125 33 59
252 215 35
74 51 53
59 237 136
226 85 43
219 70 137
155 237 63
130 29 214
43 141 222
252 183 167
23 249 29
224 30 103
249 225 57
248 211 113
84 118 133
59 118 219
24 78 36
201 88 121
17 136 156
9 187 50
132 12 232
100 59 35
138 7 253
125 21 244
232 11 196
165 74 253
84 34 14
173 184 234
116 118 70
127 165 19
240 203 217
47 121 161
169 12 175
241 60 9
69 13 217
240 168 245
177 194 250
178 199 241
31 152 88
77 223 116
55 245 195
156 223 181
119 196 209
6 238 38
98 26 164
206 37 76
31 45 14
174 19 48
116 38 210
129 27 214
114 70 215
63 43 219
148 74 7
6 45 191
92 1 115
76 5 104
217 142 122
243 6 111
184 227 90
154 133 56
167 239 136
117 33 190
211 164 71
154 63 191
76 44 195
198 68 61
41 175 29
232 192 85
21 178 125
59 210 99
152 47 190
121 33 169
67 11 158
242 29 87
170 240 80
0 160 31
127 143 73
154 38 211
173 66 10
46 230 197
202 89 36
194 243 88
172 44 254
123 160 44
16 54 73
187 115 53
166 148 33
235 146 198
194 138 173
143 133 24
237 58 194
151 116 46
175 243 18
105 171 47
33 147 235
242 140 231
0 12 56
23 251 250
162 115 81
11 228 244
128 172 127
113 81 253
8 148 172
185 43 117
178 133 29
86 81 199
219 223 211
4 242 121
182 235 144
132 199 153
170 143 69
44 124 230
32 177 146
121 250 27
70 5 18
37 69 1
180 249 146
178 99 229
160 243 74
113 225 129
172 188 8
222 242 89
185 60 107
27 124 72
253 138 37
114 92 246
126 6 223
76 128 147
181 185 196
162 132 194
147 150 30
191 187 73
123 251 0
181 131 101
224 77 238
131 126 59
57 39 225
189 111 137
231 216 229
78 20 3
134 153 22
20 75 49
56 20 165
223 141 61
207 129 14
58 216 1
123 2 96
40 185 224
211 127 0
126 36 54
120 248 199
180 77 236
249 229 164
238 140 84
146 96 72
162 9 164
27 3 58
139 34 173
136 14 209
0 114 161
178 199 16
77 144 88
143 58 128
243 91 103
31 173 179
77 122 193
9 5 105
16 76 195
96 50 130
199 129 96
96 135 105
28 171 169
254 72 44
182 202 181
233 243 160
194 11 92
8 154 248
185 204 175
57 181 145
113 16 116
208 122 220
20 51 146
208 31 4
82 96 194
219 75 148
107 39 240
164 3 38
46 249 4
31 110 249
21 62 110
76 94 128
170 235 85
143 203 57
32 231 194
97 227 69
151 80 139
156 149 2
224 30 64
221 136 145
221 125 184
135 108 138
53 37 212
12 119 145
175 82 3
66 236 214
190 177 194
72 116 65
21 152 54
76 215 172
81 166 17
163 151 157
245 204 9
39 220 171
207 97 102
189 5 129
167 92 162
91 55 219
41 168 216
80 229 163
194 161 77
56 34 196
209 71 88
77 81 67
45 43 211
184 96 80
69 103 78
3 124 147
34 27 20
54 73 134
251 40 16
45 202 112
45 170 41
221 35 246
233 139 179
100 158 231
206 148 198
10 62 206
98 189 122
80 128 40
217 141 163
242 148 241
129 79 210
145 131 82
45 107 15
98 97 33
238 82 39
199 112 83
218 54 139
211 244 114
31 12 249
41 173 177
103 199 137
41 56 45
105 36 142
0 100 3
172 161 40
110 164 219
142 127 138
167 82 96
12 177 132
195 165 18
143 166 229
186 97 165
5 162 138
235 37 59
111 120 14
151 208 200
68 245 207
161 56 0
57 4 2
112 168 134
85 117 225
165 48 10
232 64 102
141 56 82
17 218 155
36 132 42
20 127 73
238 72 32
209 23 226
243 86 196
231 96 137
245 225 24
41 40 103
72 13 249
231 22 184
207 54 59
16 116 192
197 184 84
110 179 75
177 23 120
210 122 4
47 71 166
111 124 122
190 133 226
46 234 179
136 196 60
242 197 56
6 73 100
221 105 159
234 154 14
66 235 129
142 31 165
20 17 17
99 15 38
80 134 130
85 217 18
34 252 231
33 5 97
69 53 197
34 152 165
185 218 243
65 178 53
67 201 125
179 238 114
24 241 184
126 196 37
187 43 130
26 142 126
133 253 112
39 195 167
254 28 168
61 95 122
119 82 220
119 17 125
85 97 9
98 149 236
56 55 95
226 90 214
70 96 75
198 39 190
237 89 88
215 232 75
221 49 40
3 186 221
101 85 182
254 26 240
31 196 159
94 238 91
99 166 208
35 106 154
238 19 157
71 18 179
129 19 106
145 223 149
147 254 143
18 165 172
71 199 115
203 196 223
56 75 153
51 212 112
126 76 108
206 113 55
121 101 252
148 165 90
126 10 125
177 43 130
93 95 209
199 148 32
242 244 46
251 64 214
92 74 35
163 108 50
75 163 195
240 234 66
82 226 165
153 118 32
217 231 184
32 61 130
102 48 123
204 100 77
90 37 214
6 251 91
92 16 81
184 8 47
93 133 216
144 189 174
222 202 62
244 186 139
208 193 50
192 180 10
23 47 50
223 150 203
45 161 208
78 237 88
191 206 233
57 70 224
113 229 250
3 127 212
7 211 26
0 166 104
243 65 34
42 213 1
80 151 97
154 127 233
79 25 204
209 44 174
72 100 175
147 114 239
74 36 229
62 231 236
85 21 153
252 9 86
20 180 159
59 198 220
67 241 231
67 113 142
67 41 180
63 171 61
208 139 77
116 197 164
207 235 50
131 131 60
112 100 132
218 131 220
13 115 155
137 236 84
85 173 81
96 3 168
93 30 9
166 188 73
55 115 168
20 24 201
150 239 163
21 253 137
93 113 235
92 170 231
89 253 131
172 124 128
205 110 127
163 110 98
208 156 110
44 143 177
194 79 188
253 16 191
159 8 116
73 27 13
56 87 106
166 235 94
240 170 87
239 144 114
58 181 195
218 68 99
228 195 85
78 226 64
198 205 73
210 114 4
89 106 174
184 163 103
97 231 92
242 129 161
212 94 134
235 85 102
182 67 75
253 212 89
247 6 254
61 160 155
101 149 104
208 156 126
201 14 29
195 113 95
85 11 82
243 85 36
74 19 102
136 171 199
41 81 241
144 16 32
143 197 65
199 141 15
53 48 104
26 55 191
101 109 253
74 212 240
138 80 106
170 23 133
178 61 161
239 72 150
250 31 66
233 218 55
146 230 207
105 204 195
177 251 117
13 203 141
107 71 239
55 128 232
50 157 208
46 238 192
248 65 97
113 42 212
237 212 69
16 231 215
9 116 111
239 95 162
50 28 232
31 175 115
92 0 197
204 185 156
38 35 132
174 135 103
123 135 151
228 119 182
154 193 242
198 182 100
228 4 201
202 229 209
92 244 81
149 1 157
227 65 65
201 238 112
87 98 49
181 218 0
126 120 43
123 165 143
180 120 205
0 205 134
59 237 231
253 56 64
58 51 142
134 157 62
64 14 223
89 134 73
30 148 179
104 130 113
127 83 246
29 99 213
159 82 9
55 45 37
108 143 232
193 183 13
251 91 7
128 209 85
126 93 171
97 117 15
42 34 33
74 242 24
245 57 192
63 51 34
230 84 76
4 171 146
164 168 2
209 209 181
133 118 220
66 50 251
164 229 79
35 241 99
254 130 88
81 91 247
224 90 182
76 188 144
65 132 92
223 58 37
182 144 113
109 43 125
195 76 167
219 199 153
156 63 212
75 222 59
185 55 251
63 160 30
164 33 17
134 43 111
16 44 78
102 54 1
183 71 215
17 103 212
9 65 141
53 23 179
102 135 204
205 180 225
140 49 111
18 162 159
162 68 86
19 53 1
20 138 145
140 71 89
210 167 46
105 119 204
71 209 76
57 167 159
126 9 71
191 15 50
35 104 21
5 66 217
139 159 114
250 16 108
209 138 90
160 244 245
208 195 77
14 243 199
3 38 143
175 129 90
116 73 99
15 156 8
108 212 117
242 90 209
74 189 24
221 116 251
66 94 212
13 243 168
195 32 186
235 98 132
206 97 24
142 215 82
20 215 211
170 29 33
120 167 158
7 162 223
25 110 156
44 127 203
234 177 38
35 204 146
183 105 167
142 118 176
26 11 27
53 215 88
174 69 33
164 173 5
89 112 72
31 174 128
21 219 70
15 137 36
96 205 146
245 105 105
142 78 102
159 23 20
191 44 217
108 200 136
93 169 141
197 2 40
198 141 26
202 125 250
225 233 59
102 57 242
83 209 227
126 30 142
48 26 52
202 212 25
137 36 214
152 239 103
204 26 87
26 89 216
106 131 37
178 73 55
183 96 12
251 126 74
70 105 209
164 194 44
86 64 161
223 134 169
23 51 49
118 120 3
225 123 77
9 77 44
155 51 93
240 152 236
105 46 8
211 172 193
92 156 156
205 114 179
157 105 253
216 62 181
229 183 4
92 202 66
89 252 228
219 60 138
103 129 53
154 47 10
52 182 85
186 104 158
130 175 145
26 1 93
133 64 251
57 214 217
231 57 77
58 125 75
43 71 201
229 116 244
45 86 33
121 105 249
125 5 251
244 155 174
101 27 155
247 63 160
53 5 146
203 45 241
98 172 70
245 113 157
191 150 24
155 112 54
54 36 36
70 43 59
56 81 208
60 27 175
214 25 187
162 24 171
134 164 177
192 109 25
121 1 177
204 38 206
96 203 186
210 42 157
3 74 169
220 76 195
160 44 13
97 206 46
45 93 102
196 175 92
66 104 220
58 108 87
183 247 117
206 221 119
223 184 26
131 115 225
198 133 79
170 80 76
17 83 232
61 94 59
197 102 45
77 123 198
16 236 75
55 248 134
104 212 153
185 41 214
224 37 147
42 76 217
180 67 240
243 197 118
135 226 125
92 88 229
155 122 198
180 134 187
119 238 8
2 48 181
14 203 253
32 232 46
64 218 240
190 153 165
164 12 123
141 9 78
51 133 227
251 187 205
176 202 63
53 206 108
1 55 76
250 28 126
223 227 216
198 222 207
125 178 72
211 88 252
58 96 240
178 225 70
157 199 185
190 229 63
49 211 107
187 136 21
80 160 119
110 73 40
125 153 212
24 215 118
193 236 11
74 9 40
133 166 33
40 176 4
67 37 137
75 84 55
139 90 242
155 147 71
70 126 240
82 150 135
95 243 220
5 22 217
182 83 162
194 126 231
74 155 242
47 147 57
164 142 197
35 162 56
120 58 137
187 127 71
131 102 77
155 213 104
28 109 120
215 114 15
111 116 96
155 212 223
114 92 74
154 199 215
63 241 82
106 208 198
20 85 156
78 245 148
90 169 254
250 18 11
17 214 180
46 111 46
142 233 43
193 179 43
199 119 238
122 174 201
220 123 190
113 41 139
17 216 30
82 200 136
10 248 0
184 18 106
24 142 135
180 165 80
214 129 31
147 154 53
0 36 244
41 175 162
50 34 56
53 87 220
37 53 172
222 33 168
79 113 32
14 107 219
177 188 44
84 76 84
111 59 155
147 98 18
63 3 5
197 108 204
64 57 99
47 7 48
190 235 55
2 238 20
43 174 127
20 48 204
112 241 93
216 62 9
241 109 232
195 181 96
17 147 24
203 119 61
238 19 133
31 154 75
146 151 249
49 164 53
99 136 82
187 28 15
132 203 244
230 203 166
153 16 108
212 160 109
122 52 249
98 4 174
204 115 60
167 208 153
153 213 202
26 91 147
161 146 113
242 66 28
168 131 202
165 171 46
161 105 38
2 3 171
49 95 164
147 191 100
107 213 61
251 111 136
153 112 46
203 107 106
179 33 232
70 167 166
91 17 100
128 91 167
169 178 226
70 253 56
23 4 74
130 207 4
93 76 64
91 192 86
189 243 38
125 149 109
209 77 114
194 184 228
30 56 81
109 87 207
57 225 94
79 50 117
119 158 37
84 34 116
31 131 148
164 250 171
95 11 48
134 197 94
113 192 151
221 33 6
174 185 185
135 213 35
169 53 62
78 91 3
188 108 210
87 4 227
153 153 24
201 235 115
17 80 100
175 17 82
4 219 108
23 230 16
100 241 253
125 143 106
153 45 170
10 41 11
2 240 105
44 182 97
243 107 244
91 235 64
252 103 41
1 120 206
45 89 18
191 190 62
189 33 250
157 48 166
178 138 105
90 88 57
212 35 250
245 243 148
231 247 237
128 132 59
161 28 122
52 11 38
192 26 127
239 34 146
177 51 196
118 119 6
89 12 52
241 245 81
245 101 58
206 27 151
76 6 150
12 196 102
160 82 155
232 235 43
50 189 58
174 247 164
80 44 225
99 181 68
31 110 69
141 202 47
225 182 250
16 235 4
129 40 72
134 171 55
3 123 84
196 119 178
170 155 120
90 234 242
224 39 118
116 146 156
129 123 193
127 208 59
26 56 173
167 26 23
145 67 35
218 53 66
59 230 252
152 92 240
114 97 224
56 59 59
112 121 207
133 222 166
81 31 254
53 73 132
83 109 48
128 148 155
5 68 250
138 212 13
73 163 249
74 132 171
118 82 215
221 39 151
254 115 66
133 88 216
86 84 212
7 48 24
127 95 248
76 207 238
91 156 239
124 7 187
189 72 239
247 161 86
125 235 17
67 176 108
203 213 94
159 163 117
127 227 240
158 73 80
249 124 124
159 233 215
164 57 36
105 182 164
142 71 78
51 163 132
106 6 226
52 107 228
104 221 75
243 218 37
51 187 218
171 233 35
48 230 94
57 242 253
157 129 194
227 25 17
107 188 2
59 135 77
142 147 240
120 138 11
146 147 118
234 118 139
27 230 33
174 70 40
9 10 58
106 195 183
95 30 190
132 80 36
12 80 217
145 172 147
115 162 81
91 216 49
247 62 69
97 254 6
242 227 104
165 102 114
127 31 40
102 26 135
111 16 37
192 102 183
50 144 130
100 52 198
162 210 45
249 232 56
239 155 253
63 185 248
65 95 66
77 126 233
157 134 63
130 233 243
207 210 184
100 247 177
61 113 32
12 8 8
69 74 127
240 132 130
69 198 43
168 194 198
238 155 14
212 97 176
214 150 52
36 158 152
89 156 81
73 162 10
159 73 95
39 155 215
168 231 124
224 76 253
22 230 15
228 209 219
190 133 77
165 56 97
227 201 236
108 58 146
125 109 43
173 129 147
149 251 144
30 113 46
13 191 183
89 243 34
245 23 129
31 145 244
5 50 172
41 191 157
37 230 138
78 11 60
57 136 164
216 227 73
89 42 29
132 136 33
57 160 41
151 25 81
75 43 67
52 68 126
33 95 164
48 38 54
63 143 213
49 99 190
81 253 18
100 110 148
75 19 251
167 192 1
56 161 7
194 37 248
149 31 166
21 44 174
176 161 111
212 237 111
208 83 139
75 152 128
54 237 166
91 223 110
51 139 214
75 181 10
92 4 50
250 39 86
23 118 16
132 228 80
217 87 77
15 71 44
144 53 111
194 166 244
11 158 30
132 48 187
43 165 162
81 206 147
191 111 160
111 43 196
12 213 183
177 34 63
189 150 64
77 87 118
186 52 41
91 64 202
194 22 32
138 50 74
196 251 79
94 235 85
238 186 121
209 103 249
119 131 46
239 19 168
240 37 54
188 231 182
125 83 209
176 176 4
75 82 16
95 252 215
253 55 205
181 224 65
15 98 91
82 215 20
24 59 2
28 81 9
122 58 94
165 100 23
221 49 176
189 210 122
172 67 63
248 185 119
157 54 24
205 66 114
3 208 130
139 21 91
165 230 151
224 14 223
70 134 11
4 42 85
209 158 141
60 126 84
46 55 172
216 174 213
129 2 247
234 39 180
119 25 179
120 121 154
92 48 133
242 3 196
5 87 116
176 15 17
108 81 165
28 175 97
195 71 211
241 4 152
3 229 61
62 95 51
221 75 62
93 118 128
238 140 142
115 200 170
100 70 158
83 33 199
237 31 142
160 214 133
248 4 180
100 185 106
110 224 138
76 202 61
175 139 97
75 29 207
0 153 135
20 142 13
38 200 208
243 5 25
141 87 46
206 126 132
9 236 14
31 67 104
189 60 13
35 205 67
134 131 237
30 179 228
25 5 61
167 228 214
231 23 221
83 249 136
199 51 9
203 76 96
83 224 119
92 44 135
141 139 165
29 13 110
104 89 128
24 114 93
93 208 181
184 19 58
189 185 154
110 91 193
157 105 137
103 252 176
113 177 92
14 92 158
120 82 233
195 105 118
214 215 143
2 52 205
90 160 215
94 167 203
230 186 89
212 56 38
243 98 4
74 89 138
13 122 242
169 66 44
94 35 126
122 246 154
236 90 72
112 176 229
192 239 86
216 57 17
55 57 169
172 78 177
139 19 159
155 96 99
186 205 75
244 3 25
174 98 45
24 208 100
48 48 91
25 22 241
95 221 96
174 13 96
128 248 217
143 0 94
73 6 102
25 2 154
0 254 123
51 133 114
79 16 68
23 21 19
88 143 77
209 146 140
179 96 13
230 144 58
156 148 90
42 22 176
184 17 151
234 193 122
203 10 3
85 222 228
171 68 148
238 234 215
48 202 84
40 43 118
224 34 106
2 229 253
101 235 8
173 109 141
138 60 152
180 140 238
245 216 129
162 5 2
131 44 31
83 201 192
85 212 94
168 97 96
223 65 46
87 237 151
169 13 6
13 73 121
243 104 130
165 30 57
166 237 70
226 203 136
22 76 203
102 2 133
251 219 97
75 17 50
203 201 248
5 132 24
126 149 162
163 3 241
171 40 188
12 71 222
36 61 92
126 18 193
167 195 185
151 40 3
242 238 101
22 14 128
124 155 30
121 231 212
247 216 249
161 203 233
253 218 25
58 100 32
237 48 16
66 31 166
147 231 123
55 230 158
154 5 7
105 209 201
117 133 231
106 124 108
32 201 196
229 164 59
153 13 107
48 224 178
52 147 41
10 150 99
219 219 90
6 99 232
5 94 98
17 220 168
72 229 71
160 219 223
190 111 140
53 90 116
32 30 131
216 145 14
244 7 54
153 135 238
241 19 233
69 40 40
99 138 25
252 18 151
230 1 103
123 240 156
202 228 60
92 157 106
27 47 10
225 202 118
99 156 185
118 118 60
37 209 14
124 206 51
23 13 235
208 160 247
158 220 24
26 131 30
149 44 180
57 15 237
211 104 51
225 100 54
225 187 156
228 113 219
106 160 178
146 88 46
240 239 145
161 218 99
172 102 3
245 244 141
127 85 110
53 191 5
191 8 171
104 180 143
167 252 148
113 127 108
248 73 99
228 234 43
242 68 205
11 130 150
19 34 27
248 155 249
84 191 190
53 19 161
119 208 207
165 150 100
99 149 4
43 7 72
235 204 3
113 101 54
178 79 237
127 102 106
65 165 66
64 244 158
29 118 83
126 137 145
224 203 128
59 143 42
237 5 253
239 242 214
83 231 183
210 4 195
169 242 168
252 223 167
158 179 148
43 27 192
122 111 6
17 196 189
23 118 174
245 173 17
236 145 90
115 184 76
124 159 113
142 0 23
131 140 151
124 6 185
6 22 78
99 187 45
92 52 248
144 227 106
41 191 224
245 165 125
224 87 159
88 140 234
214 222 10
122 227 146
66 205 44
204 48 131
94 49 184
230 122 206
173 39 198
33 2 138
191 3 98
7 217 199
17 108 163
149 85 108
39 163 94
72 14 139
212 90 108
63 145 212
193 91 171
228 124 107
198 135 25
209 110 94
60 90 85
169 192 78
73 87 45
243 51 60
140 202 110
104 136 142
97 173 218
178 8 205
229 110 235
93 7 12
61 214 123
145 118 112
105 240 207
31 99 215
222 243 111
214 184 158
121 107 100
216 180 39
233 131 68
7 238 46
192 41 138
94 240 3
85 61 193
185 210 159
219 58 193
107 223 208
113 230 170
52 158 110
36 222 131
25 123 43
147 80 227
116 23 211
153 216 148
198 204 55
69 165 74
26 129 83
109 172 90
25 170 220
213 60 221
211 5 151
146 225 224
206 240 140
164 142 149
206 29 241
117 78 155
242 12 8
135 16 10
52 182 7
45 108 18
196 254 83
37 122 181
73 34 103
74 99 124
215 170 181
154 92 7
54 78 63
29 172 128
185 139 4
211 113 135
252 164 60
7 254 160
49 53 144
102 14 58
191 104 234
193 244 253
211 181 123
88 177 160
64 92 157
44 140 124
144 53 192
157 14 89
205 51 32
4 252 1
102 109 61
58 121 230
132 122 221
21 252 61
234 90 145
83 187 12
147 4 143
86 247 212
212 60 135
161 160 59
101 8 78
114 74 68
40 75 114
9 175 159
110 0 252
53 4 218
72 44 175
190 13 44
250 98 100
93 203 178
124 149 181
88 83 63
42 94 17
196 222 101
54 177 89
168 108 191
140 179 44
116 79 134
28 31 54
164 66 73
10 48 118
244 112 17
181 43 242
227 192 203
254 143 16
13 151 197
179 170 181
220 132 45
51 186 68
56 167 192
38 117 139
232 190 218
40 147 238
243 15 182
55 251 30
77 146 88
89 229 192
78 158 27
33 133 112
187 0 40
98 153 127
57 230 174
1 240 134
9 40 185
63 182 107
24 23 36
67 27 161
32 246 33
120 248 134
16 238 110
189 192 15
217 238 206
139 89 88
129 70 218
192 127 147
78 68 4
93 98 95
67 202 10
170 68 10
195 237 194
235 189 98
121 103 240
74 85 59
195 210 126
56 57 74
47 244 232
33 199 116
150 211 34
253 195 38
246 173 11
67 249 119
23 67 109
187 144 27
82 11 75
246 121 64
24 139 147
28 244 208
146 118 150
71 110 189
234 168 161
208 37 167
113 119 107
171 91 238
46 158 171
229 211 59
172 215 172
127 94 26
230 153 179
16 120 16
191 218 165
226 76 119
170 110 205
36 48 218
37 119 4
197 45 135
67 13 242
138 114 83
36 80 55
180 160 4
154 56 149
125 28 123
164 182 121
33 19 10
97 132 83
226 18 183
6 3 132
75 202 120
41 235 221
245 223 206
241 165 28
129 79 163
251 139 253
184 177 124
173 10 121
78 15 78
23 204 202
190 6 74
90 213 212
221 229 22
224 136 228
95 96 222
178 27 116
162 205 60
185 111 235
217 125 85
168 237 29
147 240 243
186 82 232
235 59 116
125 15 62
246 218 174
16 118 106
137 187 66
173 146 58
160 127 1
239 165 146
9 107 204
84 48 26
31 225 150
104 173 73
20 128 35
214 164 25
37 130 100
136 96 219
36 32 230
125 92 219
196 100 250
144 109 53
212 29 224
85 196 170
60 82 170
50 11 131
102 40 122
109 248 153
230 185 105
155 80 226
30 206 169
87 50 223
159 55 25
195 186 246
251 22 8
131 47 99
31 172 44
53 185 127
229 174 179
205 240 164
156 13 200
91 190 75
50 111 65
223 133 143
70 31 212
2 169 47
79 40 67
196 196 245
90 242 160
12 152 66
93 240 191
62 55 149
225 68 148
24 99 29
247 136 142
202 250 8
239 135 15
23 210 222
17 102 135
228 111 249
92 99 101
128 98 156
21 24 103
230 128 121
75 60 161
183 20 151
174 9 222
166 68 203
152 181 134
199 160 214
238 70 184
36 209 19
225 178 227
0 150 0
184 116 243
241 138 45
202 201 68
38 171 135
25 230 214
37 46 158
186 173 142
65 219 154
130 173 78
112 119 111
169 125 15
48 8 85
138 122 26
75 163 200
65 140 14
140 194 45
164 177 155
51 146 63
230 1 232
26 236 165
249 139 79
241 106 149
236 225 207
55 223 165
201 154 62
248 116 98
132 116 28
13 191 22
145 25 240
52 139 101
180 10 102
126 43 149
71 84 180
117 92 253
232 11 71
139 244 244
243 22 57
67 90 131
214 101 121
172 4 55
132 96 83
57 14 118
85 194 179
94 43 213
6 108 251
204 64 205
235 13 6
213 241 134
54 166 67
151 135 88
29 175 2
160 169 174
24 163 87
247 84 104
76 41 246
166 207 228
107 89 220
50 123 213
180 78 32
78 158 7
81 129 47
229 71 254
74 207 249
187 49 88
223 110 75
250 43 209
18 238 23
233 56 183
117 205 121
208 24 152
177 239 189
145 159 74
41 152 0
96 129 250
85 170 32
172 12 186
245 153 224
42 162 125
159 214 107
121 174 229
50 100 253
115 136 244
201 109 146
78 198 13
208 155 42
217 245 39
41 188 125
45 80 121
2 215 105
44 40 25
179 11 152
86 54 24
194 155 122
5 2 70
205 99 218
225 139 244
212 162 238
182 186 189
106 230 61
127 159 55
202 238 221
224 9 214
67 71 78
123 115 235
9 105 123
212 105 18
200 47 195
170 96 196
123 2 41
30 114 192
129 221 69
195 118 172
212 17 190
76 100 12
107 158 207
100 102 57
25 117 164
95 93 139
50 102 97
53 125 109
207 41 2
230 94 98
186 215 223
245 248 218
16 74 140
64 14 39
93 74 218
218 86 127
81 216 205
0 98 23
74 74 28
13 70 254
49 27 219
109 38 57
118 8 50
183 116 22
147 106 95
166 115 20
135 47 227
232 81 214
201 104 233
204 172 3
42 56 46
65 253 159
177 211 235
204 124 215
54 10 194
35 160 208
250 245 89
50 106 212
14 152 50
240 38 174
110 230 60
132 148 172
59 195 38
2 200 6
247 178 86
42 145 18
138 174 223
90 221 109
81 251 9
82 16 122
191 209 227
88 61 62
253 57 32
209 183 66
169 245 2
214 79 169
137 54 185
138 224 30
27 237 23
254 252 121
168 212 235
57 158 184
165 161 212
70 45 103
176 89 226
194 198 84
15 219 202
84 253 147
20 164 141
97 208 69
86 228 148
210 208 14
201 48 32
204 86 182
216 69 108
80 124 115
204 190 248
61 133 119
220 220 224
209 163 153
36 247 182
207 66 73
139 26 158
169 9 71
150 116 11
79 93 115
49 246 235
48 97 105
1 235 141
90 6 17
192 16 205
6 116 88
116 147 44
79 111 212
244 247 251
231 160 143
9 209 113
159 205 69
146 36 151
66 125 231
146 79 187
94 27 34
23 4 191
146 54 191
158 164 41
43 193 4
107 51 9
64 223 160
116 28 75
81 182 208
205 69 108
125 222 194
111 65 95
57 141 37
34 165 39
207 161 145
245 185 174
10 10 214
84 20 50
220 189 252
98 175 208
18 76 18
234 161 68
30 187 195
157 53 219
218 19 81
12 63 123
3 39 10
204 113 91
248 175 46
142 84 47
60 145 214
62 6 144
128 35 54
211 82 0
170 67 96
131 232 201
45 138 217
125 202 40
48 178 175
232 61 88
168 72 151
203 125 35
215 121 11
172 77 0
249 154 246
44 217 172
26 242 55
44 190 213
138 131 119
206 251 44
58 42 239
235 167 110
83 49 8
62 143 146
103 205 175
40 138 223
141 87 43
209 31 63
180 195 41
221 239 215
10 30 218
133 196 107
149 160 12
111 157 111
129 28 207
0 80 54
220 151 233
95 40 100
7 119 67
80 45 71
132 168 229
55 86 96
228 47 204
184 62 59
160 143 248
38 149 11
155 164 233
135 253 179
222 93 247
218 247 249
61 228 230
207 1 194
106 164 178
174 127 196
226 197 160
149 46 31
9 25 179
171 173 79
126 90 227
36 96 197
95 175 39
113 137 18
176 96 87
175 178 122
164 132 217
147 174 236
1 10 65
133 160 84
44 138 65
107 14 209
14 228 144
216 93 184
165 230 46
3 225 84
15 52 241
108 100 124
95 116 118
253 24 228
206 251 236
194 67 19
119 181 183
187 160 75
241 156 55
121 151 116
83 216 22
18 231 37
169 46 205
126 50 39
172 251 140
85 249 248
36 145 1
83 242 160
171 214 160
19 126 170
237 206 246
246 58 93
197 139 179
169 150 211
129 196 223
66 12 101
97 34 41
58 76 95
63 64 209
60 195 163
0 12 22
130 158 219
145 118 16
175 240 195
91 173 209
168 216 231
103 133 181
164 56 118
64 196 250
23 55 174
94 109 3
101 90 83
30 43 84
77 145 87
180 37 66
187 55 60
129 204 152
100 142 93
95 66 138
35 107 248
130 216 148
160 20 51
104 88 78
249 98 233
87 120 179
201 244 161
104 248 135
135 254 3
6 156 203
46 24 76
183 13 96
214 47 3
131 164 207
126 12 209
59 102 49
193 9 4
161 117 191
238 220 224
93 56 186
38 211 94
155 70 237
205 254 59
27 109 101
29 136 5
56 178 135
111 181 20
180 118 120
66 60 193
184 213 220
44 207 49
237 10 14
203 253 9
147 137 231
205 17 179
105 127 183
140 16 201
188 129 22
28 176 7
128 39 148
25 135 95
234 107 55
127 42 76
60 99 213
186 204 164
36 53 177
212 114 197
65 73 100
85 118 64
130 183 84
236 174 16
78 160 183
115 238 29
110 233 96
209 127 60
34 8 126
32 129 67
85 57 47
217 141 11
253 131 172
186 161 239
137 211 2
23 100 93
248 88 29
123 136 32
81 111 228
160 67 40
223 89 208
180 15 121
93 209 188
220 111 235
120 37 233
178 219 188
163 50 220
184 64 137
178 109 143
41 180 44
91 53 53
249 217 121
186 57 189
16 164 146
146 153 138
19 219 45
246 221 172
108 71 218
33 213 196
170 129 51
214 122 114
98 77 221
104 189 175
66 90 220
12 66 221
6 47 84
45 248 83
31 57 126
135 110 78
207 135 33
241 199 180
115 121 127
220 144 122
172 16 75
164 134 172
93 32 232
98 26 111
127 210 115
136 201 145
58 155 32
38 233 50
27 92 14
163 15 246
240 143 99
34 37 211
12 165 39
170 237 65
165 119 95
61 38 220
40 125 147
32 32 49
243 20 209
251 89 233
74 22 53
172 116 80
49 93 162
121 186 210
51 144 207
226 232 191
212 125 228
135 230 183
222 158 3
240 3 107
117 8 155
23 226 91
100 38 229
130 177 141
130 242 203
180 3 12
34 104 113
52 191 142
182 129 31
197 44 36
188 160 23
253 36 60
86 166 47
215 204 193
215 173 192
231 191 187
63 152 69
169 64 208
237 152 22
95 214 225
92 12 129
59 9 17
52 41 64
160 194 58
133 223 227
7 10 20
137 81 23
235 61 93
93 36 22
202 44 249
176 149 80
141 195 250
167 199 214
104 35 220
0 72 65
231 219 172
198 219 23
202 49 49
175 188 180
7 212 115
182 186 138
227 156 143
237 67 101
111 69 103
88 116 61
30 198 166
245 22 51
170 76 158
74 214 110
104 9 83
186 128 6
82 248 181
166 125 220
159 70 151
239 120 9
4 195 0
112 44 161
155 224 109
1 230 176
14 133 225
111 230 202
135 124 52
192 87 42
200 98 60
227 21 249
206 55 44
210 82 171
206 252 251
180 149 128
226 72 79
176 19 209
37 253 62
149 149 93
120 180 99
66 232 106
254 59 133
54 146 156
30 124 166
221 91 103
152 135 245
135 209 99
70 111 116
191 131 218
114 124 174
170 196 181
27 30 50
191 25 173
94 198 147
119 145 76
63 6 112
202 38 123
21 65 171
215 191 112
85 237 11
1 113 193
233 234 235
81 79 197
235 152 187
106 3 71
175 132 144
240 154 112
158 65 92
164 85 241
245 99 88
130 225 1
157 5 82
128 24 110
185 65 193
72 94 23
226 43 231
246 159 219
152 20 174
141 172 154
59 247 9
98 83 97
61 72 115
83 128 141
1 242 152
217 70 95
119 205 204
115 98 73
30 81 240
197 73 39
207 101 56
245 238 166
179 230 169
84 151 94
252 155 170
112 90 235
5 86 66
133 254 9
140 84 162
45 44 134
132 105 211
122 14 80
36 99 8
2 244 88
19 47 210
166 63 139
46 7 112
120 249 39
218 227 22
162 166 160
217 79 29
194 139 130
220 58 166
185 5 56
179 185 208
158 146 31
10 252 9
108 221 229
222 17 102
147 245 245
10 176 136
9 111 183
141 92 45
63 120 195
2 161 60
147 162 92
206 106 253
19 32 22
6 145 55
149 76 185
101 194 14
180 207 20
128 96 51
152 108 188
160 12 123
234 169 181
186 234 32
98 173 174
242 46 134
196 202 122
89 141 97
50 217 219
201 68 245
100 27 124
231 227 42
147 18 211
90 160 180
160 33 83
211 197 64
148 224 26
229 249 129
215 42 158
120 36 19
94 155 7
166 3 210
186 35 206
135 48 116
12 11 169
243 253 203
224 140 93
250 129 90
193 215 248
196 154 86
99 205 31
222 26 252
88 197 28
159 164 69
232 218 225
29 3 184
25 24 156
159 207 29
62 250 244
152 97 123
234 71 195
160 54 212
4 7 94
187 52 52
113 215 249
188 65 177
128 25 74
93 171 132
231 246 233
34 168 159
151 218 134
128 65 178
195 51 65
116 43 20
133 123 6
236 116 134
252 239 73
192 51 98
83 142 210
150 110 43
229 112 182
52 27 158
171 51 97
84 96 182
134 18 229
23 37 218
251 235 26
100 87 222
224 23 234
78 246 244
140 247 45
48 235 155
8 157 168
211 25 56
5 4 240
92 126 38
135 24 72
228 211 127
248 167 90
138 225 31
234 231 215
108 238 41
123 236 99
225 49 74
234 1 230
85 25 1
77 82 217
191 39 172
26 149 83
210 24 114
57 154 248
48 56 113
144 201 57
194 116 48
145 207 200
245 207 107
229 236 38
68 59 20
246 65 141
222 90 27
8 39 132
34 162 235
105 242 237
162 144 126
56 52 233
162 153 2
160 198 240
115 44 170
63 119 173
229 6 247
90 191 136
165 238 89
27 163 122
227 84 105
0 198 222
123 49 131
184 179 203
172 134 77
217 184 110
241 210 163
141 97 241
6 242 16
180 169 199
63 208 53
132 249 25
4 205 247
173 57 245
189 216 41
42 21 124
165 197 175
2 194 98
128 19 53
12 41 40
189 198 12
162 99 181
208 131 226
157 2 253
13 147 247
99 136 16
75 56 43
52 128 108
85 118 155
6 24 147
218 172 134
229 186 250
232 18 145
247 84 25
82 18 203
72 93 25
222 162 209
0 8 158
88 87 172
114 97 100
127 57 51
62 55 42
98 188 70
183 127 197
14 66 8
173 199 64
139 64 129
125 113 31
0 219 206
25 223 174
223 29 190
34 224 103
73 201 251
153 1 56
133 206 10
77 37 108
86 153 70
45 10 116
211 51 215
184 32 30
202 58 13
243 172 104
185 75 248
49 227 25
34 25 177
137 5 163
16 184 82
230 244 204
215 140 10
173 92 244
172 104 13
216 64 126
37 24 56
30 69 126
221 151 180
85 54 254
126 95 147
211 151 49
161 29 11
125 134 211
90 69 246
11 136 0
183 39 8
50 119 42
241 135 12
196 74 91
105 80 189
84 222 210
137 113 122
51 12 182
161 65 37
208 41 46
101 90 146
46 185 172
183 75 136
209 249 37
248 139 195
172 202 4
2 31 141
23 84 180
131 89 22
225 147 51
12 14 14
197 84 165
33 111 223
243 85 154
20 142 214
61 100 92
243 168 244
115 139 134
165 222 96
59 131 120
1 126 146
123 50 213
230 116 42
215 247 169
230 206 45
175 2 186
140 57 72
174 19 99
114 21 8
126 85 228
236 153 74
53 205 217
197 209 150
85 195 54
45 132 19
148 248 133
154 64 162
48 30 53
152 81 179
14 58 247
214 148 185
49 211 206
120 35 253
50 19 87
98 209 207
51 241 67
146 228 69
129 176 197
143 19 169
246 197 176
161 67 160
186 54 250
3 57 109
225 86 166
113 92 252
225 212 117
221 227 244
118 172 164
226 142 120
79 202 224
33 49 194
106 47 254
144 11 67
210 170 55
15 17 41
28 144 20
85 34 247
184 132 52
121 193 141
181 249 38
104 240 68
53 202 14
198 57 220
196 130 112
214 215 171
136 152 160
28 9 142
33 37 179
132 239 223
105 37 248
122 137 80
217 48 216
6 96 107
247 146 225
52 216 184
11 113 88
125 201 34
213 224 112
13 253 30
203 19 155
68 170 33
28 179 39
234 42 232
41 232 123
140 114 79
74 60 46
109 125 253
73 44 131
81 161 155
113 224 192
75 207 40
50 221 184
170 51 126
171 137 194
76 59 12
214 77 115
113 175 109
44 161 165
68 143 10
216 1 30
188 153 198
110 51 8
222 105 47
47 247 85
36 158 105
94 177 68
173 248 139
149 133 72
213 186 250
106 85 208
177 72 7
246 69 215
234 187 154
240 31 33
104 19 22
189 211 68
135 197 114
241 99 119
13 238 233
55 99 121
38 85 101
102 249 75
138 219 122
238 75 66
61 97 102
66 98 56
103 125 245
56 35 234
117 2 157
110 147 29
22 149 17
73 152 36
177 223 223
193 173 216
109 135 175
27 12 54
177 58 194
207 207 78
200 99 95
117 23 71
105 68 46
12 78 160
139 224 176
207 147 194
247 66 64
154 1 208
245 55 204
2 70 52
69 12 116
208 102 37
158 177 233
86 75 29
60 100 194
177 219 11
242 141 237
11 203 143
31 87 198
254 36 98
26 89 112
204 54 153
115 249 151
24 243 82
16 127 90
52 5 92
125 85 86
68 203 36
87 167 94
213 163 188
74 68 167
161 75 63
167 154 144
240 49 25
204 140 166
90 204 190
96 92 65
71 146 251
236 148 240
93 242 75
54 20 245
161 28 31
181 225 96
36 238 153
215 134 28
168 183 75
222 74 35
99 185 74
8 191 212
246 105 92
119 7 43
27 128 10
233 158 114
141 1 249
97 152 190
230 237 164
245 100 124
176 98 210
93 32 21
13 41 247
212 5 235
173 53 94
235 33 72
28 169 107
171 83 97
37 94 118
52 205 19
168 181 94
245 194 3
92 158 86
178 92 15
109 49 57
138 91 216
29 49 74
229 247 7
221 137 14
113 160 67
70 70 147
64 84 122
254 106 102
14 1 224
247 51 92
142 245 227
6 15 75
225 13 151
6 189 56
26 48 118
139 209 6
76 16 244
169 208 7
178 250 207
104 69 54
34 206 46
132 127 196
248 9 93
254 145 59
254 118 118
130 176 138
252 215 101
0 80 133
27 14 227
167 84 215
21 22 130
245 157 216
30 243 39
74 104 236
11 145 124
160 167 12
41 42 197
217 211 184
115 38 66
124 101 209
16 21 170
167 187 181
80 188 6
223 201 150
15 217 159
86 108 52
216 232 167
40 16 127
95 2 36
219 243 236
6 49 251
210 131 148
125 38 29
204 129 78
57 136 31
121 207 43
138 159 217
201 63 118
37 142 213
27 201 142
157 174 245
209 148 188
193 147 181
148 61 249
93 245 239
208 169 54
252 135 22
72 31 243
191 189 175
34 3 51
113 180 245
70 201 19
91 240 171
117 28 2
79 9 106
0 14 176
132 46 112
178 80 5
65 62 193
86 66 169
190 112 205
93 243 233
125 40 211
128 170 27
41 161 86
145 1 13
212 1 76
177 211 76
1 34 249
148 32 79
206 231 221
106 177 41
83 134 110
26 6 242
77 251 26
93 183 129
247 176 172
45 92 198
56 68 113
95 42 121
250 108 48
242 60 47
151 203 149
187 91 195
128 192 197
160 110 81
63 26 47
111 31 51
89 40 15
226 113 113
213 127 52
162 160 181
186 191 154
145 253 219
107 212 83
89 231 169
237 204 153
111 133 198
92 167 166
193 50 191
84 128 38
206 115 29
194 239 188
145 253 86
148 238 39
208 18 29
48 71 32
85 218 106
227 37 54
176 113 180
91 201 110
39 228 164
163 186 153
51 168 13
164 11 38
48 252 145
214 99 58
192 210 36
121 72 177
108 164 10
165 216 170
194 156 119
4 80 116
141 141 102
235 142 152
180 193 16
190 64 62
118 201 112
150 36 205
24 93 244
64 3 117
180 35 64
60 243 21
54 88 219
234 68 244
232 134 237
188 49 159
222 103 146
67 195 64
246 25 64
88 9 75
254 88 9
44 44 175
21 209 80
7 32 226
220 183 95
190 98 46
107 59 63
119 235 50
62 234 113
122 248 25
232 38 244
136 196 17
67 95 199
22 168 251
10 9 17
172 171 182
212 242 202
141 137 24
166 67 244
114 155 123
207 24 70
89 240 130
15 129 152
180 106 224
96 117 250
86 25 78
250 7 153
170 14 248
59 245 222
200 19 246
49 4 163
211 199 142
145 10 64
144 145 30
82 214 44
119 138 166
127 155 110
236 154 187
168 194 34
64 160 183
214 222 164
100 44 77
137 22 10
37 229 54
231 15 70
62 211 72
129 186 35
154 154 200
84 202 67
19 227 45
110 171 17
210 152 78
111 11 154
224 34 28
67 77 169
253 131 133
52 115 223
56 182 81
137 32 89
197 56 248
245 243 191
225 170 193
102 88 203
150 125 134
180 127 76
150 183 228
185 186 60
72 216 37
191 203 181
155 205 93
151 228 38
82 123 188
27 89 153
251 113 124
168 194 176
32 43 51
201 66 141
147 113 217
80 110 26
153 19 9
234 132 36
172 18 137
3 192 242
145 244 152
100 79 9
116 26 21
60 172 230
154 149 229
235 0 226
230 244 78
134 87 126
116 214 10
176 92 167
24 83 35
234 112 0
164 124 29
9 55 146
108 238 114
222 46 88
84 223 63
210 2 102
29 105 41
217 25 198
20 46 145
242 139 38
41 237 148
85 229 166
165 242 195
146 86 104
13 245 54
198 147 138
208 2 18
34 225 142
92 113 253
208 158 27
9 1 78
176 64 92
23 178 193
87 100 216
83 167 198
25 75 208
221 197 88
154 148 176
35 134 184
160 234 189
213 44 37
140 77 29
198 202 34
130 178 236
230 153 124
4 65 170
246 104 126
133 190 99
164 177 54
10 248 24
174 152 111
150 165 141
121 219 77
80 152 122
97 148 198
132 232 89
137 39 231
169 59 154
169 134 229
216 37 147
72 110 162
244 75 224
153 252 9
104 127 17
48 24 125
101 226 154
179 247 208
30 11 105
187 44 197
33 163 105
194 212 57
145 162 94
233 38 208
134 149 22
9 162 70
233 120 40
254 177 249
163 105 180
147 45 140
180 66 68
201 60 32
48 193 63
16 82 241
19 96 139
157 7 30
16 88 19
8 89 193
243 223 148
202 34 121
176 157 132
83 244 232
192 152 60
58 140 207
67 173 108
163 32 5
181 240 217
10 75 38
171 55 93
11 246 146
179 120 97
68 188 175
171 54 119
197 198 224
96 201 150
136 6 181
13 145 109
189 112 33
220 19 132
206 193 166
105 0 200
14 97 183
86 148 85
138 116 136
77 85 118
234 166 24
203 247 78
235 81 66
61 137 167
205 125 91
198 224 3
118 86 253
8 21 153
192 211 98
98 6 131
32 223 163
193 143 59
16 21 164
83 63 27
209 31 159
100 148 101
236 72 253
100 208 223
221 37 119
123 95 125
165 82 40
254 105 169
74 229 102
197 45 63
122 88 173
202 144 57
22 235 2
56 194 142
79 39 116
110 1 150
71 24 19
83 187 140
51 21 69
116 42 120
91 175 188
183 114 197
238 51 96
250 89 192
148 6 11
207 161 185
40 224 128
22 191 216
12 20 127
172 162 158
201 121 234
21 212 239
155 62 205
187 84 137
178 199 103
16 85 2
147 36 189
139 25 242
94 226 174
244 205 143
168 52 251
74 249 54
21 173 200
249 3 239
187 225 207
162 210 130
197 23 88
154 148 59
67 185 231
44 29 226
163 206 193
23 58 31
138 42 81
15 187 77
40 160 191
159 120 160
19 74 183
157 229 222
5 138 209
13 25 30
52 229 137
113 249 189
64 224 3
95 100 38
93 37 156
211 114 55
245 254 8
233 75 216
147 11 105
5 63 161
240 217 53
218 11 113
132 177 144
43 174 148
43 251 181
1 128 194
68 236 24
115 54 115
225 62 31
8 36 171
39 65 51
176 198 112
58 188 182
146 112 206
58 223 136
10 245 114
60 92 15
90 49 37
68 15 163
248 40 20
21 243 76
199 105 44
240 41 170
52 12 145
103 207 184
41 224 191
112 162 120
193 141 237
151 48 254
122 123 231
178 194 166
199 18 40
223 8 34
95 245 47
32 244 67
104 33 47
30 1 27
77 163 198
94 232 38
165 213 5
25 29 39
250 68 4
129 230 37
50 44 188
183 247 182
151 23 131
78 0 47
34 18 63
240 246 133
225 59 136
93 18 110
94 210 246
92 119 71
157 15 79
66 194 145
202 53 102
180 193 124
2 4 114
20 220 85
14 106 66
186 208 203
156 179 39
229 69 99
105 53 121
52 181 128
195 40 91
36 229 184
121 208 110
146 45 131
158 139 0
88 198 137
107 127 46
100 38 243
74 81 146
191 186 114
114 225 232
35 206 51
170 252 49
79 208 86
7 103 14
17 238 254
2 147 182
246 104 62
189 118 59
33 159 0
57 232 67
74 173 48
192 179 223
165 165 100
11 201 166
234 204 41
56 240 90
199 9 213
127 197 132
201 35 209
176 179 219
123 158 252
223 254 61
155 67 149
72 221 208
241 40 220
139 88 102
38 137 151
40 228 60
192 195 45
223 232 93
57 160 83
168 163 165
69 198 132
166 246 61
108 43 82
24 176 146
106 188 122
156 121 209
143 249 60
124 197 39
236 171 23
25 91 191
204 246 58
83 172 241
182 220 168
119 116 251
251 188 108
175 45 244
105 53 101
168 5 94
156 252 105
154 118 105
196 240 105
156 156 78
117 30 134
51 12 102
230 74 122
250 49 232
224 200 229
246 27 77
48 82 156
62 238 26
164 77 130
130 206 185
170 20 101
185 218 2
117 124 187
237 139 78
79 198 30
35 112 173
135 0 21
113 150 151
144 143 144
143 78 105
54 192 43
120 38 230
109 61 166
18 135 196
176 207 159
217 206 96
17 231 167
109 204 138
192 13 101
212 81 18
35 82 188
248 102 191
133 220 186
14 70 84
228 162 146
169 193 104
195 178 208
162 155 213
183 33 177
243 9 54
30 75 193
28 100 126
167 36 118
227 132 207
222 68 239
79 249 28
22 235 47
160 191 84
38 140 249
106 101 249
28 116 85
194 46 219
146 193 65
211 140 220
80 19 223
182 203 4
215 248 68
17 42 2
240 227 47
122 120 208
189 27 194
69 245 151
176 215 17
6 134 241
132 56 229
156 25 84
157 114 190
41 182 58
174 6 121
172 195 156
224 115 254
171 162 81
39 121 85
12 139 225
208 19 57
124 83 229
194 25 15
59 227 39
153 251 29
46 244 1
146 2 159
165 80 82
232 180 176
174 107 39
21 68 124
193 175 196
106 154 247
215 78 118
36 2 96
161 183 208
1 162 240
80 106 236
63 9 196
2 127 144
9 141 35
105 106 252
11 189 62
27 180 51
12 47 125
93 65 40
38 150 65
202 213 189
55 132 187
158 233 189
164 139 4
87 141 103
127 181 151
171 170 124
221 164 253
100 19 239
182 63 244
126 220 36
219 25 192
90 26 183
143 96 84
33 122 78
147 165 163
81 193 99
201 7 183
121 95 9
171 134 253
78 18 89
125 208 197
192 8 17
19 200 114
216 104 231
203 115 213
94 195 43
155 207 0
55 110 81
107 4 50
126 26 110
81 77 209
228 245 169
77 126 194
29 209 133
93 7 28
249 88 163
209 17 218
111 239 62
15 162 102
175 181 76
207 108 234
84 13 101
243 92 154
174 169 212
240 61 84
61 82 200
7 215 191
68 90 83
131 127 141
180 147 220
232 119 43
75 122 60
229 81 108
243 184 95
44 96 151
71 145 218
30 251 46
51 9 124
23 163 104
147 63 37
189 204 163
153 249 63
252 165 22
23 174 162
184 131 147
137 17 99
127 70 107
226 254 65
168 225 179
25 16 72
94 100 178
56 95 100
204 177 88
135 92 28
174 43 236
64 138 104
46 64 41
247 113 2
15 97 159
19 118 130
46 28 10
182 68 199
59 25 122
193 83 171
125 54 132
102 235 113
35 109 192
131 191 126
39 143 87
200 114 34
199 66 189
198 68 182
71 29 250
143 30 191
152 175 188
51 108 192
145 38 80
90 162 198
26 121 72
246 181 125
43 22 54
79 249 45
242 206 150
74 132 179
149 176 184
133 104 211
198 57 125
158 235 70
46 150 175
157 213 88
107 220 84
103 115 177
101 110 97
65 14 212
100 5 2
207 166 113
76 74 149
102 145 83
177 156 194
243 28 55
20 135 30
149 0 132
214 11 196
217 189 35
17 58 72
149 75 137
56 16 187
63 3 238
118 110 192
155 68 212
162 161 10
139 214 172
193 80 215
138 33 115
154 92 131
103 2 13
154 254 43
204 14 206
216 15 149
206 159 213
28 160 39
77 4 32
132 120 51
159 23 247
71 245 109
41 81 193
138 166 93
7 30 106
30 137 136
24 159 6
54 50 178
53 177 192
148 53 245
37 112 61
211 173 201
203 145 27
230 30 251
50 70 42
148 254 201
114 164 236
134 218 207
108 250 100
240 21 13
109 97 178
154 231 245
152 251 22
197 152 53
199 21 19
203 165 117
114 243 129
230 8 130
199 30 17
102 240 180
246 6 161
98 244 214
80 7 61
248 42 170
214 179 127
184 191 40
234 12 5
3 163 169
242 142 251
180 133 108
23 114 41
220 218 242
147 76 156
51 175 27
143 200 101
217 117 237
195 216 33
8 71 225
184 236 207
232 217 12
254 138 1
66 254 48
91 119 11
167 231 206
155 134 3
137 164 39
84 223 62
33 160 252
158 254 149
85 82 22
247 128 136
63 81 97
99 229 21
179 41 27
190 206 63
31 245 58
72 28 51
220 99 6
247 98 197
205 0 43
67 219 32
210 1 142
28 50 210
37 176 209
147 218 36
204 107 13
139 143 217
190 36 88
249 82 229
148 73 196
181 216 126
198 81 168
27 254 234
182 95 217
9 93 193
31 141 7
9 63 156
158 54 152
41 233 93
148 226 80
13 93 229
111 243 36
189 135 94
158 59 153
45 53 45
74 127 163
229 222 16
229 182 225
142 56 56
74 123 157
24 186 196
151 54 162
167 9 204
94 36 249
125 167 245
42 225 236
108 171 138
218 143 118
152 183 102
174 190 217
90 5 97
219 250 117
187 201 51
76 152 251
28 167 151
82 134 113
156 126 123
121 78 36
169 42 185
98 23 17
153 28 142
36 209 29
141 125 5
98 66 8
110 22 73
189 223 172
65 8 12
156 118 87
117 138 149
125 190 136
78 121 28
54 196 24
174 80 174
186 18 10
21 27 83
67 2 215
166 241 27
172 140 200
246 16 187
125 155 50
135 180 139
133 15 244
59 197 112
167 98 187
213 133 127
42 251 2
112 22 43
253 29 226
179 232 237
244 206 20
156 78 162
85 36 87
171 70 71
81 70 57
133 147 184
62 233 28
210 177 20
156 163 208
227 244 199
69 157 92
208 136 136
25 212 60
191 147 33
60 78 37
17 3 194
215 22 61
208 28 246
149 64 18
183 144 162
110 196 11
33 29 214
183 103 32
24 161 221
228 147 143
76 111 228
226 157 163
63 181 69
23 59 88
27 162 5
6 156 158
91 204 224
20 234 37
82 54 151
29 204 248
152 26 80
35 141 156
107 149 246
120 234 195
166 133 32
125 29 157
171 154 109
0 31 162
12 117 119
237 180 175
177 0 60
218 253 117
7 87 85
81 245 0
248 23 241
13 29 214
132 104 188
186 146 252
237 44 44
113 154 163
2 185 134
177 124 116
140 96 4
158 218 124
231 230 189
76 13 195
180 230 179
27 210 26
24 130 180
27 177 10
16 240 202
3 151 197
205 174 198
163 104 97
203 193 237
235 151 227
153 225 94
231 152 142
129 24 123
49 49 91
244 79 195
58 137 180
132 123 150
115 12 63
80 243 79
208 154 117
251 158 110
132 100 153
20 64 114
91 240 13
241 220 69
246 51 34
239 222 195
19 50 82
207 123 134
13 94 91
119 10 115
6 23 170
102 192 122
208 99 202
224 130 219
21 100 91
239 19 225
114 29 83
110 125 26
224 14 73
198 23 127
213 24 100
208 57 213
164 150 5
165 18 229
220 164 251
9 122 34
58 247 198
173 5 144
205 133 62
28 38 171
64 162 168
157 73 143
120 123 16
162 197 30
34 79 205
217 143 92
245 130 136
0 22 229
246 204 59
192 37 26
8 1 149
196 118 69
7 246 150
239 84 209
33 69 46
33 107 89
79 124 20
223 178 120
252 139 122
80 102 144
109 38 55
17 88 190
215 232 52
228 161 163
67 201 197
169 175 19
46 217 191
250 62 29
51 150 1
53 227 57
146 74 47
17 93 122
208 92 7
244 173 230
143 88 54
160 138 235
97 16 243
224 233 95
130 175 69
194 135 209
142 154 165
218 74 96
139 174 73
221 228 231
18 61 184
165 8 229
230 66 196
184 253 202
91 34 147
33 235 154
89 161 214
251 171 192
222 78 52
114 142 245
117 216 195
225 87 244
24 154 248
244 157 223
241 199 162
50 70 18
235 237 38
57 159 88
82 15 85
199 173 97
117 205 97
109 234 252
142 6 202
177 129 97
243 140 89
218 214 113
21 178 77
192 0 129
204 157 108
109 213 110
181 103 211
130 114 99
241 110 225
236 134 22
227 248 147
122 34 219
14 181 29
74 93 204
94 54 74
47 114 152
80 151 106
71 5 33
154 11 136
199 57 13
56 36 43
192 140 153
155 120 103
73 34 178
47 125 26
234 132 229
253 93 245
77 207 22
102 48 108
71 33 80
97 164 206
173 3 83
52 141 252
173 2 106
135 217 21
116 241 1
236 138 78
31 61 204
76 190 91
167 33 146
115 130 137
65 62 118
188 92 33
45 223 208
130 74 89
67 43 132
137 51 121
221 70 87
223 136 171
253 74 241
147 246 250
11 73 68
253 56 204
158 176 133
65 137 146
15 196 4
75 183 101
142 163 18
236 143 219
37 30 103
158 112 68
150 118 207
149 102 10
31 76 109
3 84 1
210 94 84
27 71 26
202 113 241
105 205 236
104 116 123
181 94 69
245 86 164
232 100 76
49 225 205
120 51 250
141 230 253
22 38 82
74 122 172
251 147 76
171 21 147
174 153 234
30 51 204
17 233 153
21 46 132
9 88 177
109 194 217
27 45 111
7 5 223
149 3 182
252 209 188
216 89 85
193 153 178
221 174 226
194 147 95
222 19 8
72 126 173
68 147 42
89 161 236
113 111 89
38 183 137
3 2 206
147 245 232
127 1 191
76 217 30
165 118 231
225 232 26
5 151 49
74 135 205
106 67 120
240 119 35
122 105 112
116 50 52
99 56 192
187 214 73
43 2 227
192 52 77
60 190 147
102 252 65
135 170 138
102 33 116
227 57 220
36 167 124
224 60 52
14 229 110
40 63 45
6 165 88
149 4 149
27 28 229
96 241 99
98 197 169
147 28 216
221 33 144
192 123 223
195 65 123
88 118 184
184 219 86
5 12 190
136 13 137
177 120 86
133 57 62
228 81 31
157 82 57
110 218 212
68 210 118
169 197 105
133 146 182
88 179 224
222 201 50
188 85 142
19 160 221
137 90 53
25 180 194
18 168 79
5 129 155
8 19 206
103 75 33
197 171 102
113 93 7
177 42 71
64 142 189
67 139 59
36 135 47
108 235 30
187 48 227
232 63 235
108 215 13
21 35 99
129 108 247
225 237 216
113 77 254
179 24 5
89 149 98
175 179 252
136 189 183
228 158 176
93 19 107
173 24 67
186 131 20
119 196 153
52 2 89
119 187 34
209 115 191
198 43 7
62 71 33
254 147 163
180 2 24
51 137 127
31 53 231
65 177 183
103 113 42
213 136 114
147 35 48
93 240 225
233 106 89
74 79 52
253 8 116
137 7 40
214 191 234
173 0 57
159 129 132
159 216 224
249 108 21
162 141 215
78 217 222
57 1 174
64 112 214
14 4 122
53 112 246
35 120 84
47 16 23
74 210 25
247 147 253
26 199 51
86 186 112
10 158 88
168 61 56
15 49 154
219 11 162
46 159 37
121 52 113
234 192 176
161 153 120
66 180 51
163 136 11
162 35 173
16 177 55
98 12 42
87 113 200
242 65 169
31 3 212
61 153 117
191 115 205
33 123 165
23 114 150
124 67 239
101 232 239
49 4 178
38 166 197
191 235 240
247 204 81
191 162 194
76 93 39
118 205 242
216 89 238
23 127 139
38 197 106
62 203 71
222 98 6
39 43 146
184 70 161
166 171 32
177 251 3
214 254 65
169 148 152
94 91 102
182 213 113
12 153 153
137 232 10
203 187 148
237 91 248
185 14 106
53 48 129
5 141 151
67 1 251
82 123 26
207 167 2
160 118 239
16 71 96
142 59 236
239 157 38
241 73 20
128 110 136
61 201 219
13 217 99
4 247 187
116 83 144
165 32 85
155 225 29
248 92 53
27 103 91
51 32 144
27 34 174
175 212 89
115 100 117
220 67 63
222 35 167
54 59 49
66 129 216
22 66 195
93 92 202
129 204 137
220 213 50
54 69 201
221 89 154
103 18 226
188 74 11
31 113 85
188 29 12
211 188 2
184 33 149
139 216 164
166 27 143
194 167 166
225 130 250
217 146 14
1 51 154
224 104 12
96 162 89
65 152 163
230 229 107
110 15 199
205 223 95
163 161 63
231 204 24
190 24 183
224 106 50
151 29 99
245 9 181
120 39 120
115 103 140
63 250 236
36 32 162
99 0 37
176 21 181
6 111 138
51 21 188
237 110 95
119 86 74
120 105 146
16 163 29
190 121 209
56 66 132
164 69 133
41 228 139
114 162 52
98 20 96
216 150 111
204 221 210
95 139 2
165 143 212
38 140 231
9 168 173
247 53 105
24 193 138
107 56 234
26 61 223
47 70 172
15 44 60
231 75 77
246 144 71
246 6 103
169 201 172
140 149 251
12 135 113
179 235 133
236 242 215
10 203 82
160 253 249
194 126 216
111 13 220
211 99 175
12 83 208
236 105 144
222 30 54
155 26 159
167 70 152
229 108 136
251 152 62
127 99 182
41 16 68
53 160 189
190 6 32
216 211 125
89 133 46
149 52 198
209 233 42
128 91 131
188 42 187
64 131 167
7 111 166
112 67 123
60 134 85
42 83 108
120 204 169
7 91 249
88 173 201
28 248 79
8 107 130
229 201 44
230 49 87
183 51 96
85 189 186
42 84 176
6 133 118
207 26 111
239 74 201
247 39 101
167 141 41
39 73 179
218 100 115
152 248 191
225 72 220
122 60 229
158 146 112
159 251 31
2 222 173
230 134 83
133 23 97
95 250 31
241 18 20
146 72 33
71 154 24
26 45 86
245 62 74
171 157 59
41 247 73
185 135 22
221 111 113
166 228 40
108 33 178
130 146 6
26 208 77
191 16 198
142 152 175
248 35 61
107 90 19
59 110 41
35 128 241
2 238 174
131 16 163
97 146 11
99 177 174
113 206 11
87 68 188
173 70 162
39 233 13
6 66 109
2 151 94
51 187 194
113 236 164
134 120 245
238 53 137
172 98 146
191 186 206
15 103 37
40 137 8
59 136 73
181 184 169
54 199 160
7 111 101
194 65 187
247 88 248
141 252 178
35 132 74
242 173 37
178 51 91
65 173 158
185 52 92
231 157 248
163 30 242
198 39 182
232 36 98
103 180 166
41 160 118
93 76 60
252 136 183
175 119 161
177 98 207
89 156 110
171 24 104
100 116 143
137 114 61
249 171 101
124 150 235
123 113 249
214 127 26
65 129 22
169 68 98
188 75 209
206 94 54
16 193 145
209 18 210
195 244 57
252 248 250
118 24 104
64 116 47
14 182 216
17 135 49
136 195 195
5 57 64
115 49 32
15 39 40
26 60 157
216 36 178
172 50 228
246 179 33
51 207 27
90 221 215
70 98 19
11 246 40
46 177 8
166 76 101
137 230 248
244 20 201
64 221 110
246 1 65
74 105 88
101 188 220
98 192 186
165 201 162
180 49 211
216 158 51
221 11 2
209 2 29
226 56 85
194 145 241
115 166 193
254 81 81
239 236 254
167 114 247
215 42 66
243 84 221
92 9 97
251 190 127
16 76 229
42 112 88
75 31 100
201 207 93
202 169 147
140 77 90
154 232 173
242 70 152
88 221 8
108 37 102
82 221 125
13 33 59
227 77 181
208 128 194
206 147 54
56 234 17
107 158 137
157 125 4
207 24 146
234 17 55
190 175 175
43 45 91
56 152 196
2 209 170
123 29 189
197 203 121
157 164 252
172 181 204
189 151 77
193 180 8
135 213 6
238 50 123
130 170 247
133 107 9
254 165 138
85 63 43
131 33 182
195 167 47
186 68 169
157 148 56
245 49 159
75 22 110
21 55 102
224 76 87
245 45 133
141 229 224
156 141 156
18 165 193
151 71 217
99 193 182
221 243 19
208 51 43
208 47 124
152 69 215
71 120 69
106 142 133
204 37 62
77 153 103
189 195 121
136 118 158
200 59 195
189 76 73
62 159 89
228 107 177
143 221 30
231 125 239
169 128 0
125 51 222
64 109 182
195 129 123
24 254 69
51 199 179
227 110 99
229 152 244
77 227 59
52 172 182
136 35 200
200 197 58
47 70 154
39 172 143
229 155 234
31 130 224
206 75 33
138 228 207
57 252 110
232 190 146
239 13 147
29 194 121
231 157 9
34 245 73
29 72 97
89 190 49
144 178 161
73 82 90
45 193 45
75 128 203
25 32 9
35 144 42
208 3 178
94 60 160
102 61 236
101 50 151
135 247 65
82 234 74
195 142 201
52 39 228
152 235 200
125 64 200
178 74 18
172 120 39
229 4 192
33 227 46
27 48 220
204 171 24
61 186 76
203 233 54
32 0 48
125 84 60
124 223 244
50 9 13
144 151 201
36 159 70
172 66 99
237 250 27
44 147 138
222 65 172
99 231 211
8 164 136
68 225 204
94 147 74
28 146 209
195 207 109
224 177 85
18 212 18
67 99 225
8 173 76
126 188 48
127 194 29
183 104 163
104 226 205
16 175 149
124 156 48
130 221 166
157 211 101
190 78 54
59 47 234
224 111 228
125 235 197
49 19 142
204 132 61
150 206 48
50 163 96
79 217 15
136 87 119
252 84 242
204 126 200
59 230 70
6 215 100
214 151 166
240 178 57
250 68 222
145 251 215
88 165 83
48 74 21
156 223 15
204 73 41
103 201 113
217 97 35
62 89 215
102 112 113
18 7 159
209 219 220
191 86 44
12 143 20
170 192 101
46 167 145
28 114 224
14 1 215
27 45 132
58 118 56
29 134 124
223 15 48
77 11 15
157 246 161
114 94 202
215 227 106
74 183 73
46 125 121
92 166 191
223 25 88
223 165 2
81 169 196
234 158 28
10 189 75
248 203 237
216 232 62
141 209 222
169 52 211
246 133 60
65 254 200
113 120 101
220 182 42
48 137 87
78 207 221
228 181 210
68 120 68
105 236 28
214 48 163
67 78 168
61 27 213
237 76 4
210 250 30
24 29 16
86 251 100
22 154 98
99 13 151
10 209 82
109 16 31
237 184 97
254 17 65
55 70 132
31 76 148
58 62 197
232 168 38
6 123 194
107 87 20
143 38 33
41 207 224
40 131 171
78 252 57
86 70 21
41 32 205
74 96 95
167 163 129
65 199 167
35 202 142
40 53 43
36 64 101
174 120 237
146 97 158
136 197 63
148 250 202
127 54 129
201 76 87
217 142 130
225 146 91
199 213 252
109 145 27
233 22 226
124 41 12
232 55 122
96 56 136
243 167 201
138 250 90
133 222 213
107 248 105
130 155 247
41 69 21
88 103 44
61 3 199
104 230 130
248 205 56
80 17 79
242 4 211
191 14 180
98 197 39
22 170 50
204 188 1
177 182 121
186 145 82
74 202 126
77 210 154
2 113 187
179 33 20
156 106 225
87 164 156
32 134 49
71 98 205
156 108 54
148 85 153
45 65 152
7 2 154
94 166 152
165 82 136
190 36 100
253 115 155
199 217 27
254 2 177
216 111 65
14 13 162
45 91 147
104 238 21
203 225 147
120 152 223
145 187 70
115 141 18
13 177 179
251 178 63
38 49 93
121 121 155
178 138 40
46 94 153
117 32 122
105 191 68
140 31 150
142 19 2
51 123 202
104 31 247
168 35 32
98 188 164
181 94 232
166 79 146
45 30 118
103 112 40
151 143 3
89 166 210
202 136 80
231 202 1
105 213 1
192 211 180
72 32 12
183 180 9
145 93 32
47 97 61
211 205 177
50 16 117
170 242 84
239 68 211
177 174 18
181 130 222
11 108 210
139 183 150
222 246 193
55 92 124
200 138 142
186 9 219
72 80 172
106 217 216
213 146 166
156 189 198
58 120 242
32 55 127
148 3 243
103 149 157
13 169 227
200 206 6
126 141 198
56 94 201
203 20 44
75 213 229
54 206 247
62 158 61
80 6 39
23 198 7
41 95 221
204 140 9
135 119 212
157 171 114
145 181 93
168 211 248
110 157 231
39 80 19
129 130 0
154 147 0
107 182 120
35 131 240
194 109 237
141 51 52
23 55 192
101 132 80
188 232 36
198 227 189
154 14 118
131 42 177
162 2 59
139 104 97
48 21 169
172 124 121
37 209 51
178 6 166
251 123 187
64 174 91
222 18 116
251 57 41
57 176 69
113 211 77
188 102 31
45 135 20
240 32 153
70 166 4
160 88 196
75 9 115
74 72 50
59 60 91
236 45 150
113 11 185
22 120 34
210 15 159
198 129 78
28 228 55
35 63 246
238 33 23
65 78 182
238 217 225
152 95 22
34 181 66
43 89 166
61 38 156
192 72 120
231 217 59
190 159 90
109 15 115
24 104 101
112 54 36
119 194 110
240 29 105
138 100 126
224 110 2
59 11 248
244 204 207
30 253 192
77 2 10
21 1 244
253 88 202
18 49 81
47 235 170
209 60 141
14 4 121
155 94 54
187 2 232
155 211 232
26 107 223
87 132 89
201 199 74
99 38 20
81 77 141
129 219 100
165 58 106
92 218 159
29 84 159
169 218 223
162 77 248
162 79 21
192 207 16
224 244 52
155 14 57
121 86 98
135 105 6
147 22 78
211 46 65
50 249 66
246 185 0
161 57 172
228 1 152
17 45 91
87 88 154
81 10 136
151 135 103
219 16 156
164 67 199
193 253 210
102 32 219
233 195 126
43 54 62
97 214 86
141 15 0
198 102 183
222 204 113
172 228 151
204 222 27
201 172 22
188 156 79
157 155 89
216 67 212
204 77 128
186 2 48
157 178 213
20 155 196
65 153 81
161 222 23
101 242 20
11 173 151
89 245 24
63 17 190
17 239 229
88 44 249
23 43 231
228 68 17
221 187 1
216 185 238
87 159 66
154 118 4
205 98 184
239 113 191
193 136 79
105 88 246
183 187 62
37 150 192
176 26 223
184 206 14
112 85 138
105 138 117
236 71 126
160 203 165
15 13 189
92 167 99
221 25 121
156 193 219
148 165 159
194 139 166
14 168 189
143 100 77
85 215 146
156 140 10
9 210 91
138 123 246
8 50 152
0 77 43
20 158 144
165 249 241
203 225 200
47 53 15
55 244 192
12 172 94
138 11 76
137 195 141
21 167 34
97 10 193
144 108 197
82 253 9
140 98 16
185 170 186
40 117 185
225 236 208
30 121 205
68 82 47
57 100 202
81 236 45
154 198 166
216 18 237
20 198 7
161 203 244
5 247 49
154 130 103
253 215 242
241 237 139
190 250 49
74 0 107
162 8 148
79 117 92
83 254 78
144 126 148
247 75 77
40 43 139
18 173 29
198 88 92
73 104 22
248 39 244
58 0 192
22 168 106
104 213 9
165 107 71
106 112 142
235 29 33
54 6 198
176 119 183
159 100 129
150 197 13
150 138 37
175 10 177
232 127 109
154 214 150
238 129 168
64 143 244
175 77 182
125 232 62
60 185 190
199 249 136
26 232 3
166 15 45
132 231 206
72 119 114
134 25 158
11 119 99
127 126 229
166 213 155
32 251 34
205 208 215
92 96 196
150 240 213
108 192 249
123 51 208
126 24 130
138 135 97
124 139 101
15 197 193
253 184 122
225 95 234
19 125 150
249 94 115
105 158 209
196 121 96
214 253 250
189 91 89
119 56 64
65 204 37
247 67 96
104 232 186
178 249 230
48 217 94
223 175 123
118 123 40
211 192 93
3 236 133
69 139 130
115 175 93
70 176 201
98 112 233
64 39 92
216 211 127
154 80 40
208 184 71
200 239 159
250 77 234
86 9 150
184 254 48
153 143 228
151 170 237
103 56 59
153 32 90
129 141 146
67 121 173
181 242 59
49 183 159
147 19 62
210 203 141
9 60 52
91 191 178
49 199 192
124 247 219
70 69 190
17 62 224
122 117 141
73 123 152
58 243 252
45 47 227
133 74 127
25 150 150
114 206 148
100 188 24
117 135 30
209 125 83
95 131 53
166 92 146
82 227 9
242 191 190
56 48 8
66 132 254
61 107 157
45 179 77
94 156 154
14 116 47
212 52 123
190 24 151
196 138 176
232 200 200
241 162 106
31 185 222
1 214 9
217 228 3
14 31 239
210 48 49
33 127 252
36 90 84
246 239 107
224 168 140
230 214 14
133 222 141
39 28 30
65 190 52
238 248 199
140 124 55
99 12 123
215 212 170
10 190 133
46 123 181
239 75 142
179 117 233
47 75 129
10 204 142
6 161 104
44 44 89
84 119 199
7 97 67
93 97 91
41 223 161
162 35 99
52 178 168
234 37 248
28 27 77
191 70 235
156 0 172
39 223 139
247 207 228
177 191 189
118 100 116
132 238 144
50 1 234
10 50 21
96 224 183
107 158 109
163 223 243
106 2 200
139 121 79
214 55 208
62 63 173
125 54 212
144 251 226
235 166 15
130 127 27
139 75 144
72 144 19
55 201 221
162 70 224
60 202 25
101 169 165
78 91 195
181 25 209
32 40 234
49 254 0
26 165 164
117 200 44
169 185 169
22 151 253
121 241 178
232 57 173
167 80 127
106 153 111
249 211 55
104 232 107
220 67 56
38 219 75
120 190 251
235 211 162
87 242 221
233 1 92
187 29 186
139 135 217
34 149 6
11 134 254
116 73 109
26 18 23
97 212 39
135 13 181
54 15 222
87 149 133
143 141 137
154 216 153
191 186 198
138 48 64
209 187 66
79 60 5
192 196 109
12 1 162
169 84 181
205 247 243
228 150 10
152 113 218
121 175 39
180 54 231
79 17 98
96 38 155
151 59 69
210 58 228
213 193 223
59 154 37
108 7 53
2 97 76
36 107 154
121 94 1
224 121 156
237 7 36
29 220 16
38 131 181
135 191 153
167 4 17
16 48 13
191 146 64
200 172 182
170 188 20
172 110 123
65 55 28
17 179 70
84 125 97
65 55 22
118 227 45
172 175 168
221 45 68
47 95 185
240 35 78
226 146 122
95 0 242
161 50 85
44 98 91
120 192 171
118 46 212
113 190 52
38 86 240
164 173 94
1 238 132
198 220 150
120 215 201
170 119 193
31 174 34
91 220 223
200 80 227
153 26 33
219 59 182
115 128 79
136 154 217
105 6 98
50 228 67
116 183 125
106 98 35
249 26 57
215 214 50
164 196 39
123 120 154
35 88 186
118 12 213
254 179 237
75 28 253
222 93 166
72 189 156
177 83 25
18 45 222
66 235 254
53 42 32
157 33 148
180 206 18
62 139 78
234 3 217
125 69 151
171 233 172
115 146 67
24 113 246
137 27 76
150 153 160
120 36 93
45 121 43
50 230 207
18 236 113
245 238 242
93 169 3
90 44 107
133 11 45
109 173 67
197 227 9
149 201 108
152 39 142
130 204 78
217 169 69
226 76 86
247 78 117
49 172 186
160 184 225
228 38 122
139 247 175
59 202 118
198 102 128
143 169 33
99 238 167
189 120 220
149 121 153
197 10 77
103 113 119
48 198 144
228 137 219
101 58 71
154 162 128
70 211 77
117 14 101
196 94 253
110 173 249
117 172 113
112 163 229
6 53 105
11 173 163
17 222 110
223 66 106
101 54 245
127 189 0
68 132 227
96 98 98
200 186 40
185 80 208
93 206 169
237 194 53
196 238 10
197 26 169
172 221 111
119 221 98
96 105 129
161 196 100
103 127 199
172 177 3
65 37 39
57 44 76
221 130 190
166 242 185
19 54 197
80 210 44
108 81 216
101 74 84
68 245 12
231 102 57
117 123 13
191 176 181
4 16 158
100 235 2
76 211 40
58 22 207
136 13 22
20 238 188
228 228 162
243 84 175
8 94 27
200 218 194
175 69 75
9 173 253
252 7 156
36 205 252
229 28 105
39 207 229
14 75 93
212 132 144
198 96 174
45 17 200
56 38 91
222 63 160
122 40 9
147 236 173
152 88 195
43 182 222
22 248 71
1 2 85
113 209 113
247 4 74
4 137 23
181 114 235
66 78 180
111 138 89
203 102 196
62 130 166
148 230 101
238 205 98
230 76 213
147 224 102
214 239 235
207 204 18
51 201 90
161 81 21
95 218 202
59 49 174
184 236 136
202 66 97
121 8 225
212 4 132
171 16 149
234 126 18
18 45 100
202 176 188
138 140 202
243 126 10
223 67 190
142 127 104
177 91 198
158 15 190
173 167 231
207 214 28
56 124 133
80 78 54
20 86 219
0 241 206
2 37 121
166 180 208
198 113 64
93 213 229
78 10 109
83 176 241
209 121 217
109 39 24
60 196 246
183 8 74
96 109 240
85 70 152
250 174 148
233 250 219
232 49 65
238 190 50
39 54 229
11 103 122
93 113 128
36 109 64
148 124 4
164 111 84
56 106 57
212 126 174
116 62 232
106 207 88
130 195 110
211 17 112
168 105 113
162 110 120
51 97 200
218 47 29
33 81 95
134 88 163
127 106 196
224 226 13
164 226 250
217 173 241
122 216 41
54 144 67
95 213 36
161 50 222
153 82 176
112 244 101
135 50 248
33 6 147
132 169 175
98 83 155
17 46 234
10 187 17
204 61 47
70 196 155
162 52 91
150 76 71
210 151 184
201 172 166
213 154 36
100 36 93
23 131 199
154 78 94
113 220 26
209 64 201
56 124 175
187 243 143
36 97 119
192 161 103
67 39 88
45 56 245
120 15 182
225 134 59
181 193 163
50 211 148
245 207 74
136 177 10
71 178 238
61 7 150
61 189 198
158 51 248
91 41 103
100 133 87
132 136 86
181 238 217
53 237 184
191 232 20
70 103 153
207 229 79
71 102 72
49 39 96
145 156 80
95 240 128
61 219 124
239 9 208
50 86 225
152 118 116
37 138 206
207 149 135
198 125 35
14 70 91
56 144 33
44 248 13
216 58 249
58 46 211
74 58 147
89 221 164
30 58 179
233 111 117
202 76 210
36 42 1
251 137 177
168 22 48
94 186 164
28 60 17
221 135 187
49 249 76
18 117 165
211 113 67
145 187 170
232 208 143
15 71 117
190 45 120
166 164 171
3 33 100
231 211 211
85 161 133
17 200 77
195 5 246
90 191 226
186 140 249
9 5 41
251 254 174
171 33 140
121 49 25
219 5 69
71 218 120
229 29 74
31 64 27
57 78 17
23 212 63
168 239 74
60 114 77
171 195 17
23 135 147
98 62 41
166 129 8
194 36 20
240 216 83
128 91 194
119 219 24
155 202 159
16 229 94
137 254 82
28 162 165
89 201 87
76 32 161
44 4 222
124 93 143
53 27 7
183 166 133
35 38 49
17 243 113
49 138 51
105 12 8
141 105 73
231 76 47
155 5 59
254 135 153
24 25 28
228 50 56
109 251 117
182 209 250
138 131 6
212 84 246
55 141 96
85 161 46
161 230 186
20 132 15
152 10 59
194 140 77
66 56 35
87 5 83
127 37 175
132 66 195
121 39 245
230 143 173
49 209 89
9 96 196
198 158 112
206 101 85
202 169 220
104 217 133
40 28 0
222 143 137
71 81 208
141 174 128
113 141 74
249 156 60
179 65 34
237 243 218
86 48 223
1 13 76
36 102 215
193 90 173
189 125 249
111 44 207
11 124 192
99 69 66
184 189 33
105 153 141
137 153 115
66 24 142
189 58 156
82 178 11
220 202 48
28 197 125
132 43 249
176 31 238
249 187 155
93 214 78
149 229 158
102 196 18
2 194 65
224 94 146
121 82 25
161 194 244
151 213 115
237 45 164
142 70 73
233 88 0
198 182 100
48 160 20
120 184 115
64 78 61
11 227 20
5 100 82
177 237 96
65 56 251
27 153 118
85 21 68
169 156 42
157 53 253
133 229 222
227 132 222
124 164 199
122 11 167
214 51 161
63 150 0
53 76 125
125 162 87
195 56 233
192 251 177
156 47 194
149 236 83
16 170 74
190 60 123
11 78 78
203 150 246
51 196 241
105 82 247
66 222 192
36 24 12
249 85 20
252 213 207
59 221 182
225 25 6
20 0 232
36 108 215
252 243 180
181 153 115
92 97 105
211 122 220
217 179 167
31 117 239
62 182 7
109 220 248
45 204 3
23 152 103
21 73 162
236 155 110
249 157 33
200 14 235
98 42 118
127 205 88
130 103 126
94 49 125
171 24 49
52 186 66
180 105 113
195 184 105
110 254 7
175 107 236
12 184 239
200 89 203
245 2 223
151 31 80
63 31 13
153 50 181
245 248 250
19 239 159
87 70 183
232 215 132
73 70 163
153 158 104
19 135 238
76 150 133
170 136 216
121 51 13
161 28 239
34 204 91
193 105 120
180 3 37
38 10 140
253 247 70
108 173 214
184 204 31
145 14 50
249 75 68
17 181 84
135 105 159
176 210 90
226 249 184
226 155 208
70 202 238
143 198 219
47 252 246
102 20 162
93 72 135
136 77 95
140 132 108
40 192 80
27 116 127
158 172 109
46 220 205
95 173 87
121 243 121
130 238 87
122 124 119
6 139 163
118 153 60
206 145 116
76 250 234
12 104 13
187 60 47
110 205 104
254 156 143
62 140 133
224 254 212
185 179 5
210 215 180
1 37 53
19 26 124
159 138 99
249 206 103
108 100 210
131 71 218
149 144 75
93 201 159
127 216 84
188 103 157
0 17 153
89 156 224
106 254 86
219 127 195
84 132 32
138 247 196
162 240 87
84 172 210
185 21 192
113 174 144
78 161 29
40 170 33
206 63 185
118 216 77
41 11 236
60 125 79
238 246 101
33 94 10
248 73 221
188 109 61
140 2 98
8 213 45
65 119 122
69 97 248
4 231 108
200 208 137
45 87 241
22 187 130
136 178 201
145 105 40
244 143 22
184 80 238
113 99 44
13 46 94
188 15 91
196 28 41
155 191 92
56 217 177
152 220 27
164 192 110
45 122 11
237 215 174
70 228 221
37 1 68
224 202 173
184 4 145
77 12 200
2 189 252
166 236 178
174 61 137
125 24 163
108 165 147
66 178 248
112 43 94
23 180 236
158 25 230
70 146 88
7 61 73
135 38 249
254 4 41
249 94 168
60 103 73
0 110 169
232 32 138
14 19 11
43 14 193
102 127 146
28 218 98
189 225 241
36 27 50
202 178 64
117 108 248
183 241 154
160 70 197
245 32 96
213 61 38
230 111 130
221 121 153
182 153 245
237 187 224
245 231 9
227 228 244
245 226 122
91 183 129
53 149 59
17 158 81
81 216 251
182 223 77
177 9 143
222 242 97
165 53 24
17 4 11
157 86 249
129 54 13
94 155 245
118 51 181
233 66 175
44 183 252
239 147 20
123 78 22
168 6 245
113 180 181
199 41 6
231 46 210
23 35 90
45 110 92
166 210 134
250 131 58
101 248 174
226 31 153
161 214 236
246 246 88
164 114 161
115 30 201
77 196 236
79 185 168
100 140 95
168 221 223
190 210 184
55 150 104
244 28 250
238 121 37
244 32 223
245 35 83
74 243 21
188 171 211
80 53 134
163 174 102
125 105 20
249 70 23
40 64 218
81 141 93
109 87 65
117 134 2
161 231 207
174 202 18
235 138 54
44 101 15
231 49 148
38 124 230
135 203 105
252 186 28
84 89 202
164 51 117
92 111 186
1 219 24
177 16 104
95 69 30
242 17 225
163 122 55
51 133 89
94 226 37
35 114 11
72 120 249
36 52 198
41 72 36
124 33 24
247 1 81
29 202 138
65 247 201
37 81 57
117 253 169
32 50 198
94 179 73
64 24 112
57 82 174
112 140 166
18 201 253
186 246 32
170 103 11
11 163 52
190 83 136
155 93 177
146 248 254
19 170 208
20 250 254
172 18 150
165 48 2
153 200 189
118 245 103
40 171 126
40 230 91
8 73 184
252 174 39
54 133 179
114 189 86
169 243 40
252 228 19
213 96 223
117 211 13
11 224 84
55 185 63
161 25 37
112 196 98
173 199 154
184 96 89
250 29 228
251 189 40
75 168 180
110 118 20
238 139 13
40 82 20
168 197 111
125 184 111
17 182 202
189 105 242
171 202 227
246 154 237
7 100 249
240 83 66
59 40 161
213 238 4
111 252 58
140 251 34
25 104 83
250 40 197
134 34 234
103 184 201
61 20 194
148 233 168
23 69 18
169 165 226
232 238 91
128 226 90
24 52 220
51 163 131
105 20 126
73 54 5
25 206 66
46 84 47
209 66 203
180 224 133
85 64 245
24 170 2
153 102 184
116 97 92
1 119 184
204 253 253
235 43 141
18 34 111
194 193 177
226 161 162
146 27 176
142 212 225
86 183 218
222 246 183
198 162 76
82 192 139
214 234 45
22 0 117
92 126 56
232 76 99
171 245 21
62 218 129
135 99 185
44 38 227
143 231 239
248 73 227
178 221 125
78 220 55
61 171 240
119 4 89
39 209 223
103 92 182
30 225 88
101 23 63
126 11 99
130 5 135
36 81 196
196 142 121
167 178 121
190 230 231
25 90 139
112 27 133
222 65 100
139 79 231
144 34 108
92 120 152
243 170 104
144 174 183
198 84 247
96 75 12
199 210 142
70 8 179
28 176 150
14 190 237
189 28 175
221 122 214
245 206 235
113 8 236
43 158 8
88 128 205
171 67 32
175 159 142
239 69 135
159 130 65
97 14 181
106 97 202
57 233 41
96 97 30
88 9 253
217 216 147
53 58 249
106 129 233
169 179 88
131 226 93
164 241 34
5 141 235
116 25 187
250 4 152
138 169 146
214 233 59
97 168 208
156 120 216
131 96 50
206 27 254
155 196 132
172 253 126
98 238 159
75 26 99
26 89 230
190 84 157
183 8 240
78 78 154
204 187 61
229 220 138
215 125 254
10 44 240
21 186 146
247 248 55
112 239 165
24 179 189
31 249 181
249 120 77
240 146 130
149 206 193
119 166 238
121 66 50
170 179 44
13 64 59
126 10 93
97 2 93
118 184 88
219 177 190
16 6 60
20 135 183
87 174 238
117 135 159
124 150 19
92 169 222
84 36 16
64 4 109
177 72 247
248 200 7
131 122 238
232 122 100
46 78 127
91 87 223
11 208 40
101 250 198
153 44 120
81 240 45
142 188 216
8 66 249
159 18 128
192 244 125
184 251 173
212 238 107
103 222 41
36 36 160
125 68 45
6 156 149
203 120 165
235 192 226
40 232 235
234 136 29
34 93 199
134 158 155
210 245 249
4 83 224
54 30 57
151 183 143
116 120 171
28 251 12
84 50 186
172 36 79
249 141 158
54 61 101
129 71 221
7 141 113
190 135 4
135 81 120
47 2 117
49 129 230
194 35 167
99 213 217
162 211 185
3 51 76
240 173 182
209 70 154
69 93 101
198 25 89
235 148 178
40 91 177
160 124 177
42 109 118
146 188 163
224 177 100
76 115 2
38 134 135
68 166 231
22 136 134
101 230 52
138 128 227
38 26 194
82 6 140
127 3 209
86 199 48
205 11 126
24 79 204
153 8 150
144 96 247
38 222 61
213 216 110
124 168 25
66 132 179
127 45 91
48 56 217
150 212 126
70 126 55
128 209 0
74 126 179
62 119 135
29 85 159
139 200 174
254 58 180
100 191 223
223 32 60
46 44 120
175 57 88
38 226 125
153 171 21
193 223 51
28 53 195
75 18 3
149 67 130
213 175 199
104 238 109
147 120 95
235 185 121
117 116 115
67 242 60
114 134 42
215 23 1
125 8 29
78 250 196
137 228 121
38 119 118
250 148 158
200 60 103
141 62 176
71 8 16
210 7 15
142 132 82
101 212 242
84 48 75
50 59 245
105 249 188
160 2 208
5 79 41
247 162 136
94 235 237
169 153 209
122 159 113
162 121 59
91 108 195
73 209 105
78 32 104
110 80 81
251 70 99
84 164 140
84 36 139
170 122 194
65 105 201
166 74 92
237 221 236
130 169 150
1 105 205
195 78 176
111 128 165
49 74 132
93 180 104
61 79 117
115 98 253
86 222 138
131 8 66
49 241 148
140 164 73
123 246 65
154 96 90
5 22 109
69 87 136
240 253 22
133 217 209
183 88 154
86 22 222
6 124 194
108 195 162
233 113 111
254 29 227
98 137 154
185 219 213
234 110 5
105 212 220
105 133 26
240 121 0
119 113 181
152 191 111
119 92 187
18 23 13
125 207 90
166 227 77
223 241 126
238 121 177
1 90 182
109 132 120
126 96 192
35 254 134
124 32 88
90 213 153
73 189 48
28 55 17
227 227 223
129 248 120
27 147 8
85 219 98
146 181 245
176 105 49
201 166 111
187 213 114
215 201 224
161 35 25
165 218 131
101 73 97
98 145 248
251 189 248
117 46 136
3 112 220
74 45 4
82 178 17
161 46 195
184 187 187
108 170 25
74 142 140
10 99 231
211 231 144
84 69 35
13 202 205
195 134 162
249 32 211
6 131 50
201 131 79
188 132 65
72 201 90
181 230 23
76 217 108
1 41 104
14 10 178
226 154 136
0 149 209
20 106 203
138 65 183
97 77 203
232 128 254
50 56 13
87 231 212
45 155 29
206 243 251
210 68 0
252 28 211
168 192 215
200 11 48
76 30 14
193 210 70
168 240 145
200 141 149
246 42 250
55 223 67
91 10 43
220 243 160
31 189 197
168 234 22
238 148 23
213 26 20
63 116 93
78 106 160
19 44 196
109 128 170
44 122 225
7 193 137
179 68 247
174 188 61
205 108 70
107 166 109
253 253 133
56 230 226
133 11 222
121 85 179
30 239 42
153 51 152
77 76 217
57 207 202
190 136 133
220 131 123
197 37 22
141 28 79
49 10 235
134 148 175
48 7 216
152 197 253
218 53 132
154 163 101
146 233 225
229 30 232
189 160 129
241 34 35
124 232 203
51 238 69
189 215 96
225 218 204
47 54 202
169 165 96
243 68 241
154 34 133
35 135 177
200 46 254
195 117 37
42 106 226
32 174 196
202 118 55
238 67 218
135 88 149
240 122 207
99 226 155
220 110 39
37 59 121
95 41 3
142 27 41
229 50 214
92 251 55
5 108 134
201 1 103
61 107 42
187 97 101
31 225 212
247 190 31
94 199 112
2 76 203
98 244 185
77 47 29
22 33 164
88 56 66
156 2 150
244 154 232
246 1 35
149 48 80
4 73 195
223 0 78
110 223 135
10 6 243
8 243 45
222 240 74
187 161 239
55 101 76
15 60 3
0 176 148
122 245 150
107 180 0
111 9 28
78 24 95
14 121 131
23 61 26
9 3 236
241 253 154
16 225 88
227 25 191
203 237 32
63 22 63
31 253 101
94 237 243
166 91 185
199 10 112
37 210 17
181 78 78
142 242 222
249 74 3
245 179 63
103 116 211
167 243 24
190 204 177
94 124 202
217 22 219
197 159 43
219 48 141
132 234 174
188 1 170
190 46 244
225 151 247
173 178 118
173 85 62
209 149 77
233 158 44
81 194 38
117 246 91
18 38 214
138 45 39
133 97 18
239 154 228
165 205 230
42 47 2
177 12 230
86 252 146
192 149 65
36 94 250
21 77 102
145 52 135
32 149 100
222 35 71
10 233 254
73 157 96
5 252 171
203 195 112
150 31 211
78 92 55
102 104 117
254 97 84
45 78 93
31 243 52
217 164 143
180 251 252
181 205 43
156 103 52
98 22 37
143 126 129
62 198 248
173 109 147
58 230 245
98 3 144
116 201 155
110 151 26
186 179 242
191 220 85
171 16 127
171 24 51
107 80 168
180 148 236
52 129 172
182 231 214
240 232 5
93 215 254
180 133 155
233 130 86
88 141 99
64 30 202
193 177 73
207 126 244
252 252 103
21 248 37
127 85 74
90 173 124
252 164 28
244 196 205
241 6 94
160 28 54
4 65 217
131 202 132
71 16 56
230 6 235
97 135 222
28 119 206
213 13 128
33 168 122
158 70 50
151 52 220
137 248 60
17 124 246
39 237 174
160 147 234
246 248 47
166 73 251
38 223 75
69 91 43
87 187 86
106 27 41
163 5 3
38 148 111
41 174 24
122 133 217
28 251 127
130 44 62
40 90 195
221 62 49
10 235 75
243 93 136
103 42 122
208 131 235
158 69 66
158 220 142
191 125 38
189 205 163
42 128 136
175 8 204
198 175 140
1 201 240
104 159 180
96 139 235
168 140 48
177 143 145
183 1 243
228 200 14
114 203 122
147 28 137
231 225 92
246 232 252
60 149 113
227 133 99
170 243 54
96 229 5
61 38 111
32 95 124
222 249 225
189 246 15
54 10 32
140 93 140
39 230 176
88 52 190
64 160 51
124 20 210
26 196 90
204 78 43
98 195 7
67 114 143
121 126 81
229 50 104
139 77 83
55 216 194
51 204 47
216 1 141
76 98 114
43 89 75
36 85 126
80 38 225
99 171 227
102 10 230
225 203 11
232 254 219
140 114 178
94 2 161
246 160 12
162 82 37
19 61 194
198 93 200
224 0 211
210 23 184
31 104 54
188 228 99
189 184 194
27 60 120
200 98 249
165 41 187
102 211 66
14 1 155
203 106 165
250 71 21
124 224 120
221 124 246
8 19 169
162 28 2
30 209 123
88 244 127
25 103 155
14 6 128
56 100 55
133 160 230
167 91 0
186 30 204
68 234 197
38 93 226
215 130 103
216 244 149
212 132 245
245 35 91
224 43 73
37 181 254
197 137 192
222 143 150
187 203 98
186 209 26
251 185 94
137 238 46
241 124 138
129 128 202
116 124 188
245 22 212
126 204 204
221 194 48
33 59 163
11 237 190
199 68 168
214 56 154
76 36 150
199 12 51
154 219 201
95 99 33
132 223 108
125 49 18
194 48 43
223 201 202
195 3 35
203 140 224
146 75 94
197 103 131
212 78 75
182 160 44
133 187 0
167 1 49
176 8 56
150 168 51
199 95 131
70 71 171
211 115 65
197 196 79
208 143 95
121 61 120
187 186 180
173 247 0
95 154 206
214 0 238
153 84 217
51 147 251
246 181 47
154 57 73
101 47 31
35 48 207
64 85 33
25 232 48
220 174 79
131 212 74
219 23 2
90 224 67
152 204 94
12 211 216
20 39 106
12 7 196
75 222 70
21 153 137
125 207 38
241 188 72
202 222 109
193 106 205
226 33 128
146 137 166
121 36 16
197 190 61
30 209 186
44 229 17
181 1 51
112 207 248
183 87 130
199 190 117
220 170 136
240 124 93
233 209 221
103 143 31
149 208 221
251 12 173
218 187 197
169 171 70
87 104 116
55 141 108
188 141 233
98 29 237
126 240 212
173 192 0
23 66 98
133 37 70
209 204 132
149 224 222
238 219 63
214 74 126
194 102 54
57 165 90
146 99 64
197 4 44
231 192 209
209 223 80
182 139 160
234 100 182
224 180 105
142 143 81
54 218 62
132 225 250
166 235 254
179 62 6
148 151 155
237 142 3
137 217 184
118 146 91
162 75 226
112 105 144
209 216 86
12 223 201
85 41 8
226 25 211
182 146 8
10 39 195
60 33 34
127 181 137
196 225 136
145 75 9
161 230 19
96 111 101
200 235 15
237 107 1
64 76 47
125 195 115
93 110 242
9 173 208
28 25 217
188 135 220
190 47 43
236 233 79
234 80 225
85 238 74
115 124 115
188 112 142
17 23 144
17 108 173
118 19 190
205 245 154
176 149 39
194 1 78
105 2 209
201 212 38
57 142 199
124 87 211
4 65 158
15 155 65
133 22 9
189 82 163
196 28 59
181 179 217
129 14 174
201 86 95
146 47 21
226 20 30
54 88 188
198 251 196
89 136 193
219 181 253
242 108 242
218 1 204
86 189 240
129 86 105
202 56 76
246 145 65
135 115 124
35 46 128
159 120 44
101 70 172
147 53 31
205 177 96
3 126 68
107 245 83
132 152 168
139 122 184
29 121 214
129 59 161
176 7 225
190 119 74
219 204 121
245 183 62
54 45 99
129 247 21
30 0 222
4 11 164
216 99 13
173 184 64
166 84 222
165 2 127
36 30 114
16 134 138
132 11 188
178 104 34
177 160 213
91 17 76
49 228 228
152 26 84
105 158 152
82 153 92
31 245 158
56 154 98
26 111 48
214 127 88
253 190 239
39 114 136
200 6 0
192 226 48
95 57 168
251 13 194
6 221 64
176 89 104
138 193 91
210 198 148
195 121 178
202 251 118
170 131 57
54 127 64
216 178 93
250 57 45
37 100 12
146 206 149
197 112 28
64 50 28
189 141 76
229 184 205
94 142 153
151 153 91
218 126 147
224 248 139
100 251 39
8 86 148
24 219 95
135 204 131
76 98 105
222 226 222
230 99 101
167 192 233
163 228 225
46 160 43
251 177 243
165 121 18
214 181 75
141 161 213
191 70 26
242 5 248
214 156 184
57 163 41
128 236 21
182 137 17
84 57 16
136 184 218
170 253 192
246 1 141
140 121 185
215 81 205
47 161 121
74 78 20
111 49 162
108 179 41
105 1 197
101 72 128
133 64 108
214 140 18
177 141 38
5 164 153
234 39 105
111 159 134
231 76 98
145 80 6
194 8 60
106 79 62
150 216 178
239 17 190
118 240 185
21 246 127
15 2 36
103 154 209
163 227 238
201 218 79
155 171 143
148 226 203
16 134 85
43 156 245
20 107 126
180 92 128
11 97 171
155 253 172
141 7 225
234 108 15
122 163 244
33 230 127
224 187 236
51 191 225
33 83 16
37 231 46
188 0 242
25 205 3
189 197 239
165 189 21
144 46 168
125 182 130
28 117 222
224 10 241
246 186 164
253 72 202
60 231 101
23 67 137
114 108 108
184 84 21
155 209 46
77 142 126
154 189 6
14 167 247
213 30 127
200 16 94
160 203 71
156 195 156
21 8 180
157 88 187
178 20 229
5 58 169
154 249 64
146 127 91
172 209 124
76 192 115
204 208 161
46 25 186
42 190 5
221 88 240
17 190 226
49 138 132
82 17 127
123 43 151
229 225 0
82 116 66
8 117 204
39 120 12
133 102 75
250 179 75
193 211 108
222 37 82
249 155 52
104 50 63
194 183 30
26 91 240
241 250 133
92 130 166
244 18 37
246 195 165
70 0 124
74 3 242
154 176 43
9 66 165
237 56 82
47 12 109
25 186 240
36 77 12
100 8 141
128 211 248
142 230 227
35 54 232
178 1 75
88 150 129
4 211 175
11 137 145
156 190 58
81 50 160
88 60 112
248 92 46
178 170 15
185 185 206
191 90 28
73 31 169
186 42 164
146 59 144
123 194 61
223 97 229
54 7 2
245 37 153
27 132 36
0 9 239
122 17 142
221 37 57
103 91 152
159 241 149
21 214 159
124 97 154
215 67 70
34 12 151
6 126 44
127 209 32
165 170 215
234 190 196
246 118 212
243 182 111
224 164 9
160 81 78
0 42 9
69 235 112
27 86 154
177 148 175
39 103 116
99 13 210
13 244 125
218 253 81
29 157 6
26 35 225
208 153 18
62 132 91
247 163 53
54 112 48
252 61 84
228 101 101
212 179 218
105 107 239
221 36 91
32 29 228
183 196 64
146 151 250
127 10 124
163 200 21
147 106 51
222 77 93
205 207 112
234 175 176
180 120 208
113 3 99
6 137 92
39 40 68
146 121 207
106 80 10
38 31 155
69 166 227
75 70 230
152 164 203
179 236 19
231 28 17
40 69 66
158 106 153
114 140 138
68 114 40
143 37 128
87 157 27
237 44 200
203 79 132
186 25 53
84 3 104
229 176 229
25 249 206
128 98 112
28 9 220
7 4 153
120 241 22
181 56 191
44 135 205
7 177 253
16 38 177
70 211 54
208 216 39
245 217 128
123 83 122
157 53 210
208 16 58
245 6 4
92 123 111
11 96 243
15 63 221
157 97 225
188 252 70
163 168 40
20 145 145
53 0 218
183 59 247
219 211 108
163 44 63
160 145 155
74 224 224
85 35 83
214 159 104
140 58 234
77 161 226
29 6 143
218 214 191
205 246 166
229 154 195
85 135 210
69 69 135
248 62 150
247 39 25
12 77 28
40 216 184
152 68 207
111 66 13
171 155 59
218 224 65
168 140 44
210 221 78
87 70 78
146 223 229
153 66 120
152 195 226
28 128 105
196 158 21
144 108 121
17 213 75
60 108 35
121 222 51
45 7 231
235 87 158
146 105 82
254 249 170
131 13 100
177 19 135
62 247 34
162 98 216
149 254 49
34 249 87
34 172 81
91 204 143
235 245 19
118 153 147
232 25 190
160 232 73
55 198 41
198 2 172
14 28 151
193 122 82
2 76 46
56 0 206
36 123 75
0 75 114
220 85 227
43 185 234
225 60 157
202 29 104
32 93 36
253 154 116
23 30 115
203 61 194
17 116 205
48 148 121
164 54 48
174 202 221
160 138 142
239 49 117
156 117 79
90 86 16
3 139 202
220 106 34
142 174 130
246 236 98
207 112 146
145 72 157
195 97 1
118 47 192
128 183 236
187 71 29
86 220 216
143 155 24
232 236 231
79 116 19
105 118 228
201 137 69
126 53 56
155 77 119
138 251 191
25 153 62
163 243 89
94 199 155
213 15 208
161 143 110
44 26 241
11 33 61
1 136 209
154 211 164
218 168 232
229 67 182
240 176 100
254 28 5
159 97 135
51 107 5
81 201 147
241 115 237
181 214 118
131 99 136
9 198 102
124 153 182
135 63 131
125 234 182
220 180 84
36 132 45
230 177 125
17 53 146
164 163 56
245 107 87
121 205 140
133 140 181
237 151 44
243 167 65
1 226 93
198 253 188
228 85 81
23 102 234
68 10 124
226 162 78
98 146 125
76 87 147
208 239 186
167 241 46
248 78 207
161 101 133
88 23 2
59 160 247
228 237 20
249 54 151
83 104 100
61 254 250
38 218 152
21 90 249
66 216 212
43 104 100
190 51 67
51 250 34
171 233 212
169 158 23
211 224 137
31 128 208
45 99 123
117 47 231
169 150 38
115 220 142
61 114 55
128 195 166
53 254 176
90 21 30
0 171 25
19 107 34
68 59 223
35 27 182
67 124 11
118 77 16
120 104 166
227 36 24
127 24 85
252 79 133
137 63 249
19 13 53
2 117 198
95 17 109
15 34 101
187 99 12
11 87 81
89 95 167
217 150 196
196 200 122
12 127 25
247 112 191
124 3 187
241 158 146
93 136 164
239 13 225
157 55 212
131 212 183
7 254 180
9 129 252
60 11 205
174 49 36
108 56 120
234 106 193
106 30 8
206 108 140
22 0 166
208 198 228
180 12 160
0 17 117
75 37 37
244 226 78
63 149 28
146 84 146
65 102 73
66 118 173
187 152 60
123 239 162
159 221 232
20 20 148
211 212 215
52 185 49
123 235 184
17 79 127
39 80 92
50 96 174
177 41 171
105 36 13
239 109 66
101 43 65
172 121 98
144 133 55
243 239 171
235 20 206
250 190 79
174 54 76
216 138 232
85 153 134
82 192 158
98 181 9
120 185 153
65 167 138
210 80 22
146 107 4
78 251 56
164 106 238
178 51 95
239 109 94
38 172 178
120 251 41
36 228 20
214 110 209
18 22 100
48 31 48
152 63 102
186 195 155
222 4 150
179 163 107
181 129 55
77 147 230
7 92 220
174 131 38
34 228 21
251 129 162
89 147 113
124 95 31
127 33 212
149 137 116
218 2 218
145 245 138
165 150 199
140 83 44
145 231 17
8 167 119
22 2 79
186 155 109
66 179 238
198 182 126
155 234 189
166 154 243
206 64 129
227 71 59
158 57 76
19 122 156
194 184 50
62 80 89
32 155 25
114 186 175
181 206 188
227 9 69
215 35 115
120 33 0
146 96 247
70 5 209
128 217 101
227 137 220
237 211 105
222 116 79
50 24 197
74 194 126
253 59 151
174 216 116
225 111 186
229 64 84
209 128 172
72 148 17
116 117 128
70 73 103
231 174 67
202 31 230
102 175 95
90 132 183
56 41 134
10 86 171
120 251 15
48 231 197
84 76 110
180 35 0
244 56 11
231 4 170
190 83 197
189 246 233
235 244 14
63 181 125
0 133 72
232 215 166
131 131 175
22 152 218
181 128 131
166 248 74
174 172 226
235 225 197
145 34 192
49 29 145
249 203 83
56 251 217
17 221 177
137 54 224
53 59 90
129 112 223
83 22 31
89 144 197
160 55 128
178 23 200
104 51 65
70 243 1
1 162 222
4 11 47
121 22 44
190 120 107
158 96 59
254 212 78
144 40 203
85 23 187
43 175 59
102 95 153
134 141 233
168 44 122
138 35 17
146 11 99
186 222 81
251 89 48
119 188 111
14 15 56
174 85 88
235 34 37
136 64 180
2 238 232
39 212 15
231 24 163
0 181 17
44 176 89
90 197 205
234 123 40
252 76 164
9 162 151
236 27 88
139 43 116
106 242 193
222 92 210
171 15 96
93 46 218
73 243 108
207 197 49
74 89 139
207 215 210
46 96 178
41 205 159
29 239 218
232 51 148
153 141 239
14 35 145
137 38 11
152 195 84
239 252 180
184 146 215
173 167 198
10 202 100
73 118 64
116 99 2
115 41 82
148 10 201
227 30 222
122 75 236
25 76 1
79 212 19
81 76 15
107 216 105
211 148 147
220 77 242
75 139 195
0 118 187
38 100 99
99 44 125
193 228 38
37 82 190
11 102 230
103 105 249
246 233 173
181 86 113
130 85 252
98 162 53
88 167 114
240 133 213
53 130 11
204 43 62
96 242 252
230 91 59
171 159 213
9 254 249
30 44 160
116 135 250
89 147 176
83 33 120
209 253 128
22 39 195
235 238 203
169 146 252
150 41 203
31 209 217
48 195 96
211 238 32
157 92 112
31 153 11
104 118 116
119 90 245
123 186 49
254 90 180
118 194 102
234 193 47
230 1 237
174 113 5
54 155 151
162 181 139
20 240 4
90 188 243
80 21 80
250 69 171
117 120 154
8 123 11
11 247 55
185 170 4
140 177 195
29 110 250
188 194 129
250 178 8
31 54 55
153 208 29
120 165 40
111 50 80
235 106 167
25 138 210
153 70 207
29 104 80
65 42 91
226 171 116
54 89 51
23 38 94
15 17 158
18 36 165
181 84 49
59 28 164
199 174 181
41 61 98
251 84 84
136 170 61
59 119 213
152 180 3
118 241 253
153 142 138
63 61 96
126 40 134
240 160 253
67 186 22
187 235 87
187 13 126
10 214 193
121 219 7
133 121 72
150 246 77
163 27 240
107 179 238
146 168 179
133 95 154
43 168 22
123 214 142
247 14 154
106 49 63
23 86 38
144 127 67
54 22 190
69 215 120
243 248 22
206 116 194
194 82 202
177 121 38
94 70 194
201 67 228
98 224 218
177 192 110
194 33 91
52 67 254
51 67 167
163 59 127
199 186 32
157 163 53
122 212 82
210 63 215
173 102 144
205 124 179
161 208 253
17 235 57
152 47 231
187 156 42
240 18 198
66 151 194
131 236 13
194 28 24
103 116 72
70 217 199
214 107 54
135 221 35
207 13 170
181 128 104
225 253 7
176 13 163
104 28 249
68 140 131
41 107 211
110 197 141
194 227 202
94 149 246
88 32 83
106 231 224
168 97 76
192 179 92
188 30 122
150 221 219
56 248 235
24 195 42
27 122 50
12 55 132
245 150 35
128 166 95
197 119 177
212 242 74
144 232 249
98 215 55
198 137 176
93 218 221
154 157 131
124 115 254
134 72 50
115 57 116
222 78 58
49 16 3
179 39 26
253 236 150
44 145 146
84 126 60
109 111 95
84 124 59
54 77 32
139 203 174
219 93 243
238 194 61
93 194 46
22 51 151
194 212 203
81 98 121
10 248 35
116 60 109
72 15 141
220 117 33
230 250 138
83 66 203
221 58 213
123 69 10
32 4 43
44 171 52
27 105 35
197 251 135
0 29 236
133 113 104
119 210 74
160 143 30
10 195 15
62 90 171
162 44 137
232 92 158
229 141 103
200 251 45
127 182 158
170 53 97
61 252 156
90 98 253
244 190 113
136 222 209
240 227 49
214 254 61
141 159 183
193 50 111
170 11 182
7 47 112
46 150 176
251 225 232
63 128 10
103 253 35
215 115 65
202 33 153
112 204 124
28 4 76
46 233 41
15 46 109
234 93 43
80 109 155
66 161 20
174 225 252
158 235 11
146 24 151
232 183 179
56 104 240
207 59 79
249 214 192
247 214 49
246 194 233
125 102 67
158 185 159
210 28 161
19 10 148
231 26 62
42 2 114
151 111 197
177 207 147
117 119 171
160 134 82
77 246 73
57 234 233
44 128 121
19 61 155
110 83 195
177 157 27
248 66 210
95 52 228
171 95 43
222 223 30
16 27 233
187 35 70
68 131 10
17 52 225
8 91 211
154 229 83
199 234 25
69 228 121
11 159 165
57 3 121
53 24 153
144 250 178
61 147 220
97 151 164
38 66 0
125 88 44
42 10 65
172 73 106
32 236 97
191 65 50
234 27 74
71 18 7
38 136 45
121 198 233
62 38 182
157 133 128
32 61 146
113 81 39
210 117 215
217 114 55
200 14 181
235 199 219
11 228 85
31 113 39
154 122 135
15 17 17
91 184 212
118 195 188
132 214 97
253 102 215
153 141 201
70 154 107
85 247 189
38 183 140
231 30 114
96 38 239
36 240 171
201 31 244
6 47 170
107 135 240
166 240 218
92 20 135
177 103 160
180 3 89
191 153 84
52 235 98
234 238 162
194 2 177
49 73 198
163 88 72
187 140 249
161 91 208
189 49 123
133 92 27
91 160 161
195 93 18
43 183 80
195 132 66
79 62 188
121 150 5
101 4 212
101 70 221
227 175 31
216 216 191
62 43 231
54 89 60
15 56 85
140 113 185
133 220 103
144 249 125
170 215 110
235 19 98
114 138 100
77 213 198
18 225 254
215 240 98
163 233 216
117 150 0
140 49 35
53 3 161
165 68 91
47 83 253
22 65 235
130 109 148
67 246 79
13 220 135
224 135 131
101 14 240
155 39 8
31 161 161
190 59 126
172 38 53
56 237 226
17 162 19
53 131 12
27 33 180
25 21 198
150 190 252
229 36 25
10 234 12
135 45 27
124 199 12
171 166 132
35 228 52
140 253 22
45 154 150
120 35 121
208 85 23
96 48 124
220 69 163
224 19 33
150 123 215
73 44 176
85 101 186
231 99 160
249 13 54
154 2 172
116 200 252
100 36 54
182 80 189
90 228 185
229 251 207
168 147 80
74 158 166
75 131 157
170 93 49
188 90 252
42 245 154
210 81 109
238 81 249
196 59 150
176 105 199
235 0 80
203 169 150
3 146 106
127 155 232
193 65 106
103 248 144
245 216 105
246 143 184
8 21 34
32 61 224
8 17 137
1 128 237
44 54 13
167 184 231
218 83 211
188 1 64
5 231 45
72 100 15
15 89 245
220 19 137
148 64 82
174 173 97
48 62 45
67 19 7
117 167 57
112 155 168
13 90 97
154 131 213
26 44 208
188 120 85
167 233 103
15 166 31
247 228 181
210 136 73
12 229 158
222 247 156
165 0 194
192 140 68
65 194 235
211 225 97
49 55 210
6 5 2
9 249 204
128 79 21
31 201 151
141 120 95
188 135 3
175 244 144
76 180 149
163 183 130
238 90 135
240 234 248
190 191 162
100 210 222
28 198 211
59 244 90
141 50 144
53 199 27
160 252 170
240 19 97
230 39 77
80 37 37
173 47 108
102 62 28
116 223 160
119 14 132
136 63 38
147 225 125
13 151 224
76 116 178
175 56 96
164 241 252
246 166 57
107 104 3
204 240 225
21 197 16
58 131 220
64 213 113
0 11 111
110 121 88
58 228 199
184 18 82
248 176 175
1 144 67
17 28 96
72 14 196
86 201 198
10 30 118
110 239 34
94 15 223
206 15 209
40 151 72
111 249 32
78 198 240
28 159 201
168 51 24
47 105 5
181 168 218
156 144 10
229 97 203
18 155 236
116 211 210
194 32 235
92 75 76
117 105 38
191 247 149
159 110 192
178 101 52
215 50 205
79 131 96
58 250 31
200 128 156
30 107 205
76 2 42
1 183 57
13 222 52
135 66 38
108 3 2
112 252 205
58 202 134
122 29 143
102 99 128
218 179 80
47 38 172
48 141 108
174 213 184
89 99 230
2 105 68
120 238 1
155 139 22
207 33 212
145 38 223
145 82 241
118 209 15
24 120 120
31 91 100
207 119 13
7 135 158
179 62 103
66 88 237
21 89 62
28 185 99
39 9 91
63 97 184
202 47 86
182 93 238
66 160 241
12 86 44
224 81 111
184 220 252
154 39 241
141 155 9
149 111 158
91 123 62
101 222 167
103 118 68
235 127 55
62 203 107
242 182 237
205 172 34
166 206 81
77 45 48
143 139 24
196 128 34
46 56 96
100 153 196
244 82 176
199 245 45
45 63 134
217 173 53
31 127 215
33 230 60
87 177 103
95 181 167
33 252 178
139 89 87
151 9 47
228 61 179
219 239 172
229 26 160
161 160 159
232 71 12
46 34 3
120 21 207
39 14 185
95 79 10
247 218 88
39 103 214
166 161 109
158 166 239
23 232 81
28 41 139
145 95 216
2 72 90
43 190 231
164 231 18
204 122 139
36 91 200
195 82 134
100 207 227
181 162 206
100 70 167
91 166 21
157 129 178
195 39 101
34 56 74
172 175 118
150 133 253
96 73 79
217 124 195
207 254 191
120 115 24
144 55 123
141 116 251
35 221 147
32 30 130
155 19 111
168 30 139
252 197 108
185 248 193
40 249 218
68 103 158
155 95 194
51 111 43
151 231 159
132 220 247
216 252 218
198 245 191
23 252 169
110 200 94
17 51 47
54 5 152
26 118 196
102 114 118
196 249 41
124 58 119
197 89 184
194 3 224
112 15 187
127 235 126
4 49 79
41 188 156
132 121 4
148 77 175
58 210 43
9 25 142
28 94 250
97 134 26
226 15 239
0 103 157
67 16 236
220 79 119
125 194 180
245 150 196
120 17 186
11 246 0
25 163 208
178 43 33
47 219 143
55 104 83
251 213 215
208 154 66
13 191 35
52 147 176
11 3 109
51 20 87
157 21 161
119 200 197
11 156 196
117 97 112
179 29 93
153 114 5
101 246 236
252 98 111
196 223 215
129 56 150
238 100 62
20 237 119
89 56 209
77 123 230
241 5 145
69 243 206
127 0 106
66 179 249
247 232 15
209 189 37
199 10 243
81 23 94
124 197 58
130 59 32
171 199 37
117 33 7
171 208 20
46 138 161
141 90 157
134 93 99
62 135 239
53 84 50
12 231 144
185 135 109
135 246 84
63 156 245
230 113 246
235 227 141
235 69 8
16 24 36
62 8 159
245 103 17
192 16 37
57 49 221
66 152 248
38 147 12
193 235 79
106 74 98
73 48 119
145 20 229
171 16 101
72 106 115
75 234 239
101 142 109
42 112 207
119 88 119
175 126 191
244 165 39
30 234 194
59 89 31
138 119 33
13 168 190
111 179 152
229 158 164
24 55 137
227 245 207
240 38 17
123 135 95
155 52 236
175 240 233
130 186 37
54 199 82
132 153 63
33 179 246
8 174 181
88 35 95
226 62 146
100 70 253
76 175 198
115 186 78
27 11 43
227 129 230
113 139 22
29 48 217
101 231 113
221 126 42
14 188 39
175 16 216
253 145 135
29 160 23
138 217 42
1 72 81
34 33 241
87 161 34
92 46 214
214 33 125
47 25 166
138 54 102
66 25 142
216 243 18
134 165 228
85 173 65
26 232 237
211 164 200
13 145 162
36 153 181
225 77 167
164 10 12
105 123 132
180 239 136
19 174 185
124 86 63
85 214 160
200 47 62
229 230 100
234 163 117
159 200 1
130 236 98
28 182 252
88 54 172
64 232 168
199 223 203
111 129 247
94 160 65
20 244 152
172 84 194
198 143 191
44 209 195
36 121 132
181 16 59
58 243 62
89 60 99
2 22 70
128 16 139
163 86 176
224 33 9
178 63 181
147 55 203
43 45 28
166 173 231
41 56 249
245 81 73
27 61 142
51 241 145
58 164 247
193 247 191
106 222 244
28 222 88
164 106 104
80 66 58
199 95 47
53 223 142
129 190 211
197 85 208
143 126 58
4 172 238
198 161 225
6 54 168
117 229 11
156 230 47
44 152 197
98 238 109
219 15 123
83 187 159
140 235 191
134 116 150
24 253 219
107 247 201
180 200 109
249 82 78
138 67 144
57 221 107
25 238 225
188 143 52
106 35 78
90 39 216
114 224 83
69 215 213
35 103 84
242 129 6
69 186 184
247 204 168
11 169 65
156 233 79
179 161 60
90 151 67
238 159 227
119 59 203
194 237 94
19 27 177
177 176 147
246 93 173
223 137 141
127 96 175
238 245 128
242 82 6
72 33 195
240 153 5
240 78 134
21 36 115
180 165 61
210 81 101
101 183 109
140 104 131
83 175 111
79 50 143
143 153 40
198 85 221
137 72 90
189 239 253
121 163 111
2 173 122
244 64 69
95 62 250
98 0 90
123 114 241
42 244 155
188 95 212
216 102 205
19 160 190
52 178 98
51 62 141
74 230 218
24 115 94
61 51 7
115 152 200
123 103 237
180 228 74
122 196 7
2 36 75
47 41 231
144 231 164
56 36 34
144 65 76
105 104 250
35 165 143
151 155 152
171 38 244
152 82 236
98 156 153
237 235 56
10 6 199
25 239 25
51 8 160
203 19 39
157 43 207
79 188 196
208 217 175
158 109 173
152 11 77
218 139 50
3 178 33
108 221 7
253 62 65
145 241 131
245 173 152
37 209 94
148 237 21
210 88 73
109 218 146
14 120 5
169 153 51
84 228 94
169 71 175
43 226 25
25 81 211
133 100 229
213 235 228
201 108 153
0 59 84
155 239 147
44 227 186
242 50 157
123 129 89
243 88 8
68 188 218
7 93 183
128 140 27
215 177 110
172 74 114
45 151 177
139 156 132
197 120 49
75 205 194
96 237 169
188 158 37
221 174 86
152 211 98
94 245 69
48 91 130
5 112 250
193 160 124
144 113 248
16 103 218
105 75 233
187 11 26
92 87 36
196 214 95
235 113 65
80 27 75
238 234 110
176 166 111
48 136 181
54 212 37
82 212 59
88 239 235
188 31 214
67 247 126
132 96 151
9 194 36
4 33 237
57 172 217
85 81 235
170 59 107
174 76 205
190 80 228
169 122 233
109 195 101
9 238 190
28 113 122
17 2 112
133 127 21
235 12 78
45 166 148
51 250 230
16 220 51
120 27 48
185 191 157
253 202 73
225 200 231
23 9 2
16 18 254
50 247 91
212 128 220
114 40 17
166 219 238
164 223 74
92 131 76
238 185 131
150 237 84
201 239 171
108 12 133
97 70 245
176 175 60
251 76 166
125 48 1
113 90 239
9 157 189
132 172 45
66 248 130
114 247 77
47 213 81
75 46 25
75 30 99
31 57 117
126 97 96
203 242 146
184 44 130
17 135 122
166 54 40
36 87 19
176 194 248
192 215 128
234 183 48
227 133 230
58 197 7
1 79 8
183 43 227
107 55 4
53 15 91
68 211 241
246 211 27
125 116 27
146 15 48
2 75 228
98 70 159
233 16 172
126 103 221
170 169 98
166 157 248
82 64 156
31 237 82
249 129 53
151 150 11
254 6 252
167 158 152
0 62 4
87 72 213
213 74 135
76 236 225
70 54 180
156 130 218
77 113 16
231 6 179
105 61 251
135 117 131
246 154 220
222 214 173
3 112 159
181 184 1
136 15 42
5 14 142
64 200 229
238 99 130
236 104 80
152 213 103
248 209 183
176 39 191
76 120 204
157 245 170
60 243 213
232 186 179
24 134 163
32 52 251
7 186 79
173 136 2
128 231 220
183 138 115
48 17 240
175 88 96
238 9 146
65 29 62
47 65 240
72 126 140
212 90 209
175 244 75
212 80 20
98 54 145
1 83 201
119 119 98
159 241 3
132 63 251
69 240 125
226 155 110
38 44 12
97 219 49
7 95 124
207 204 194
98 109 17
146 77 13
177 176 221
188 16 38
75 168 93
119 101 0
253 100 116
18 65 252
133 196 151
91 73 192
138 136 253
140 145 71
22 94 155
81 146 224
215 72 68
194 24 91
230 55 226
107 70 198
253 44 238
165 152 7
138 88 207
74 109 102
62 221 3
235 208 140
2 177 254
27 58 184
75 59 198
87 120 152
254 67 114
129 127 191
96 249 19
188 197 173
216 165 185
147 246 171
144 190 182
181 143 34
193 106 239
73 15 228
81 84 2
119 240 38
225 180 45
162 184 138
57 112 169
169 134 123
220 6 194
91 248 41
247 53 116
48 37 76
13 26 100
218 186 71
112 83 130
90 28 195
213 82 151
98 16 3
14 125 28
215 110 229
91 251 7
128 237 211
170 158 81
225 11 61
23 136 11
89 20 186
177 114 75
24 119 104
127 121 155
83 40 241
192 247 50
81 116 132
206 17 105
45 176 221
131 98 7
6 1 27
13 19 84
24 120 210
15 248 46
135 224 11
114 154 11
190 149 128
215 147 187
156 105 252
196 224 241
254 129 127
52 143 168
85 208 114
199 239 185
162 23 90
113 10 242
10 193 252
224 22 48
85 221 155
215 33 107
117 219 35
127 40 172
195 99 165
212 147 33
206 121 133
249 87 197
4 165 237
253 6 179
208 93 71
225 39 136
197 195 86
42 47 254
166 20 212
0 222 117
97 115 194
240 84 218
145 58 133
138 102 252
195 115 163
166 183 247
78 112 168
53 245 45
86 129 150
59 119 5
141 168 149
50 148 231
87 254 86
16 109 164
136 158 52
72 55 52
203 85 146
169 156 104
119 23 34
140 6 18
114 60 116
203 190 84
1 202 236
115 35 106
236 250 221
232 104 29
101 147 249
177 234 241
7 73 179
125 112 42
120 177 32
52 8 28
188 83 182
168 3 133
169 83 141
155 99 4
132 163 192
53 14 202
63 170 98
137 183 90
240 231 100
211 241 62
241 189 71
173 91 54
31 201 82
53 39 19
137 62 195
206 137 240
40 96 240
218 189 32
67 141 168
215 182 89
232 112 144
57 230 104
133 75 217
151 181 226
106 247 181
134 113 215
185 253 188
184 78 171
186 194 202
216 111 142
76 194 157
165 116 247
249 7 65
100 222 136
163 141 89
223 193 115
239 58 250
250 18 26
160 235 16
241 246 226
116 166 120
184 59 252
226 75 49
23 142 159
238 125 158
208 74 230
121 60 180
54 174 233
197 210 159
12 135 236
165 54 54
61 4 4
129 87 87
229 148 37
226 193 93
24 92 167
233 45 30
63 200 79
229 173 70
51 249 162
127 184 101
64 10 243
40 150 194
217 125 221
123 68 37
179 20 64
199 113 180
86 229 125
72 78 107
145 88 143
210 106 233
159 252 211
152 240 148
1 229 240
55 176 21
12 176 0
141 33 0
116 254 137
120 153 229
64 55 66
18 65 190
191 78 174
225 167 223
93 108 123
230 73 154
188 226 150
87 215 217
169 213 88
238 242 242
95 230 243
251 210 97
163 199 38
197 54 194
86 47 231
197 222 213
212 240 69
59 2 219
13 31 13
210 41 127
193 103 58
36 253 27
181 5 152
109 66 126
76 1 93
44 192 173
44 212 202
182 114 71
241 118 26
149 194 46
215 127 42
216 59 11
54 44 71
16 5 160
221 60 200
46 160 79
158 160 6
28 165 158
206 4 12
211 153 135
134 88 56
17 100 67
151 28 185
252 194 235
80 71 104
211 201 149
228 229 58
20 178 117
161 142 74
68 251 19
74 214 213
115 131 171
42 17 167
110 104 138
202 82 104
60 114 175
48 51 213
15 82 109
157 192 67
31 183 46
238 72 146
119 244 214
85 26 187
164 232 41
101 9 227
85 188 203
178 206 161
181 129 66
167 9 86
114 78 158
79 186 153
251 248 113
234 138 46
250 93 82
123 11 26
96 120 87
194 59 2
67 7 131
216 197 0
179 141 17
206 13 172
56 177 42
41 224 130
207 243 192
87 227 38
228 177 44
213 16 114
188 95 178
141 52 180
183 37 50
155 183 18
161 205 71
240 194 115
119 75 152
108 51 116
22 79 155
29 188 172
139 73 252
235 87 37
149 78 9
101 60 250
21 170 197
24 222 151
42 203 119
152 137 70
235 4 153
132 169 16
19 19 42
198 25 237
128 133 39
195 124 18
250 203 110
110 149 80
73 102 183
74 58 128
127 16 90
90 148 248
154 130 105
129 158 113
162 79 16
164 29 24
46 128 142
79 152 246
227 164 34
38 183 43
44 95 9
64 65 206
157 253 17
176 169 213
240 208 160
157 124 194
96 49 8
138 138 237
128 162 182
34 93 159
233 76 76
84 229 45
55 189 68
143 66 27
115 209 254
240 140 12
207 95 14
217 76 13
115 176 36
149 197 189
192 35 3
51 49 193
143 21 166
133 9 72
245 134 155
154 117 227
85 110 39
63 245 192
143 234 71
72 152 51
127 205 227
129 170 9
1 79 48
23 206 11
95 107 12
249 40 186
216 188 218
191 182 236
157 119 58
10 116 135
131 166 6
15 54 20
124 150 248
231 36 55
194 53 177
219 115 66
213 29 130
149 244 31
195 53 187
116 9 209
219 226 160
222 46 32
121 50 10
206 233 186
0 223 232
239 220 163
178 110 146
148 156 137
110 204 168
167 62 19
141 50 214
120 191 141
2 132 67
188 213 194
55 187 137
219 124 42
178 237 226
84 131 87
167 59 130
174 83 155
70 144 171
28 175 6
68 40 62
35 125 22
215 45 216
33 187 219
12 88 246
141 49 138
128 252 119
78 101 79
199 168 38
144 156 133
165 237 37
232 85 72
228 36 252
104 92 101
196 116 121
241 226 119
221 110 146
5 52 234
60 220 26
45 231 24
236 230 107
55 108 80
107 162 140
82 37 116
224 200 7
30 251 242
35 67 192
32 123 206
216 62 34
167 117 200
200 19 252
63 167 13
186 156 91
197 217 143
35 116 27
79 25 54
31 91 217
175 64 130
174 33 53
248 36 167
152 98 55
205 2 15
117 62 67
87 178 42
134 77 64
177 210 62
70 122 193
45 155 155
219 62 82
37 236 206
195 245 213
162 217 252
6 93 101
190 77 200
178 41 160
130 184 24
101 161 12
17 22 241
241 12 162
65 194 231
249 122 248
207 145 245
135 54 100
51 120 35
52 254 80
3 9 42
187 182 66
200 156 130
161 179 215
43 60 56
143 90 36
55 43 24
72 13 78
115 204 157
166 40 102
77 53 92
245 195 110
193 237 198
224 187 65
3 192 70
96 27 252
210 142 69
59 212 135
95 237 147
198 46 91
172 104 201
191 186 241
80 103 18
1 242 240
11 35 115
145 76 221
32 129 138
44 233 120
174 113 35
90 88 169
251 244 50
208 205 1
139 90 215
179 161 167
103 155 39
201 156 160
211 20 66
72 31 195
238 43 116
188 88 60
232 161 159
71 97 202
247 189 155
224 227 82
145 34 5
228 166 12
154 189 148
120 68 177
18 241 158
12 23 179
190 113 79
176 182 151
3 149 42
240 33 139
4 184 38
195 236 2
135 20 12
42 108 22
168 81 199
166 203 73
174 51 90
9 249 170
99 162 136
132 138 71
177 178 75
205 197 246
7 221 41
226 148 24
218 137 56
110 137 37
201 133 114
174 118 73
60 56 203
150 131 254
131 161 200
6 206 237
125 181 0
23 80 72
220 178 7
3 125 5
6 5 113
213 194 45
159 40 74
215 24 151
42 129 194
150 198 6
42 233 253
145 69 128
37 236 144
150 184 72
203 194 206
51 159 69
31 199 38
211 64 215
118 187 216
25 187 111
110 137 123
132 153 173
138 159 179
74 222 213
92 51 52
141 87 110
53 81 175
44 32 173
156 222 25
14 141 105
35 169 103
57 101 245
72 196 198
47 109 49
123 115 3
48 17 124
250 202 23
108 61 31
229 199 192
101 181 14
107 171 243
119 188 148
144 107 39
32 181 158
39 66 30
105 225 193
125 89 117
48 172 123
180 116 21
236 116 183
5 45 185
41 235 61
221 234 37
4 117 161
213 16 23
117 130 165
209 251 216
165 106 89
226 89 169
151 142 25
224 119 197
84 98 67
13 21 30
227 82 83
23 189 233
218 218 21
103 7 207
136 200 20
221 88 172
84 209 134
247 123 20
151 56 222
117 234 157
203 182 248
203 225 20
124 250 7
242 192 146
100 124 37
181 140 183
15 123 47
134 211 186
122 2 98
36 26 38
168 168 227
64 247 199
172 23 121
82 86 195
234 72 134
156 162 201
42 72 181
74 157 197
37 130 45
128 116 209
201 73 150
122 146 59
129 0 34
242 102 127
56 150 89
87 170 154
230 246 60
191 88 148
75 49 180
65 97 201
190 142 37
218 102 39
65 12 12
179 167 152
133 86 213
149 167 142
128 1 233
112 71 51
213 218 213
15 209 46
150 251 133
44 87 250
216 4 141
120 98 166
148 33 49
236 8 211
68 193 173
130 185 47
2 28 227
162 79 73
94 62 1
26 224 1
126 234 70
43 73 45
33 29 180
200 84 31
221 194 242
199 76 242
247 238 215
88 8 116
62 238 208
178 10 137
63 102 174
146 154 250
248 184 186
100 199 110
238 13 26
189 201 123
104 76 217
47 231 168
159 92 155
47 51 138
206 22 97
58 238 123
84 21 215
143 116 201
131 24 151
151 177 254
178 190 130
169 40 180
135 178 90
107 214 225
162 138 158
236 217 221
57 214 6
96 82 8
232 31 14
234 243 231
210 40 110
116 17 205
191 135 188
1 59 181
80 129 210
188 254 160
147 55 125
245 216 134
9 93 132
188 132 53
65 231 215
61 14 131
123 157 20
116 67 126
27 85 95
169 10 238
166 41 75
175 31 206
134 117 211
48 10 252
246 228 80
199 213 39
248 88 160
159 40 11
139 126 36
228 78 30
34 49 4
222 16 52
243 254 222
224 186 131
15 61 104
143 133 122
146 49 232
225 207 4
149 159 56
182 214 134
216 196 9
216 183 2
72 55 71
67 69 188
122 62 252
97 209 107
87 54 137
140 238 148
79 153 10
74 32 190
135 94 51
165 66 254
20 178 44
47 88 127
48 196 6
44 146 79
31 213 84
245 231 77
235 103 215
213 71 230
208 22 221
22 3 113
98 129 36
121 200 148
218 58 45
245 3 251
96 242 47
206 155 249
144 235 23
86 150 209
161 149 136
28 213 88
98 247 21
128 163 63
125 229 244
30 216 147
201 66 77
184 216 248
97 197 153
196 251 225
171 201 131
186 58 24
189 87 222
48 24 225
2 83 2
35 194 122
103 35 105
118 146 149
224 29 109
159 206 152
248 12 45
32 105 127
15 178 186
71 122 51
189 79 228
104 92 84
81 66 160
238 161 114
188 127 133
166 157 146
46 140 192
221 162 215
228 78 225
248 68 225
43 63 235
52 164 20
106 2 165
13 223 133
105 118 176
112 245 38
224 237 105
166 89 225
11 154 155
88 192 92
38 224 219
54 157 194
78 81 220
184 182 20
19 56 233
166 33 231
214 78 60
197 104 212
158 168 86
54 69 17
241 49 128
8 233 158
96 240 161
253 56 11
110 182 190
29 0 9
25 103 62
120 199 112
196 104 191
196 105 26
48 177 233
179 70 154
40 33 87
245 146 92
86 144 171
121 249 15
189 138 246
246 59 159
175 136 204
147 61 79
30 91 62
180 86 0
64 224 91
140 184 81
75 147 98
222 66 1
239 172 233
120 235 159
75 227 180
110 132 113
239 99 192
180 100 92
23 150 137
41 189 211
206 194 166
173 94 151
121 26 96
214 250 136
252 241 99
10 169 68
33 124 2
32 18 129
44 171 62
93 18 193
125 10 118
206 54 152
158 89 138
51 30 53
33 81 133
0 235 120
121 240 13
20 242 41
200 66 49
234 147 30
156 2 61
234 35 191
190 167 76
76 39 93
16 176 188
77 50 95
64 60 157
161 231 127
20 167 12
29 38 38
19 133 194
63 146 85
218 162 56
145 226 152
112 209 177
247 100 220
132 43 49
4 40 195
3 101 141
196 248 217
80 45 108
166 111 217
135 201 184
72 79 238
53 107 253
234 146 251
224 195 83
130 2 165
187 10 101
210 89 178
161 102 9
21 130 116
99 175 154
236 105 69
227 63 102
119 91 39
86 244 47
40 71 8
234 151 19
236 73 183
197 163 11
83 61 53
109 202 48
38 188 139
49 244 139
101 111 242
7 41 179
219 129 150
223 98 152
244 247 167
158 104 118
206 45 212
238 42 120
228 190 38
212 18 100
114 142 167
29 22 243
184 117 238
188 125 236
187 41 0
203 56 6
157 226 240
118 68 177
212 163 229
203 29 60
17 110 31
232 47 18
31 137 191
251 176 250
49 21 195
179 27 131
225 215 243
212 201 71
31 48 87
33 210 229
249 66 65
77 160 202
12 64 207
161 205 185
102 11 105
82 44 61
78 166 45
157 235 233
28 243 133
39 155 90
19 241 51
167 250 147
96 26 175
242 237 13
149 182 155
108 191 241
43 68 197
208 99 21
232 151 175
197 60 232
204 105 246
166 191 163
60 230 138
239 239 69
67 141 111
14 30 212
52 150 124
182 81 52
22 177 179
162 209 250
46 216 218
30 174 16
157 222 166
129 16 149
136 39 29
219 83 237
254 174 44
180 222 122
100 19 150
26 249 39
79 67 228
114 251 123
207 141 204
120 129 178
167 142 151
96 76 159
225 155 148
23 108 23
20 229 151
71 123 168
74 146 126
68 147 192
166 186 83
84 82 1
53 92 74
142 31 7
168 123 94
108 122 223
34 91 99
197 166 187
161 107 154
40 181 23
143 230 150
70 150 106
181 128 79
116 180 253
133 138 9
1 174 76
13 141 91
115 150 91
241 240 167
38 193 127
207 72 207
25 204 62
91 45 132
239 3 6
103 120 22
168 78 54
222 186 112
91 13 36
253 216 251
252 112 78
253 3 46
89 242 160
141 244 198
75 80 61
166 173 39
207 125 247
87 151 157
75 8 181
14 9 107
230 109 6
35 142 110
112 52 63
57 219 96
242 99 73
44 202 177
158 254 9
79 96 11
147 187 164
1 189 24
14 180 33
19 200 170
196 151 91
72 226 134
186 146 242
156 253 177
110 196 159
59 219 129
32 210 14
51 130 199
201 204 245
181 152 91
150 182 133
97 170 87
160 101 67
50 229 196
150 253 241
32 138 108
179 239 197
28 220 29
52 14 99
174 213 76
208 91 210
59 150 153
153 207 75
2 15 149
237 146 145
48 148 42
77 103 50
86 56 217
75 184 29
76 71 37
152 90 65
202 117 109
112 239 53
39 37 173
202 211 98
29 194 109
134 109 107
71 172 217
47 127 25
105 52 185
232 251 250
73 213 4
12 200 68
248 226 211
234 220 55
73 208 227
83 222 238
22 249 231
42 126 183
136 247 53
4 86 235
225 16 129
239 9 53
141 242 172
214 81 70
40 43 22
246 197 188
49 104 119
163 233 231
48 178 114
17 199 172
100 169 234
60 113 227
252 166 190
147 232 29
158 217 77
142 158 72
139 81 148
127 135 166
179 213 189
84 190 124
111 225 233
176 15 185
13 246 167
39 35 240
235 147 65
58 172 95
10 109 219
51 62 182
223 85 236
153 87 165
113 203 31
106 48 194
40 149 75
231 244 21
197 137 218
238 64 112
203 45 69
192 197 218
229 4 189
149 5 12
149 4 150
1 111 161
69 84 245
51 37 228
116 222 245
16 63 53
38 122 82
160 129 83
185 147 201
82 4 225
170 183 241
159 58 19
152 246 251
15 29 71
25 20 90
137 198 105
131 191 132
199 14 239
50 230 13
253 169 254
56 201 211
94 75 125
111 109 122
236 107 209
35 219 172
138 254 45
16 50 248
190 236 63
112 234 13
116 121 12
73 220 4
236 186 116
227 245 74
238 153 155
235 45 117
206 99 214
94 246 235
184 213 180
120 183 140
240 146 38
156 135 241
175 54 4
92 35 97
54 100 106
26 173 156
229 97 82
74 248 23
166 185 125
48 119 194
127 157 246
127 93 119
12 240 180
63 216 119
196 206 63
221 39 201
99 95 119
156 106 110
227 237 15
157 57 132
179 234 87
253 8 216
43 239 135
150 23 181
72 148 109
155 101 86
96 149 142
90 141 61
114 225 127
203 27 252
85 180 102
148 117 49
192 232 89
206 191 55
122 212 70
250 221 24
82 242 68
16 151 247
10 189 25
189 167 58
196 5 113
4 99 103
1 218 81
56 99 194
76 44 244
247 88 56
17 251 2
222 246 241
122 229 4
127 94 27
173 107 157
163 222 27
208 143 151
195 128 26
246 218 151
209 15 35
152 156 178
225 68 71
15 149 196
151 67 196
151 152 212
177 200 139
164 134 170
187 75 216
166 159 248
142 98 136
200 251 54
189 35 198
191 93 150
248 153 193
69 181 240
89 212 6
128 53 253
182 189 33
32 42 50
164 0 55
64 52 18
74 241 118
247 15 108
86 141 63
50 94 60
220 101 3
89 4 15
91 87 127
174 117 15
238 34 66
216 144 153
190 83 126
35 225 120
254 23 237
103 175 88
173 14 169
201 193 132
106 85 124
86 26 242
245 5 254
141 217 129
189 169 21
100 42 52
97 33 194
95 222 138
53 108 174
211 239 193
194 105 31
72 219 78
34 86 225
227 86 158
15 175 195
254 166 21
2 163 27
36 103 61
110 210 222
224 170 91
231 70 185
14 41 239
2 76 152
119 124 0
150 143 75
72 11 127
105 38 224
3 246 99
96 245 222
13 222 188
42 37 43
167 221 240
179 231 183
13 97 71
14 163 132
180 57 232
98 225 84
206 195 247
36 250 132
40 123 0
140 27 122
231 58 7
231 1 16
225 15 4
70 16 97
9 136 114
74 223 122
50 101 56
77 189 17
179 140 196
145 222 227
45 175 13
248 88 152
162 176 32
216 215 241
105 198 227
177 192 49
50 104 80
156 0 67
163 244 144
24 142 115
214 129 52
159 176 172
103 48 45
46 124 172
98 245 67
145 216 46
46 103 22
38 238 254
56 143 137
72 196 41
161 117 6
170 136 99
166 131 208
247 109 197
226 229 178
197 97 153
127 212 219
41 246 17
24 22 232
64 103 200
58 38 231
242 0 68
21 217 115
138 134 56
36 212 82
164 139 186
88 59 229
156 254 244
116 233 165
108 137 135
199 117 140
217 35 71
203 90 89
164 79 55
79 65 3
96 225 202
99 17 21
212 14 164
224 16 226
214 199 148
137 58 71
150 139 241
232 214 100
27 103 170
169 223 195
101 53 17
55 128 99
231 85 201
234 172 94
130 73 225
130 34 202
210 153 51
188 2 33
132 56 218
232 21 162
191 82 250
83 177 143
175 108 69
44 3 102
152 233 153
227 118 172
46 35 239
132 153 216
254 135 60
170 143 150
210 145 117
60 219 239
51 187 136
14 17 0
108 221 115
7 99 32
103 115 84
92 210 98
217 203 195
174 234 19
211 193 150
126 134 24
104 13 167
159 252 146
151 140 116
35 232 80
53 163 106
214 55 53
96 34 200
54 16 251
2 189 230
204 85 166
216 207 130
165 73 50
197 240 9
222 143 121
74 241 40
197 23 169
250 95 36
68 2 109
4 38 118
102 171 46
74 251 56
31 144 162
115 130 221
217 249 219
181 154 12
47 149 144
109 146 198
0 203 224
224 248 40
185 195 194
168 242 241
164 84 153
125 229 164
174 3 174
226 56 224
51 71 218
160 69 204
16 200 51
167 33 6
21 229 26
101 248 9
57 16 249
65 37 184
194 129 107
58 135 32
128 18 101
184 223 171
87 122 112
48 5 175
68 87 179
11 121 95
163 28 52
42 137 243
250 51 130
82 0 200
172 114 146
77 69 193
59 95 108
161 87 179
247 124 28
253 120 75
98 181 210
84 44 138
148 201 41
227 95 3
75 59 30
126 160 152
220 231 126
40 225 206
188 137 2
204 14 231
187 60 176
113 9 200
251 190 144
129 144 198
137 35 187
223 15 202
51 1 40
82 78 181
70 242 108
112 14 2
149 196 10
88 149 34
189 53 145
27 166 191
232 217 165
230 213 74
99 70 163
22 24 78
99 251 221
227 133 40
248 35 193
10 164 253
149 216 90
118 113 178
53 137 185
159 204 166
50 82 184
63 33 235
145 206 12
52 32 218
125 117 150
215 177 114
127 239 9
42 63 145
51 97 77
204 225 158
9 220 125
145 92 235
174 152 111
229 169 89
183 117 154
33 42 111
158 249 195
84 30 49
192 171 2
197 52 214
146 226 92
42 119 231
79 98 162
56 252 78
49 44 132
180 121 119
239 91 82
223 77 181
84 138 162
145 156 192
228 220 83
119 56 82
115 121 74
161 167 107
250 227 44
177 154 253
137 74 22
178 42 45
172 2 1
88 162 175
214 121 10
117 251 115
7 190 219
43 56 9
61 213 31
168 182 48
65 155 142
235 60 173
152 168 38
12 203 191
111 155 23
217 136 155
186 234 36
120 43 43
52 219 181
157 147 65
3 53 115
186 33 55
250 171 164
223 51 139
51 107 42
138 89 143
115 46 18
121 222 178
114 102 148
195 183 239
116 245 214
16 98 107
43 135 219
45 104 163
127 24 7
136 235 88
172 140 149
114 215 188
251 190 85
16 93 77
63 123 209
178 11 85
111 164 109
190 91 217
145 136 235
178 108 72
190 3 180
135 235 15
53 88 52
21 13 32
202 104 153
116 177 11
140 93 52
63 124 192
236 122 98
106 13 59
219 223 162
173 168 123
41 15 167
241 49 82
101 209 74
233 105 18
13 50 221
195 121 247
63 245 119
123 177 227
171 250 162
139 137 159
210 37 176
225 129 181
21 54 62
163 126 9
166 17 81
1 18 233
193 241 113
202 209 241
233 86 67
153 97 6
90 67 147
135 157 92
104 208 242
164 140 88
62 100 27
48 221 117
211 114 62
177 36 177
77 18 9
104 6 167
12 18 112
167 221 231
60 51 86
246 211 163
216 248 20
249 230 51
138 48 96
69 88 159
184 156 42
181 33 1
214 150 108
117 155 0
57 209 16
131 25 222
178 98 62
78 62 47
122 225 29
116 137 17
170 137 232
7 31 218
88 80 79
188 158 121
30 35 65
146 204 203
209 193 0
175 110 233
47 76 159
7 85 172
178 194 132
34 64 107
85 163 232
68 186 212
20 108 174
140 35 60
219 113 119
95 31 253
44 157 142
254 110 243
98 102 215
145 233 125
158 75 236
85 35 20
27 251 17
32 249 89
165 36 220
57 210 250
105 102 208
127 181 85
87 250 233
80 4 115
145 149 54
43 244 218
101 184 164
182 46 232
29 206 156
103 159 81
2 90 42
36 200 236
51 197 156
116 133 193
89 37 232
199 17 148
245 66 169
111 191 107
88 161 171
209 117 96
169 197 117
199 34 151
19 4 74
39 85 187
193 177 13
39 140 85
9 146 104
187 248 55
136 98 81
39 173 110
46 52 53
141 245 146
3 197 197
167 240 183
234 176 159
62 231 189
210 100 79
55 186 30
112 88 207
75 172 219
29 82 91
70 175 253
154 13 246
84 135 0
209 150 157
181 148 39
200 239 193
252 229 149
207 228 195
217 153 56
211 164 232
82 35 68
58 210 82
142 154 17
149 118 203
72 1 181
136 210 31
138 148 13
39 72 252
170 184 138
159 160 3
235 244 227
65 153 170
42 222 113
123 233 64
187 240 53
120 24 89
73 240 31
188 230 60
106 12 180
169 121 77
93 76 159
151 162 133
120 137 10
86 147 32
244 107 66
135 168 66
207 215 183
88 128 219
62 39 157
187 103 5
252 67 45
146 48 28
204 210 88
23 88 34
216 127 104
15 193 10
85 108 79
201 238 129
197 201 173
58 134 61
75 76 47
87 179 143
20 192 196
32 115 65
224 254 166
132 161 184
53 168 79
88 141 103
99 45 204
19 51 30
204 182 144
150 234 144
117 80 68
58 19 120
198 48 210
127 104 17
159 7 91
195 141 61
135 94 46
178 180 245
47 78 29
67 136 14
211 171 222
180 191 46
99 251 149
60 66 138
140 120 134
47 183 243
236 39 60
206 140 121
99 102 102
26 42 238
168 240 205
26 61 115
6 184 129
94 101 115
37 88 6
3 158 120
17 1 46
243 47 78
95 127 126
13 4 166
38 62 138
18 1 127
67 19 31
231 225 100
127 23 215
247 203 235
82 65 242
236 244 86
103 228 43
85 243 68
20 105 203
37 236 213
92 180 6
113 19 190
155 235 243
29 153 201
215 99 51
247 44 230
203 212 242
145 154 34
115 27 9
47 213 142
49 56 17
197 2 63
239 180 233
227 147 47
142 132 168
14 116 162
80 215 156
202 94 68
119 29 112
85 55 25
133 216 93
72 146 243
20 128 200
53 170 78
117 168 60
178 65 4
237 87 182
89 57 102
64 97 52
149 164 235
88 26 160
213 27 37
155 179 0
16 176 30
97 67 114
30 144 175
168 80 155
67 121 57
85 171 46
67 103 106
139 9 138
248 238 201
56 136 40
46 234 152
67 67 181
237 41 211
88 47 104
244 29 167
120 251 10
112 68 54
198 19 100
141 205 210
188 113 40
59 250 62
95 155 29
108 113 14
125 66 73
55 144 226
183 87 215
85 82 95
162 250 177
150 51 139
9 150 218
249 254 154
24 117 205
110 224 210
3 117 19
152 121 32
51 132 209
60 251 178
144 247 236
199 168 148
194 74 132
136 31 4
246 154 72
151 133 57
51 166 254
14 85 183
228 152 102
54 120 208
147 176 136
12 201 68
79 61 155
70 111 191
224 39 238
64 152 158
62 247 62
139 155 80
241 53 105
162 196 197
89 166 10
162 225 67
102 141 238
85 16 47
88 169 124
237 104 39
92 181 147
252 48 22
51 204 92
218 204 147
238 248 75
224 22 15
169 150 113
54 245 55
180 104 182
4 211 211
8 124 165
189 129 108
57 212 68
38 200 37
180 20 5
136 69 57
172 176 207
215 158 192
115 207 224
136 227 227
202 77 153
2 80 203
236 63 17
67 242 149
50 197 173
164 175 157
224 122 9
245 41 167
166 169 157
159 176 92
29 176 75
63 10 143
246 40 26
193 238 87
6 228 215
36 166 21
23 218 97
6 172 128
237 252 67
90 76 60
131 226 130
165 63 5
106 142 253
78 181 22
146 245 104
242 185 87
243 11 236
210 41 80
214 39 58
163 180 54
125 208 126
79 27 211
153 106 114
125 135 240
76 174 60
251 41 51
160 47 202
129 225 15
191 224 18
117 15 185
191 17 208
151 138 10
207 157 206
51 250 238
125 242 207
213 50 54
121 46 148
44 71 197
172 10 209
83 39 168
81 50 171
52 13 227
209 173 236
187 214 21
2 135 14
108 25 40
189 233 177
252 227 130
233 248 10
180 174 90
39 52 71
210 67 93
25 27 198
10 38 185
47 184 169
131 42 44
96 150 173
77 204 81
161 29 150
17 53 241
202 183 100
190 31 55
87 61 130
180 27 34
15 247 215
190 184 177
133 47 69
229 210 138
233 236 36
26 18 88
242 155 61
196 244 34
233 206 58
248 123 191
200 47 161
40 85 182
23 240 27
46 201 46
130 193 74
39 132 201
11 236 138
251 194 110
181 236 153
91 196 40
86 220 12
27 186 84
48 40 83
59 39 142
211 93 23
6 87 108
161 177 142
64 197 212
187 178 197
98 9 244
210 217 15
65 227 134
156 214 246
140 32 153
170 110 174
51 236 220
153 59 29
140 16 151
114 88 42
41 7 120
115 4 194
14 64 55
148 67 109
224 182 209
211 41 108
29 8 195
103 67 193
165 221 70
104 140 227
175 55 119
161 89 120
74 248 58
170 153 166
91 52 117
8 90 229
29 242 159
115 122 235
167 161 213
140 130 209
141 240 119
175 218 0
228 30 215
220 71 53
220 230 8
223 108 0
251 246 187
140 175 229
18 226 235
176 4 25
20 108 220
244 61 1
36 209 44
76 149 218
17 231 131
100 186 66
240 62 128
71 223 203
56 185 155
58 104 136
129 181 7
58 143 77
8 193 182
137 245 206
187 224 234
238 40 116
21 15 3
225 39 189
119 3 217
47 251 100
231 106 176
214 151 164
142 93 206
168 138 223
188 214 92
100 24 155
246 173 111
97 119 143
32 227 131
78 106 102
108 87 169
55 136 56
183 245 153
11 251 144
173 206 176
247 215 219
82 226 179
109 86 53
244 239 146
229 28 8
113 231 121
11 223 246
22 214 13
94 192 66
113 250 62
149 50 43
102 195 197
221 49 84
8 237 120
49 151 25
106 84 171
29 130 254
177 84 118
245 239 239
234 239 3
139 241 55
89 204 144
28 148 200
89 69 247
78 207 129
190 240 45
22 10 83
63 51 58
158 94 26
238 162 81
136 120 137
16 250 239
30 56 230
83 133 42
232 78 2
32 151 10
8 55 118
48 190 54
47 9 71
148 143 203
82 129 130
14 97 118
236 243 65
142 173 139
24 180 170
230 22 224
170 109 28
109 227 246
244 196 123
33 102 116
98 251 190
94 214 114
162 147 90
152 64 25
122 184 169
30 60 81
250 94 120
212 143 74
143 107 112
155 37 120
54 236 102
167 137 156
6 75 1
109 88 196
8 181 221
205 136 158
144 79 134
56 193 29
103 94 109
204 143 63
62 251 23
129 49 174
59 197 145
48 212 27
61 18 230
144 234 47
35 5 223
90 114 224
201 25 78
72 183 18
148 137 93
9 10 73
29 33 64
57 128 45
27 72 163
207 147 44
58 180 17
177 166 29
91 162 217
15 146 193
106 97 38
38 155 242
55 112 199
195 230 167
93 194 113
55 234 128
164 225 103
45 8 27
37 247 195
23 63 56
164 147 199
152 206 150
22 2 104
181 19 146
225 149 55
226 156 58
183 217 24
218 144 89
231 73 96
251 16 47
74 67 27
154 212 71
124 47 111
239 142 108
166 184 74
223 32 247
6 187 238
71 205 21
90 108 48
89 158 243
10 45 79
81 49 75
90 50 3
25 77 107
186 250 234
152 26 177
47 221 55
181 189 229
137 228 108
17 5 252
109 90 223
43 167 248
66 43 228
210 150 80
88 25 36
221 15 72
177 14 127
98 225 58
17 138 115
112 115 227
177 122 155
220 161 146
175 69 210
212 199 212
82 39 189
142 37 163
133 143 210
74 174 203
88 107 158
59 25 178
29 246 33
169 190 97
70 38 199
50 135 118
21 152 54
64 176 87
190 239 131
238 39 143
96 81 148
132 219 48
106 121 158
78 100 248
46 254 37
118 211 51
41 81 168
179 34 22
230 241 18
122 4 21
184 93 58
159 176 79
4 90 187
232 175 225
49 105 134
127 125 108
189 173 167
60 157 109
222 116 152
82 102 13
68 232 120
131 231 213
236 173 151
91 198 247
11 32 223
15 40 100
238 196 114
252 147 34
87 194 148
125 5 95
166 136 71
4 55 41
151 8 46
19 215 9
37 239 111
106 109 148
54 97 129
14 224 109
163 1 248
228 84 36
108 243 97
95 82 178
46 72 123
63 123 8
204 239 216
111 163 21
250 182 152
219 156 173
0 65 49
107 235 183
142 51 21
95 75 25
240 120 247
172 74 246
1 40 66
204 70 107
235 105 205
71 253 240
14 217 70
47 186 134
94 83 26
197 73 99
184 81 112
9 149 250
63 30 14
165 198 19
182 168 149
36 205 169
211 239 6
158 177 97
97 13 193
133 49 76
213 56 38
181 98 207
231 166 153
153 151 66
173 231 212
68 240 118
8 90 207
92 156 91
67 244 107
79 73 205
242 14 139
9 178 140
29 103 55
122 154 66
180 215 13
167 49 42
81 132 46
227 233 237
73 197 253
125 194 171
112 96 224
34 66 243
31 42 187
36 176 20
137 99 162
210 65 224
66 158 13
105 20 232
220 143 106
99 107 0
244 28 241
166 225 244
82 140 85
123 156 139
98 229 176
60 63 50
233 211 222
55 0 48
52 30 42
96 65 17
24 245 181
41 208 188
64 71 25
90 221 126
223 84 190
179 223 130
15 139 104
248 66 97
11 218 169
76 150 181
114 254 149
205 88 112
82 115 42
47 121 87
105 72 237
238 31 26
232 93 187
134 101 249
143 216 145
93 55 210
168 149 135
48 119 233
87 165 253
206 50 147
88 242 201
126 112 250
189 132 34
105 142 95
75 182 73
178 122 162
64 160 172
188 110 124
214 160 210
142 161 136
207 179 31
17 244 220
84 207 185
181 229 180
121 230 201
64 88 84
178 7 78
187 53 152
121 144 208
186 138 133
207 12 219
30 59 134
8 179 76
245 151 195
21 69 15
1 83 221
137 121 40
90 13 62
19 206 91
106 131 119
100 248 91
122 22 184
31 161 192
101 206 42
188 23 15
18 8 165
32 10 140
175 207 226
207 212 224
182 176 223
151 136 107
106 223 39
158 60 64
30 130 105
22 222 247
239 189 136
64 225 170
241 245 91
32 89 137
64 121 90
243 23 178
147 204 112
183 28 254
53 24 177
83 74 32
185 117 93
9 135 183
85 177 122
62 50 150
107 84 87
252 122 136
12 3 50
89 181 7
148 158 5
164 129 222
168 175 20
201 198 225
226 144 180
57 56 193
190 177 183
109 129 208
11 50 144
56 243 137
248 176 130
78 94 230
169 115 182
73 251 108
101 57 99
21 198 135
246 65 224
244 214 179
61 28 177
156 197 135
217 245 139
94 137 63
76 228 183
133 59 184
49 184 198
6 69 48
234 41 180
97 201 232
206 45 27
75 75 211
164 41 218
219 211 253
130 8 43
41 176 169
147 12 171
238 78 68
55 241 14
234 35 169
2 151 30
130 64 142
103 73 248
90 96 30
203 64 249
34 43 191
11 155 173
20 19 49
175 112 221
14 183 98
170 134 99
146 53 2
230 89 74
82 98 218
71 67 4
26 48 237
209 186 49
187 140 231
197 134 117
15 209 93
253 229 100
201 156 235
121 154 220
228 233 40
84 240 226
242 154 69
25 45 118
49 130 11
199 98 212
92 253 38
31 90 140
16 31 165
176 60 68
226 129 45
241 232 150
227 121 124
201 62 221
6 71 58
81 177 11
159 6 1
122 192 196
37 165 191
94 180 245
159 225 145
75 241 66
149 71 1
68 81 218
198 219 130
68 118 228
248 149 132
210 166 112
108 56 2
28 153 87
114 152 52
147 134 66
182 111 19
210 152 240
9 42 100
34 144 67
132 121 82
185 53 232
230 186 60
96 89 90
4 116 62
149 30 15
191 6 196
191 172 125
254 163 218
171 94 246
131 108 13
62 206 96
155 170 187
6 71 25
54 217 170
213 221 192
134 124 100
197 40 174
13 97 141
239 39 101
67 208 145
60 183 211
164 131 103
171 5 84
168 179 73
172 122 203
249 65 150
248 60 71
48 108 198
231 32 224
109 241 228
93 86 131
177 83 176
178 9 55
6 250 253
115 102 117
169 95 157
17 128 21
52 228 114
92 208 209
152 117 86
127 86 253
205 230 174
198 113 16
57 73 102
165 106 16
4 238 45
200 58 126
118 87 221
138 70 149
2 179 218
30 169 79
115 196 92
223 99 46
9 213 238
149 49 207
20 182 64
99 192 120
163 46 175
183 109 185
199 228 26
243 79 65
85 56 86
124 198 59
9 251 62
205 234 127
85 205 166
6 89 52
101 143 146
21 232 164
187 8 213
72 56 79
99 58 108
37 226 161
57 24 221
150 252 86
46 161 39
194 79 146
52 212 218
101 163 126
225 252 70
32 23 243
99 212 134
85 164 20
188 98 65
237 162 89
83 99 127
72 221 41
66 228 214
78 42 131
86 10 220
23 45 61
114 207 5
104 47 212
87 151 204
38 81 131
158 148 117
124 231 246
148 207 181
119 239 60
31 169 17
168 34 59
54 48 147
118 233 193
211 111 130
84 193 131
62 245 154
137 56 187
54 225 203
88 227 61
205 207 200
202 153 35
127 39 74
224 235 183
66 237 242
79 72 134
139 72 69
182 99 113
151 210 124
114 101 55
12 23 229
76 248 138
158 19 192
139 117 70
46 24 38
75 139 145
237 124 95
116 131 9
75 243 51
130 145 71
169 183 239
222 77 138
198 198 46
231 61 141
233 110 83
204 141 142
36 201 94
149 55 187
250 136 41
178 76 163
142 49 67
118 214 223
193 118 142
13 63 227
74 70 122
250 151 196
213 62 196
251 167 203
79 135 146
31 211 65
203 160 82
53 194 102
11 217 162
16 239 30
40 29 67
194 34 33
250 156 65
182 248 164
122 40 41
244 148 15
172 36 58
249 126 14
153 203 219
130 117 109
76 242 166
1 137 131
124 169 193
41 243 40
210 174 45
71 138 83
48 236 146
88 73 65
121 168 161
193 27 128
95 180 203
53 218 75
128 254 75
241 243 241
119 150 229
254 58 93
123 168 245
161 107 203
200 159 109
38 21 54
32 111 174
35 89 66
199 16 142
156 115 108
221 177 185
88 203 233
190 48 73
43 93 232
161 98 50
78 200 220
147 233 70
224 81 9
36 46 88
182 160 185
251 156 15
216 140 27
32 185 125
154 134 73
193 85 34
242 159 30
189 212 32
114 106 87
220 202 159
190 87 121
165 40 148
156 92 138
36 93 132
173 219 10
6 163 95
201 224 199
207 241 193
78 34 59
112 203 8
95 130 238
117 103 145
43 13 25
93 30 155
242 30 244
226 0 99
140 91 128
207 161 165
64 142 183
101 0 189
42 175 213
200 109 198
225 92 254
217 85 238
32 110 132
147 185 194
20 121 143
184 132 107
176 167 22
164 184 152
211 190 82
83 75 176
155 68 160
128 77 20
36 49 206
127 140 146
18 75 112
107 231 101
57 176 31
129 17 68
42 207 157
97 151 150
245 189 144
75 47 253
57 248 239
135 30 20
92 204 142
115 211 157
5 173 81
161 133 129
101 115 25
130 20 24
195 193 29
182 151 153
235 89 86
233 54 27
54 83 150
244 48 212
143 56 140
67 214 65
116 154 217
252 72 139
199 216 144
192 30 39
46 85 8
154 174 233
8 214 113
205 51 197
237 172 9
169 214 190
165 29 110
228 202 238
44 171 152
31 176 162
104 221 7
134 13 203
191 163 11
234 96 243
126 122 176
221 188 163
113 153 237
192 233 153
37 155 111
132 62 106
69 156 129
238 10 154
211 125 121
226 246 77
69 26 23
211 86 237
184 153 27
50 182 62
210 151 237
25 236 31
64 59 232
133 0 49
80 223 139
194 193 26
154 180 153
122 114 150
177 7 156
197 73 74
86 42 8
227 188 65
57 228 253
154 38 89
143 190 40
13 183 180
239 219 214
29 7 178
214 140 9
118 161 164
163 9 251
31 219 35
60 178 153
39 40 17
252 184 115
119 149 57
46 237 83
227 161 71
238 67 224
128 21 47
17 247 136
248 166 60
22 161 44
206 5 24
70 47 98
231 125 126
77 223 153
14 43 13
131 56 227
146 128 196
5 197 200
197 134 8
171 160 241
78 95 188
171 207 48
134 189 77
24 59 59
227 121 184
46 215 152
181 172 106
121 172 250
244 59 212
100 137 178
242 29 185
60 229 109
201 148 173
234 118 61
88 253 135
32 149 4
107 20 78
196 118 226
145 12 27
238 179 151
50 186 93
188 30 63
120 97 228
117 63 186
17 126 197
230 116 53
208 201 15
186 80 93
200 40 207
194 185 126
179 79 157
19 13 229
84 119 231
207 228 168
218 240 243
254 182 252
182 178 25
145 48 229
81 216 215
138 72 30
244 24 233
107 202 96
179 164 92
136 104 54
240 87 161
68 148 248
33 122 62
103 35 95
95 130 40
206 123 156
96 142 153
124 47 254
26 156 6
246 88 169
117 70 148
254 60 226
143 182 64
79 223 245
37 44 81
146 241 139
242 71 127
122 20 4
33 212 211
20 64 81
15 164 76
102 190 241
211 235 37
153 20 156
211 85 220
228 223 169
15 141 93
69 18 188
117 151 33
104 34 230
29 26 235
90 239 47
195 86 150
114 57 22
96 58 182
80 9 235
7 114 35
136 66 38
138 162 117
182 210 105
145 10 96
45 125 61
165 238 217
38 56 0
211 52 42
176 9 134
108 21 231
42 21 228
10 206 91
237 236 242
32 189 23
70 206 214
246 213 248
165 157 46
238 142 32
16 190 191
174 105 80
170 71 161
147 60 2
118 127 212
90 241 182
252 8 57
177 221 175
62 55 139
15 16 246
144 238 89
172 91 113
64 126 103
143 189 141
224 92 41
241 130 222
110 8 116
158 210 87
118 33 165
241 135 15
67 12 105
51 85 198
167 123 165
199 126 75
249 55 211
44 70 51
147 66 184
199 36 121
216 145 77
107 208 127
56 103 16
115 112 133
219 35 0
95 136 127
148 44 224
135 78 237
129 73 155
107 174 240
192 154 225
53 0 209
148 122 238
193 148 241
113 33 217
158 114 143
44 125 192
136 21 61
186 126 227
60 30 233
75 190 50
232 220 29
34 57 94
193 49 47
193 211 45
231 206 88
194 102 39
30 146 87
203 214 58
157 71 24
23 111 22
179 22 174
10 37 187
47 171 245
56 33 95
102 87 218
206 50 229
30 99 191
11 55 205
151 29 113
220 109 117
210 173 21
60 153 253
176 198 97
18 126 242
240 133 124
152 35 130
84 136 89
161 197 156
231 121 138
110 131 166
210 24 140
196 107 42
61 161 36
50 33 182
133 2 89
162 237 139
14 38 41
134 155 241
25 178 205
190 247 104
192 127 95
215 187 161
3 150 16
176 106 97
231 213 247
58 121 120
148 66 9
138 224 244
77 61 37
41 115 163
243 122 124
144 47 126
160 158 110
111 107 62
240 171 79
190 136 38
212 29 206
63 170 147
109 152 58
188 217 209
132 193 79
199 105 91
227 199 35
42 3 213
142 45 40
91 23 212
173 130 210
122 127 122
168 57 7
109 147 1
41 113 210
197 37 167
35 49 161
231 76 69
88 155 154
182 6 176
160 143 34
66 190 204
13 97 222
136 41 33
109 234 13
192 82 112
79 39 37
60 145 5
200 7 77
76 24 231
6 221 116
120 98 8
72 39 226
82 79 160
145 149 191
178 127 108
156 25 110
132 210 247
224 55 108
154 130 163
238 160 162
137 60 177
178 177 130
238 238 34
28 55 68
225 231 226
128 150 237
166 231 51
112 178 190
142 172 189
220 16 239
151 97 206
71 108 23
72 228 222
36 152 14
18 135 208
37 217 21
83 167 151
226 218 166
146 97 139
162 66 132
184 76 211
196 189 9
238 218 144
202 131 121
241 16 17
231 224 30
202 66 45
79 252 75
215 132 141
127 38 13
14 231 244
154 178 87
88 152 24
13 126 244
190 232 94
178 161 51
68 88 187
149 158 140
251 82 57
122 111 215
70 77 157
184 209 212
228 167 150
47 212 253
187 132 199
241 130 42
74 253 98
65 8 158
155 172 206
234 194 94
215 42 202
105 124 234
143 217 238
198 225 45
167 195 166
3 166 150
244 77 33
157 212 43
94 113 134
161 192 78
107 105 60
186 133 11
78 56 162
235 170 201
154 149 169
59 80 89
184 93 66
25 82 175
233 71 193
36 58 126
53 120 222
184 98 82
189 129 72
29 178 177
67 75 20
141 133 254
125 217 50
208 106 173
160 144 165
176 9 210
130 253 32
40 124 205
103 190 171
188 55 219
30 180 186
231 20 226
122 116 168
53 151 128
225 205 94
101 61 98
221 157 33
250 11 226
88 14 186
78 253 83
118 121 116
100 229 66
86 130 218
190 127 5
193 126 144
98 117 21
27 61 65
41 74 248
20 112 185
68 32 216
215 0 249
189 250 19
109 254 137
126 16 202
98 195 95
98 209 245
223 201 222
132 4 27
168 27 234
93 156 155
174 51 205
31 199 182
168 246 204
73 209 143
147 69 103
208 114 196
246 58 175
115 90 226
77 32 216
170 86 121
174 166 84
189 233 180
122 181 43
42 213 205
69 144 244
159 216 239
208 197 67
129 135 70
147 226 151
231 233 20
47 89 213
91 205 214
171 101 191
80 98 170
174 189 110
127 88 145
52 199 36
8 237 196
34 55 197
117 51 38
226 231 226
212 41 17
49 99 4
249 89 94
227 220 205
207 205 127
115 21 41
227 105 177
164 32 73
129 223 111
192 145 60
220 113 134
114 135 101
204 88 98
158 253 246
133 0 188
84 215 147
103 159 52
114 237 134
81 222 38
131 136 184
103 227 203
240 209 51
94 165 127
132 175 121
17 152 78
104 67 235
242 150 139
47 12 102
107 39 63
214 231 136
221 229 102
56 175 140
88 158 29
131 235 211
151 104 59
121 71 121
163 236 223
239 71 38
162 62 92
15 239 57
76 247 239
229 82 18
170 254 131
26 43 96
7 12 116
125 101 126
98 252 164
167 81 167
163 7 19
199 246 186
16 162 160
144 161 45
242 182 1
153 126 68
214 245 72
223 195 94
62 64 244
143 15 222
158 87 113
6 221 36
246 26 238
66 115 196
60 0 147
229 155 67
58 106 81
207 46 250
39 71 54
10 59 162
49 200 67
176 64 141
228 201 27
17 1 221
149 188 109
250 4 79
9 243 233
18 175 204
57 122 101
4 130 93
210 122 93
146 220 244
231 185 113
130 164 246
93 204 161
81 195 13
24 151 247
185 7 240
107 160 108
114 231 120
156 110 189
47 231 89
47 124 129
93 172 108
219 152 193
251 112 17
53 247 39
89 63 182
204 242 226
211 208 101
60 153 64
166 98 174
43 176 32
50 235 125
167 248 137
53 12 107
162 191 24
211 14 160
213 29 187
183 86 66
243 80 149
115 112 160
140 184 4
32 60 22
200 212 84
237 126 2
64 174 26
210 43 137
170 110 90
185 152 147
107 155 230
33 72 35
241 174 104
226 85 34
176 57 126
79 140 100
140 38 136
238 254 244
141 217 224
56 140 103
233 13 171
99 188 183
206 218 77
85 137 148
131 37 209
70 55 142
137 75 137
61 173 104
187 132 195
86 154 230
81 25 125
223 133 241
143 235 199
225 206 76
102 13 121
14 149 117
224 105 107
99 80 216
162 107 0
21 53 229
191 214 178
210 98 124
72 241 251
8 244 18
137 0 217
218 36 50
151 24 174
104 181 67
65 251 120
219 62 235
176 195 195
89 220 174
109 5 170
99 33 72
58 89 209
17 160 227
117 93 22
16 21 73
207 211 60
158 232 177
46 5 228
253 24 52
160 88 54
210 198 27
164 223 164
57 192 212
223 96 226
77 116 212
206 124 132
84 170 173
207 250 203
14 230 119
180 159 242
20 25 238
152 64 47
244 223 73
179 83 154
221 101 55
57 115 219
169 4 85
117 8 172
85 84 232
175 232 21
201 236 52
55 154 130
206 237 161
189 179 76
72 62 187
124 192 143
136 250 41
224 188 11
2 34 246
204 44 153
90 58 82
202 163 115
200 73 149
16 115 181
182 237 164
151 176 167
6 197 73
181 9 19
196 95 99
249 166 250
163 102 43
38 206 110
95 117 34
149 57 203
108 224 164
194 14 216
195 237 21
207 124 211
137 246 250
232 232 159
67 234 77
58 16 96
199 92 120
171 128 246
177 216 131
125 98 184
220 153 210
215 112 67
125 100 33
74 64 33
194 35 58
234 219 158
13 246 187
62 21 67
116 221 202
116 160 108
108 128 28
211 14 244
143 93 186
185 122 176
203 135 148
183 18 142
52 253 0
246 26 222
108 179 193
158 163 95
164 180 79
142 141 101
250 213 222
122 183 233
113 178 166
159 118 182
97 45 242
170 21 244
72 177 77
178 221 243
48 93 222
128 46 29
37 17 240
143 187 31
14 206 23
58 47 109
243 153 84
226 102 214
79 9 32
73 25 188
119 250 57
55 151 28
62 40 12
252 30 188
248 240 228
134 51 152
23 254 13
2 45 140
15 157 7
205 110 96
69 146 107
52 216 58
135 249 76
241 157 52
130 249 223
187 254 115
188 0 226
224 55 51
62 206 38
120 230 227
242 82 90
184 79 6
0 55 92
177 179 127
108 165 243
233 41 237
174 60 99
134 110 37
216 150 113
17 20 74
107 111 228
161 117 245
232 186 114
2 185 122
231 25 58
33 26 177
132 27 90
201 136 42
101 100 78
181 193 252
121 214 105
150 107 114
72 87 180
125 198 243
52 180 239
203 130 95
113 250 148
249 125 75
63 73 202
56 104 194
191 131 39
197 135 6
36 13 25
173 98 96
233 232 86
96 101 233
111 250 204
116 241 228
168 51 211
39 244 63
106 16 15
215 163 36
64 236 160
95 190 140
212 218 156
66 158 164
118 136 98
239 206 78
39 218 253
54 66 234
139 156 140
21 106 238
43 98 97
254 100 249
41 202 163
194 240 101
126 75 101
127 112 163
240 63 49
127 53 207
61 32 142
118 123 239
27 133 169
84 16 244
234 18 88
134 155 216
205 57 219
192 136 109
225 217 128
0 133 152
25 189 168
54 78 119
214 222 3
154 68 178
192 136 158
127 224 158
186 61 241
171 144 25
74 179 50
63 156 206
10 18 9
2 160 1
113 78 177
197 150 113
79 153 63
122 226 64
236 184 180
243 106 44
107 9 41
117 147 96
187 236 153
249 120 98
111 55 241
46 148 44
93 17 87
10 41 14
138 117 58
186 241 104
157 176 47
234 55 29
104 49 167
160 132 4
111 233 25
117 155 77
124 191 116
196 25 232
115 12 223
98 153 82
141 103 192
176 143 60
26 215 76
7 122 178
140 134 136
229 82 57
147 102 216
79 138 154
8 252 99
190 160 113
238 239 86
34 97 42
184 158 14
23 136 29
166 242 233
125 241 105
4 103 76
56 14 207
101 103 75
242 21 246
251 175 182
198 80 46
93 28 71
216 222 15
159 17 111
175 69 6
113 74 204
71 145 5
242 214 220
66 187 93
117 134 24
76 250 207
179 132 107
13 77 84
239 58 197
101 239 192
191 227 92
34 253 131
1 20 212
161 221 5
232 173 72
71 142 29
222 71 107
3 16 5
82 159 55
84 227 1
19 127 236
127 30 207
28 172 139
174 114 144
231 207 22
190 163 20
234 28 23
44 151 234
169 143 206
107 64 95
148 173 26
73 81 97
54 244 98
53 246 165
129 167 142
132 184 203
243 203 47
101 235 194
11 97 102
190 50 14
167 33 43
154 154 0
106 57 184
247 188 243
222 74 168
13 250 76
250 116 245
83 80 184
61 21 77
239 75 38
92 130 160
33 169 90
123 10 166
90 203 131
77 38 174
115 4 142
233 16 188
63 189 17
55 252 249
108 153 133
174 95 37
100 113 45
74 97 251
79 103 187
172 5 105
233 169 250
37 27 43
1 142 146
50 241 192
58 40 218
96 240 62
6 214 120
116 214 248
139 170 62
133 247 40
46 27 67
228 65 142
71 163 144
185 60 141
227 190 29
225 180 196
104 247 60
173 34 24
115 213 24
109 200 75
204 161 245
159 25 201
40 56 73
201 119 54
107 94 92
244 118 83
18 30 7
48 165 93
236 220 27
54 167 125
101 120 31
146 150 105
182 151 149
15 0 44
176 52 181
136 209 156
187 189 78
120 199 143
106 11 134
218 44 162
66 230 139
63 117 132
14 156 203
222 244 113
232 105 249
21 146 65
192 99 133
119 9 19
14 143 184
81 64 60
199 86 209
11 186 198
250 24 158
19 235 133
181 182 41
54 215 240
222 148 41
106 144 104
167 224 158
131 191 189
144 63 209
195 162 29
243 169 124
126 77 90
14 197 200
35 135 218
144 16 91
224 13 70
189 15 210
138 34 12
180 82 144
54 115 141
106 39 188
120 110 0
102 52 142
172 165 117
240 52 48
114 171 88
117 128 18
251 244 106
38 34 80
5 254 6
155 141 189
6 159 180
231 121 246
150 171 29
198 219 116
177 132 75
215 3 109
148 183 84
63 144 29
18 79 192
61 43 122
79 151 234
41 213 163
88 80 169
9 203 171
124 198 89
34 254 78
186 5 117
121 82 165
64 91 250
241 226 81
177 132 148
213 217 234
199 0 32
9 204 47
67 213 108
63 65 222
42 93 46
206 136 200
66 96 114
27 80 252
189 228 189
243 208 59
170 250 232
0 104 251
16 135 97
204 186 217
149 87 27
186 224 227
36 60 6
235 208 121
91 58 23
198 4 69
173 237 12
243 11 203
220 199 57
227 87 26
228 182 25
106 82 125
168 223 23
10 146 8
60 119 181
244 40 104
80 185 134
120 126 241
119 45 60
204 67 245
42 205 97
154 157 58
8 163 177
97 163 145
112 183 70
123 208 253
32 95 0
87 108 73
212 24 231
146 216 178
89 84 54
122 22 107
13 47 167
140 248 12
123 210 63
69 185 77
238 42 33
101 5 102
163 51 58
11 11 16
156 99 94
252 166 53
223 182 226
242 77 124
210 136 202
114 173 60
142 155 42
210 64 89
230 242 37
108 170 116
133 219 128
140 104 205
126 154 15
43 175 245
77 156 101
2 172 184
130 107 246
247 108 83
8 188 63
80 29 142
245 129 108
80 148 159
64 138 146
71 103 30
150 107 45
248 171 41
179 20 150
232 85 86
245 13 246
52 188 19
107 153 66
228 203 237
251 211 226
217 142 222
160 6 209
201 168 2
115 174 227
20 87 11
192 17 218
101 126 12
160 19 166
237 135 212
161 86 237
36 2 72
110 9 231
0 44 75
45 12 97
205 181 238
197 111 6
102 130 195
132 176 65
111 149 211
19 9 226
208 54 204
4 68 133
111 218 75
134 240 93
79 234 191
23 124 246
118 163 246
169 148 226
178 138 8
180 243 132
192 117 72
179 209 2
161 247 191
17 203 85
125 16 233
218 68 105
185 149 194
204 71 221
202 104 202
248 130 181
94 210 60
53 204 217
119 74 24
192 174 15
10 160 119
207 89 80
161 1 199
221 61 233
66 6 215
214 209 160
198 124 5
196 194 239
15 175 73
219 67 171
241 83 176
133 170 91
131 189 155
167 108 159
18 23 180
87 55 228
196 37 131
33 189 119
157 104 230
207 149 238
33 221 195
204 17 50
165 36 48
234 128 152
15 67 49
163 207 93
227 59 198
195 42 112
67 220 25
214 79 235
109 108 149
74 226 223
157 108 60
210 14 240
159 135 61
63 206 17
41 122 222
120 156 200
110 107 179
183 135 229
231 68 167
240 233 187
147 99 111
140 5 191
42 191 204
23 168 35
227 25 185
224 172 174
50 23 74
70 18 163
191 180 241
50 221 206
198 80 25
37 193 126
91 249 251
154 94 225
36 142 170
38 95 24
87 227 146
36 122 233
195 138 26
213 86 160
237 12 189
121 66 228
245 67 222
197 217 23
176 243 43
182 165 216
219 251 105
146 240 124
1 114 148
174 116 81
30 142 251
223 65 124
218 86 141
109 113 23
128 32 163
78 215 102
24 3 211
188 244 39
164 187 162
48 177 37
49 33 249
143 236 186
40 115 181
160 177 38
58 26 17
244 27 229
237 121 9
173 208 94
14 6 37
149 231 39
46 213 181
52 187 74
233 61 47
205 170 96
47 170 39
45 143 168
253 37 81
226 70 20
193 183 205
4 146 80
157 18 1
125 234 238
90 249 98
59 244 202
20 166 115
74 100 225
100 33 57
232 10 38
222 164 117
245 207 106
44 70 86
91 3 174
62 165 111
110 136 64
252 128 80
245 149 233
229 127 219
154 186 0
197 93 167
132 34 151
54 120 218
229 230 163
242 203 162
39 188 139
209 9 46
218 193 198
75 1 226
128 166 162
246 177 212
180 183 139
99 240 37
223 39 175
231 65 244
142 141 175
163 198 247
135 212 21
79 5 239
156 215 147
216 155 229
54 172 111
108 66 52
169 68 70
61 187 182
186 141 3
247 115 170
173 123 223
32 67 227
145 133 92
129 27 234
61 3 59
102 224 102
107 245 61
65 70 114
52 117 205
40 12 223
152 125 93
155 110 162
73 237 192
47 244 100
46 57 18
78 223 62
243 8 121
239 124 76
109 58 214
135 106 19
92 70 187
107 138 224
61 212 97
223 88 52
173 72 149
4 248 74
187 21 37
121 19 74
10 27 189
175 118 150
181 128 254
50 105 229
251 147 144
146 26 49
150 1 228
55 81 239
163 0 213
112 6 169
148 17 221
229 45 16
120 144 7
133 205 172
166 4 141
194 220 25
85 91 170
37 9 128
148 134 27
249 44 120
187 196 141
184 196 103
166 61 216
166 107 158
122 194 234
129 172 192
202 141 71
94 57 212
32 183 68
50 56 200
175 251 126
194 193 148
92 99 7
61 163 204
164 169 139
6 158 189
222 163 58
119 250 59
88 231 64
51 123 69
170 254 196
105 29 89
40 94 155
28 161 185
124 61 165
104 215 142
35 58 59
196 186 192
78 122 22
90 22 15
136 241 244
53 197 87
120 5 235
52 71 219
186 130 152
116 152 2
14 241 203
31 106 195
145 186 241
164 114 76
227 170 111
210 237 135
126 252 6
134 236 22
252 109 142
134 195 52
88 129 172
209 220 54
47 1 186
24 109 74
96 1 251
40 99 226
191 20 48
57 206 98
191 235 171
162 200 93
91 2 245
210 10 76
20 111 91
36 224 110
152 253 200
224 72 111
83 130 233
254 144 140
238 95 170
124 24 81
141 65 209
165 181 201
205 10 32
93 85 150
103 187 163
212 134 246
67 170 90
246 64 113
72 153 25
10 42 117
216 206 113
142 173 172
17 29 118
51 34 181
25 134 98
222 140 233
234 244 126
74 76 104
102 148 115
172 147 180
235 106 217
251 254 200
9 232 179
231 210 244
51 212 182
103 156 26
45 92 185
172 156 129
175 226 90
154 36 176
180 111 213
78 91 54
180 148 18
111 253 166
9 2 93
185 80 236
147 149 45
207 169 151
216 70 191
87 105 53
95 182 108
150 126 124
240 226 130
61 11 25
6 61 145
144 160 134
30 147 120
220 138 105
104 81 124
211 105 25
54 156 30
243 59 68
176 48 130
235 82 175
201 3 146
240 57 88
238 130 106
151 176 222
23 84 149
24 105 169
207 225 56
140 205 65
53 215 108
13 76 61
122 253 185
15 160 109
160 152 47
24 148 124
213 238 120
191 197 82
147 12 201
77 185 197
78 155 5
118 230 150
220 198 202
221 88 97
225 192 187
18 188 214
17 135 180
196 169 221
254 7 131
128 225 219
217 10 117
35 103 9
4 56 152
253 5 169
184 226 57
219 212 11
230 114 229
195 208 252
119 227 63
97 85 83
86 242 139
33 11 31
46 186 226
189 183 218
95 222 127
193 63 23
8 205 240
63 175 126
221 148 130
142 245 177
184 146 26
89 148 89
206 244 61
251 208 89
197 91 131
159 105 111
65 172 70
38 17 185
155 74 197
112 67 156
135 108 114
146 83 187
16 127 238
179 16 0
210 32 162
127 143 177
66 159 64
185 84 103
115 2 111
253 166 88
129 79 201
168 218 106
220 44 237
231 18 13
50 192 31
11 1 202
21 254 109
204 240 65
201 229 181
88 1 178
209 118 91
237 12 35
94 116 196
30 239 234
208 83 69
249 34 120
234 198 27
149 96 178
57 42 21
250 236 38
59 71 203
91 193 195
13 186 125
80 78 104
45 99 184
2 254 42
122 41 185
129 27 40
167 84 184
62 118 7
29 243 157
220 80 121
252 157 128
243 75 96
111 201 16
177 73 179
168 150 252
66 158 136
3 138 222
245 62 45
3 105 195
242 188 218
202 40 36
80 14 119
240 203 82
225 88 57
121 171 30
199 48 205
28 243 53
56 185 32
78 7 35
8 206 244
62 233 93
36 166 49
209 143 170
0 214 51
151 97 49
77 82 137
79 185 12
216 135 79
126 32 162
195 147 204
34 239 95
249 94 139
70 155 220
173 200 42
14 41 180
150 77 34
74 235 75
213 24 87
195 145 135
8 166 62
228 164 148
128 109 60
86 98 152
109 177 227
48 188 190
15 106 71
32 213 31
67 198 89
194 14 168
226 194 172
250 51 251
4 239 228
75 39 3
16 7 138
74 108 87
240 227 148
73 231 108
186 253 168
25 219 220
161 231 80
177 166 244
197 18 92
244 0 242
116 213 95
206 215 17
161 204 65
172 206 177
240 237 69
167 245 206
92 142 187
166 133 235
211 156 125
179 42 212
88 236 34
244 128 130
65 230 131
174 107 249
54 219 92
79 142 242
204 38 58
85 136 128
84 27 85
46 68 192
234 183 25
218 115 185
6 135 180
31 181 178
115 100 166
82 169 51
211 199 17
19 189 0
56 130 180
253 15 27
102 112 32
185 145 110
109 177 231
152 38 3
129 33 162
53 225 243
221 173 116
163 107 189
14 51 128
46 190 102
171 7 153
200 205 104
53 238 90
29 130 67
139 77 209
212 1 106
10 115 1
72 118 24
71 1 185
228 152 249
49 58 151
74 114 167
0 198 152
183 201 115
19 231 94
46 54 63
94 182 168
86 29 0
130 73 85
108 48 98
190 81 109
117 5 114
107 190 194
203 120 57
12 93 62
62 30 201
99 229 79
2 171 248
67 197 230
115 9 68
201 74 51
144 121 36
230 62 226
144 41 99
52 117 55
183 140 78
79 57 50
94 169 101
96 10 133
126 18 96
155 253 62
18 57 138
0 106 248
37 27 248
198 235 204
4 39 21
102 246 244
7 155 213
9 175 126
12 252 131
154 115 8
72 43 0
154 132 205
251 54 204
59 34 54
56 234 17
248 187 158
104 157 180
65 14 77
100 27 213
69 34 56
161 143 0
146 48 163
57 212 166
224 19 77
14 150 144
215 218 15
34 102 43
85 52 103
90 24 57
181 17 125
26 73 242
54 58 216
19 38 87
44 70 125
136 63 145
135 174 132
52 143 248
212 23 174
111 245 34
209 24 45
190 73 34
77 7 67
189 71 235
244 126 12
77 87 240
101 85 47
193 130 6
228 32 230
90 65 66
247 226 37
32 197 175
207 225 106
13 195 6
12 209 106
198 84 67
120 70 242
212 183 109
8 74 60
46 251 246
40 250 30
172 1 37
167 139 62
118 232 75
134 67 57
178 226 59
5 193 179
179 132 98
79 200 241
17 8 107
213 194 1
223 59 34
26 171 96
203 66 114
181 27 161
88 194 203
189 86 197
246 158 26
152 163 38
93 189 252
127 86 157
103 111 40
200 126 228
111 95 193
17 89 97
105 107 220
3 50 223
13 95 164
17 142 16
143 114 171
15 69 28
160 93 97
152 254 225
12 30 222
249 14 225
36 161 182
129 29 54
205 51 69
190 161 41
216 51 241
238 166 44
54 155 173
5 132 168
133 70 43
196 155 104
169 239 64
206 154 68
24 127 89
163 214 247
88 72 245
171 238 214
180 128 46
1 153 104
117 77 206
217 208 156
124 197 219
251 143 101
60 213 128
98 230 161
18 64 71
145 150 134
120 238 50
26 32 17
50 62 174
185 100 36
133 171 13
147 198 200
229 7 89
32 191 74
87 162 183
240 128 113
158 56 88
250 235 172
148 215 246
35 253 37
192 209 228
62 11 54
219 30 13
120 194 78
239 131 100
30 254 8
41 18 39
22 171 68
166 16 165
162 30 21
131 200 84
178 158 225
233 118 97
71 192 163
223 208 96
63 25 145
17 167 125
230 124 218
226 25 153
61 4 3
144 120 182
228 3 187
247 107 205
254 243 21
52 19 39
220 21 147
213 125 139
22 74 35
158 164 67
76 238 84
240 206 237
19 225 58
165 130 200
241 19 226
0 89 11
248 168 105
197 248 77
103 1 60
242 65 195
118 227 49
69 23 69
162 6 19
32 17 8
195 253 79
73 147 200
109 221 43
131 50 94
77 8 85
119 169 235
125 82 181
52 35 48
236 108 217
94 5 229
178 233 223
151 162 48
235 230 45
186 161 109
56 253 82
98 214 105
142 193 90
231 45 114
254 55 225
228 152 177
94 120 111
126 219 168
81 192 166
195 118 162
247 176 64
247 45 10
123 195 192
17 27 85
12 53 39
211 36 66
194 108 117
112 25 111
220 218 127
163 101 30
173 137 113
41 81 211
231 133 214
233 60 13
74 30 99
99 0 247
133 170 133
175 133 60
6 88 49
233 155 57
44 136 186
217 241 201
56 204 110
171 131 176
156 251 53
124 171 60
116 3 126
91 204 209
174 30 144
199 198 166
209 19 99
234 10 238
129 150 4
83 19 166
156 98 165
183 235 91
188 78 114
79 169 34
74 220 116
171 24 67
179 117 150
119 87 254
11 28 206
41 138 138
12 247 195
62 59 47
196 92 87
127 106 165
69 99 119
141 189 77
0 195 45
204 33 97
56 83 47
164 169 173
98 73 112
242 157 244
105 226 215
82 155 136
209 198 52
21 10 86
86 67 46
50 18 187
108 126 154
75 240 193
7 231 232
28 64 63
209 44 220
234 3 199
18 118 36
100 253 196
131 219 236
157 139 113
224 96 183
51 246 31
202 160 0
43 62 66
218 89 142
0 231 113
230 247 35
169 92 37
77 15 164
119 149 66
10 211 61
239 133 20
169 87 59
226 208 97
69 174 135
143 130 123
0 52 105
212 159 86
127 37 240
40 244 182
200 235 26
162 111 178
158 236 114
82 200 29
92 8 166
10 110 134
100 36 63
6 51 1
183 133 144
115 219 88
188 219 222
167 178 25
99 4 12
59 247 69
247 216 37
48 79 173
29 54 234
108 99 203
49 86 131
21 153 146
165 122 10
219 153 86
206 103 168
212 31 50
191 53 87
17 85 127
111 172 132
234 84 65
206 129 149
97 250 180
41 122 135
251 176 96
156 47 109
49 115 170
105 184 183
126 115 57
57 46 250
198 250 67
223 254 134
180 211 225
254 233 208
148 97 98
70 199 109
187 144 143
27 28 66
104 49 205
226 54 194
10 40 118
185 52 211
248 181 7
166 204 81
140 37 192
55 69 36
34 121 89
63 14 156
212 69 16
221 39 187
223 133 244
118 101 94
131 120 115
41 47 10
201 25 201
65 83 46
78 233 53
14 186 132
172 150 151
209 51 216
224 153 130
187 99 163
116 106 206
25 169 84
248 191 55
94 35 65
16 18 60
247 251 224
228 236 94
79 55 138
7 157 166
156 225 193
223 52 53
193 133 8
74 202 64
204 164 17
108 72 53
82 228 117
162 136 176
142 140 43
155 214 118
11 245 104
176 23 133
241 240 174
234 152 117
199 120 122
213 131 79
122 112 127
45 76 11
126 77 252
147 185 193
97 160 231
162 164 152
226 136 102
163 222 23
36 194 42
40 214 196
108 71 3
101 83 145
43 75 37
60 85 193
167 185 26
214 219 210
252 56 109
43 100 251
100 118 7
60 114 105
49 29 102
166 15 42
39 161 132
171 62 83
179 92 202
39 180 161
114 2 32
29 162 199
252 92 51
199 34 94
70 234 159
64 237 17
207 201 122
0 13 170
113 59 61
28 26 195
38 184 29
125 67 207
148 204 139
93 38 31
218 156 112
109 123 64
104 127 123
196 239 227
190 120 74
243 22 170
178 218 170
141 175 106
29 198 119
186 170 75
120 100 152
220 95 72
225 232 25
191 202 12
78 152 218
252 56 77
107 42 211
76 66 192
98 61 233
113 36 166
185 164 78
210 200 248
162 102 178
53 45 112
124 9 128
125 95 80
14 237 233
46 224 141
175 169 209
66 232 46
151 185 94
156 171 251
218 190 114
196 21 212
49 9 81
20 149 6
22 64 5
79 69 190
98 166 248
209 0 151
221 211 242
177 128 155
120 65 68
112 40 246
241 173 152
207 16 126
192 185 7
77 181 190
180 87 4
179 107 248
78 175 144
171 123 223
203 61 5
92 127 68
193 161 244
215 56 99
1 138 89
179 0 46
33 223 113
231 21 227
147 145 134
210 203 113
26 40 176
80 129 215
134 226 96
129 144 32
204 179 114
110 88 34
148 77 171
38 59 212
138 124 198
192 214 153
96 214 90
134 98 89
3 147 90
236 74 98
248 7 115
5 55 86
221 202 27
69 154 220
83 246 251
213 155 226
76 116 33
128 237 6
218 15 3
196 1 241
234 167 40
191 46 241
35 224 173
130 44 106
27 161 2
25 37 92
108 6 94
165 102 136
170 200 85
220 222 240
130 121 77
198 90 52
100 101 144
160 45 53
167 193 186
229 17 124
102 144 216
107 226 67
140 250 8
4 209 225
88 245 234
124 37 75
18 1 223
33 93 157
104 226 173
3 238 110
79 83 194
5 196 11
152 58 240
216 36 1
147 115 20
130 76 105
200 210 19
245 207 185
234 82 14
157 38 157
14 215 15
198 98 227
213 143 158
198 247 151
191 28 36
151 157 154
57 163 48
143 103 152
69 24 158
45 111 141
58 178 210
13 40 116
18 104 248
85 120 252
139 32 62
199 207 11
95 22 76
254 123 72
92 159 182
247 226 146
133 238 216
151 94 81
116 232 64
227 92 113
17 195 20
79 42 9
165 59 44
32 160 70
106 87 130
248 128 234
165 88 234
143 179 213
178 185 209
170 130 185
241 41 178
213 4 117
48 248 250
205 58 57
88 184 228
170 47 70
222 87 214
201 221 209
65 170 56
48 164 50
16 225 115
119 15 192
77 217 160
197 103 26
161 53 151
7 243 195
123 216 245
114 237 165
65 175 59
136 57 115
209 232 67
106 90 138
57 105 103
51 240 174
197 169 224
59 134 87
196 185 196
60 201 76
226 32 28
50 159 146
229 20 69
176 158 113
102 196 170
132 79 48
57 139 57
62 215 72
81 67 42
182 171 44
199 196 53
222 153 250
177 37 81
247 237 93
68 44 153
188 192 30
4 240 55
195 35 75
205 42 43
218 154 121
22 151 60
143 228 254
136 186 245
77 116 217
188 183 252
99 61 189
184 21 9
138 203 212
45 118 234
6 69 31
174 84 45
164 217 54
248 12 219
58 183 203
167 197 41
122 52 241
217 197 57
154 101 133
124 208 194
156 61 211
91 4 37
44 93 171
183 149 121
13 170 210
132 22 44
32 46 213
249 201 193
7 74 56
166 96 239
219 148 204
181 222 40
118 95 252
88 185 207
94 117 245
47 119 175
85 38 28
202 237 130
238 133 104
89 197 91
11 116 49
22 203 169
199 108 83
99 211 146
14 128 149
254 179 72
167 206 104
154 69 1
91 164 120
252 132 180
243 22 106
251 155 0
143 210 0
109 235 91
211 198 157
140 19 42
36 122 252
186 96 119
120 215 169
93 19 195
169 146 69
239 88 25
126 205 68
206 82 116
135 149 177
239 144 153
133 18 26
106 34 147
129 10 231
216 217 77
0 184 218
11 15 131
161 135 205
65 200 30
88 204 223
3 58 208
196 51 235
210 94 228
86 58 71
8 24 20
93 54 147
254 78 152
126 241 134
33 146 93
50 166 3
198 35 57
73 237 201
70 154 15
42 214 108
85 94 7
229 156 158
2 52 253
237 158 144
94 61 105
108 233 198
50 148 185
241 116 210
17 228 167
60 108 45
85 204 79
39 2 123
7 249 186
223 96 89
95 152 111
237 4 137
243 3 237
39 251 227
143 92 198
140 138 77
148 10 150
113 85 56
90 220 238
61 18 38
149 226 4
61 209 181
58 49 202
148 235 164
106 3 15
1 96 111
11 29 53
216 116 106
217 92 210
95 244 46
217 43 80
143 25 249
180 37 119
60 131 224
159 205 229
203 150 237
115 110 168
81 127 163
111 218 147
15 18 171
183 4 140
168 136 155
15 157 203
194 206 152
244 127 228
181 83 177
114 101 215
155 67 99
169 106 168
121 252 3
163 193 98
235 196 232
249 117 57
200 207 135
116 69 188
185 246 69
28 26 15
190 44 193
36 31 236
31 104 19
83 157 246
113 27 132
65 204 161
190 81 116
122 222 192
90 186 145
248 183 170
96 126 99
208 220 115
37 135 41
25 5 25
119 223 97
148 98 231
201 196 79
242 234 12
170 50 127
18 57 239
155 241 208
118 82 234
28 191 235
185 99 73
68 20 222
150 11 254
14 191 103
232 175 31
202 200 191
103 241 43
153 67 214
101 173 81
29 228 229
124 185 75
30 172 214
79 213 180
187 17 3
244 193 90
32 185 134
248 230 38
3 52 76
67 159 254
173 140 233
233 209 0
45 131 154
153 88 25
17 185 23
8 49 214
8 167 19
140 102 102
94 215 25
26 34 32
1 56 122
74 116 108
45 4 182
51 17 12
248 2 249
11 17 158
251 217 128
36 174 65
3 98 86
137 44 147
158 238 93
149 178 80
137 33 119
39 26 168
43 160 122
96 47 237
243 26 61
149 130 103
204 107 76
64 115 234
75 151 247
41 103 153
231 136 139
129 101 235
114 186 137
29 53 207
1 15 221
192 191 71
122 76 124
124 5 213
207 210 149
98 28 44
165 204 32
1 112 201
95 56 169
68 63 101
148 46 117
252 192 93
67 76 232
240 1 79
68 129 119
183 192 243
40 58 244
189 85 236
68 124 3
87 130 161
81 7 151
30 198 44
224 189 252
169 224 186
206 158 115
161 107 184
151 145 113
119 133 122
244 31 163
93 159 246
17 53 188
174 81 3
225 242 90
180 20 9
12 205 147
11 210 26
34 21 118
66 253 111
218 26 98
20 193 246
59 170 190
100 112 177
232 10 103
140 25 25
37 51 38
25 170 26
244 209 3
51 205 209
10 140 75
50 114 232
100 22 12
103 198 152
205 5 153
32 174 26
95 70 63
27 0 71
41 179 64
53 107 27
163 82 6
161 5 99
239 95 102
202 128 135
187 190 173
196 51 118
191 157 194
26 230 209
125 80 211
163 111 179
45 121 145
150 20 101
6 75 152
221 53 235
57 203 129
201 217 174
152 5 88
126 46 247
148 145 22
231 166 154
18 65 140
32 195 54
139 238 162
15 158 237
83 17 136
83 208 175
146 166 192
133 106 136
221 196 180
53 215 137
79 173 137
84 194 3
125 14 249
61 3 88
167 61 87
152 121 39
181 104 10
178 184 117
155 107 229
109 165 60
97 246 175
211 13 106
124 59 18
62 29 177
161 211 77
29 107 34
72 47 19
242 230 126
29 151 69
185 41 222
188 203 231
175 222 234
168 130 91
6 235 43
104 16 80
176 31 133
78 148 99
188 28 80
196 88 35
240 117 108
98 140 66
170 179 253
40 50 185
159 116 68
8 252 5
4 49 37
30 142 209
25 241 128
90 7 51
179 18 77
235 92 160
237 240 197
159 106 137
207 243 201
207 122 247
31 204 153
188 232 65
246 219 27
74 17 42
160 52 39
68 186 32
202 69 251
121 171 157
198 180 74
93 140 235
210 96 194
207 66 190
57 240 32
231 77 250
232 59 41
190 238 168
137 187 91
132 182 127
145 178 36
18 142 80
247 57 24
122 218 208
211 214 214
140 16 130
36 67 102
148 51 63
103 68 209
26 20 233
159 28 79
116 217 58
237 252 31
156 61 147
33 73 7
120 133 228
241 79 216
151 203 14
85 147 149
172 236 206
225 82 62
218 223 144
4 124 28
229 26 110
85 14 17
99 122 235
14 65 145
3 104 32
191 211 168
142 158 14
247 31 146
112 156 186
226 72 2
92 48 97
5 252 27
94 233 0
46 204 189
218 225 106
148 59 204
230 74 120
79 166 87
3 218 72
201 177 157
238 245 142
41 153 126
9 233 14
175 176 136
11 101 223
121 225 97
247 224 156
92 139 148
203 48 169
82 180 215
166 247 108
71 126 229
15 42 70
195 57 45
189 82 106
216 115 144
92 153 28
78 156 5
118 131 98
107 243 241
101 222 244
251 61 33
75 42 146
176 95 77
147 107 162
58 3 113
169 134 223
201 157 77
229 236 220
209 103 184
247 156 216
120 237 219
114 242 198
32 76 61
112 205 223
187 143 79
63 12 14
92 135 66
44 117 198
193 213 90
105 138 254
147 101 67
85 105 174
111 119 83
181 0 139
53 120 51
103 9 223
8 30 184
128 25 38
198 228 181
107 28 140
149 133 126
55 225 98
158 44 142
23 179 159
170 180 18
74 169 65
64 248 202
203 100 13
166 33 36
58 126 29
57 7 84
189 232 201
123 66 22
54 11 150
150 170 119
228 154 215
58 106 177
114 61 252
206 4 9
228 210 18
85 222 250
36 7 142
66 240 58
20 16 172
99 22 179
206 160 9
166 180 69
224 128 135
76 13 9
207 160 237
125 14 120
23 201 67
44 143 95
207 205 108
112 5 219
237 167 214
101 131 52
139 111 215
48 71 103
199 73 110
19 236 51
161 168 33
181 88 141
143 244 97
230 83 189
198 250 167
243 97 139
40 227 152
33 184 42
150 5 240
232 114 201
199 101 23
172 75 240
106 51 143
159 116 61
67 38 142
12 1 122
97 87 192
121 46 6
29 189 172
155 61 102
1 240 22
107 138 205
216 210 21
234 196 222
41 139 47
248 12 157
109 5 29
24 136 222
177 142 85
154 22 169
215 99 214
250 35 253
109 216 128
215 6 72
25 23 246
145 120 42
131 4 148
65 47 154
51 161 26
237 100 214
178 175 94
37 191 155
113 189 4
32 110 155
3 33 42
141 166 143
248 80 205
213 206 61
7 180 100
240 246 30
131 107 52
176 99 150
158 204 52
44 229 248
192 99 224
15 73 239
213 78 123
168 87 237
171 111 103
60 52 34
232 89 28
54 165 54
107 70 233
75 212 175
129 62 10
22 12 112
123 75 245
23 191 18
32 234 110
174 103 141
49 175 165
34 207 120
223 205 242
227 172 25
237 19 24
76 83 189
132 103 251
21 78 57
251 18 187
178 13 56
112 136 220
181 118 57
111 88 20
8 101 70
4 249 210
131 60 133
149 9 91
218 181 36
119 8 86
206 83 104
176 172 67
17 169 115
182 169 133
93 70 247
166 232 162
120 7 20
216 79 64
203 185 115
205 179 95
216 234 148
35 250 57
16 112 14
3 80 217
63 75 245
76 183 139
103 79 225
66 59 169
19 54 124
219 160 149
225 199 6
202 212 123
22 58 202
96 235 197
84 100 136
49 115 84
227 94 5
100 197 113
84 63 62
80 54 142
148 26 52
71 112 248
34 64 48
247 167 204
25 65 171
112 91 218
140 221 156
221 166 79
250 53 155
126 194 88
182 181 68
150 17 71
247 109 179
105 126 111
217 197 11
60 167 42
206 159 88
59 6 186
215 146 25
98 181 33
23 12 226
201 234 126
68 132 6
149 230 5
251 204 244
172 55 110
61 210 191
11 86 148
201 29 69
68 126 129
39 51 179
32 64 212
6 245 124
145 130 207
59 176 233
243 113 57
155 134 133
65 78 220
230 230 148
156 65 143
75 205 92
148 151 59
123 247 88
214 206 84
222 240 84
162 72 122
170 245 182
35 188 92
94 135 206
1 22 73
65 50 229
184 34 124
66 248 224
100 103 46
176 7 12
193 249 35
97 44 224
66 12 91
196 35 24
179 184 135
4 163 223
254 119 231
171 113 187
229 100 225
253 190 125
182 0 123
24 140 61
134 185 207
163 56 161
166 230 61
177 240 149
35 217 90
107 51 14
208 140 8
29 75 169
252 245 196
56 82 190
209 173 188
62 165 136
181 253 11
124 179 43
137 137 49
18 193 244
165 69 76
66 213 197
18 61 18
61 104 175
102 34 117
196 52 88
158 75 69
36 12 75
88 249 240
158 170 142
64 135 129
175 230 237
56 62 55
206 93 217
42 108 82
153 16 89
9 218 233
126 75 6
243 141 165
215 28 154
226 120 249
93 186 142
123 167 16
8 210 183
111 184 231
241 33 33
78 7 137
120 10 186
162 185 38
188 69 98
81 198 32
157 36 242
122 9 53
133 49 75
16 23 140
39 83 78
82 89 111
173 182 202
86 28 22
118 23 155
24 154 45
237 155 241
138 10 27
169 149 41
96 81 47
78 176 90
115 141 91
6 201 238
72 204 247
192 231 154
79 173 47
229 31 225
3 136 137
39 175 95
113 175 217
11 129 4
135 105 32
194 35 14
67 51 168
224 239 76
77 166 110
185 212 14
107 118 249
156 21 20
124 122 113
67 205 10
112 161 114
79 9 5
6 126 217
36 246 201
143 232 237
189 35 205
4 193 168
133 149 13
178 94 120
51 145 11
92 133 117
86 9 106
47 239 84
6 29 178
132 49 125
190 105 43
52 56 235
143 196 234
222 89 252
213 81 36
164 52 31
87 160 148
145 128 231
160 209 249
49 144 88
34 181 1
78 218 250
14 238 237
125 135 213
42 34 17
230 201 77
241 159 128
22 17 141
55 94 186
181 208 79
54 45 14
5 96 162
221 100 167
165 56 103
192 107 199
227 231 78
136 5 121
94 162 11
71 170 154
14 227 46
167 194 94
240 73 143
149 95 232
112 160 92
168 106 125
133 32 152
120 80 165
24 4 204
5 204 243
81 26 74
199 89 62
235 135 199
11 77 220
241 85 55
90 16 227
193 44 126
68 43 162
231 76 41
207 210 18
185 154 153
137 184 20
75 247 63
245 6 113
7 245 186
31 95 119
247 236 253
187 164 108
26 141 199
138 43 157
202 217 196
0 208 31
83 124 13
220 197 47
183 123 91
35 142 231
167 96 247
174 2 162
184 113 246
33 82 209
104 52 5
141 245 175
249 246 231
55 153 25
27 127 154
143 63 172
182 244 223
194 46 243
134 215 241
208 231 138
162 122 251
93 67 5
232 247 73
16 23 254
226 251 238
245 161 115
246 95 113
46 239 12
232 113 150
216 122 44
40 59 130
189 214 101
61 186 75
233 41 206
88 146 74
249 6 229
115 212 159
137 237 160
78 115 172
59 19 38
111 74 5
231 116 58
191 158 30
206 97 218
53 121 243
179 169 170
184 102 106
196 38 254
209 126 11
110 48 74
173 69 100
22 97 138
171 241 204
222 4 3
130 230 193
188 8 42
76 74 243
209 148 54
77 24 182
154 196 59
94 124 112
62 220 154
50 222 146
203 109 126
130 190 26
108 210 165
7 191 241
57 55 199
181 3 173
47 169 112
49 216 87
146 181 29
85 11 4
231 194 18
96 94 33
12 167 139
161 170 55
68 80 249
22 171 67
103 49 165
42 153 27
12 111 52
173 115 59
190 115 232
16 242 59
220 90 27
189 171 28
161 48 136
141 180 58
37 103 129
149 94 175
90 223 92
45 103 219
212 238 45
51 108 251
130 229 224
29 62 131
247 227 197
97 101 70
55 95 31
130 216 238
64 161 22
110 149 77
155 25 91
200 118 137
191 65 52
31 211 77
108 180 92
79 54 140
180 139 238
86 71 36
212 35 56
220 85 205
201 61 162
143 34 18
90 209 242
75 227 117
163 192 191
160 139 102
119 199 84
223 241 130
146 150 65
237 53 50
197 23 202
162 175 64
75 135 65
248 219 186
208 79 67
67 247 170
124 103 112
251 167 187
246 92 183
208 78 220
43 104 182
246 178 84
221 126 250
92 50 128
19 228 155
228 37 146
120 74 233
67 235 102
148 12 88
240 176 4
145 84 145
55 31 48
92 92 171
114 216 183
221 128 246
81 204 194
197 227 71
137 80 160
154 153 7
175 25 95
190 17 2
137 227 204
24 22 231
124 120 151
18 49 148
162 166 188
77 202 161
220 143 9
242 88 143
251 109 122
219 220 226
16 125 8
161 200 92
147 186 40
137 61 89
88 204 165
137 152 234
175 187 25
33 123 87
248 192 198
57 53 231
177 101 200
68 173 206
64 205 37
251 5 10
8 95 46
32 218 199
8 217 123
151 39 236
40 72 66
11 8 97
156 169 184
209 60 248
174 243 188
113 92 24
239 134 239
224 170 76
168 205 100
48 11 63
10 11 234
211 170 45
32 97 95
49 100 119
157 165 17
27 187 112
94 63 119
239 190 24
54 179 138
78 185 230
143 193 184
181 177 203
91 75 70
183 162 177
55 231 207
182 176 212
173 24 227
101 97 28
23 197 174
219 141 61
73 221 13
48 31 205
2 197 178
235 4 102
253 4 74
250 240 123
186 53 119
215 186 194
162 196 234
47 102 110
84 84 135
86 219 31
27 211 240
30 65 123
183 244 124
35 74 76
206 42 178
209 114 198
68 84 231
134 2 157
36 59 20
143 156 247
169 42 0
112 170 239
204 199 18
236 31 48
245 59 233
88 110 73
235 27 245
216 16 226
120 219 33
49 153 177
101 203 246
236 22 108
237 32 207
6 153 94
90 237 163
233 250 133
154 184 36
52 216 84
48 191 190
188 139 231
192 63 113
65 25 138
150 57 15
83 117 204
39 91 149
69 185 192
236 144 52
197 81 145
137 144 14
102 151 19
6 26 252
1 6 42
56 167 49
232 116 115
162 151 232
249 44 64
181 233 91
62 15 150
27 87 59
25 38 133
27 184 38
35 212 133
28 62 80
238 137 176
153 175 233
196 97 212
239 17 167
212 27 53
209 215 31
208 49 61
40 171 181
9 117 8
225 28 95
149 180 14
53 109 142
248 150 153
229 12 35
10 178 52
50 5 119
183 238 105
197 146 246
208 38 229
242 107 83
91 176 49
7 53 193
30 245 135
165 60 31
64 126 36
145 128 219
155 77 235
15 50 100
112 42 203
1 180 16
26 105 27
37 240 66
154 171 100
7 210 73
184 141 26
174 122 14
116 133 206
248 42 247
223 145 242
14 93 46
219 178 128
124 121 5
29 178 249
103 135 12
27 101 254
0 67 83
76 10 14
209 86 110
175 23 203
223 248 161
35 231 200
181 49 245
87 203 94
247 141 218
242 229 225
148 96 30
105 127 0
248 145 23
79 121 187
78 114 249
41 24 38
64 237 101
224 212 217
43 69 136
26 226 53
135 237 36
149 224 192
187 27 227
133 97 184
57 17 113
244 29 234
217 205 25
61 6 234
170 234 135
67 44 99
203 130 247
72 22 58
150 0 5
202 230 181
109 119 159
120 74 25
26 232 129
230 171 177
203 76 157
54 120 174
0 178 91
174 210 190
159 78 96
96 74 94
176 176 174
213 244 188
22 197 86
21 222 164
130 198 225
39 232 46
75 193 244
87 199 55
71 100 169
51 52 160
240 201 135
201 203 252
82 46 5
9 202 162
245 155 125
124 229 65
217 134 1
154 206 162
187 186 151
16 210 177
92 6 207
37 194 25
31 127 167
159 61 148
5 10 252
69 82 216
106 132 210
58 204 60
40 105 213
122 28 90
235 117 245
83 178 45
79 120 182
209 55 233
213 187 166
7 225 126
6 100 115
254 201 5
153 140 235
6 41 223
64 35 122
141 243 214
89 191 45
134 213 203
151 104 221
248 228 26
65 137 245
170 125 227
202 232 129
86 219 85
188 115 3
138 57 108
26 93 249
225 239 40
114 41 180
249 86 230
136 136 240
12 209 60
245 6 241
169 85 72
140 185 13
229 118 120
20 107 132
184 58 60
64 4 55
12 203 2
177 201 238
88 119 14
157 48 189
225 242 210
26 243 103
24 136 9
67 149 172
68 31 65
55 25 218
5 131 119
112 105 219
4 9 87
16 125 176
29 171 21
147 48 137
81 167 91
144 211 165
81 217 151
172 81 129
106 16 90
104 84 137
155 176 31
93 148 43
172 54 159
11 223 46
82 14 184
95 112 253
225 234 221
35 102 67
198 28 193
68 119 45
110 209 8
129 198 132
228 235 79
174 216 23
170 49 15
73 105 243
200 27 241
118 48 73
155 202 133
254 89 237
19 203 246
214 33 147
206 44 223
169 1 237
236 4 253
30 127 16
7 156 217
167 102 65
130 58 0
131 114 23
139 156 167
243 2 253
97 158 169
21 98 112
188 155 134
246 135 12
1 106 150
229 158 213
70 212 85
157 69 125
249 68 215
109 117 135
8 251 193
80 113 147
13 254 102
179 79 138
24 37 52
148 2 178
146 76 188
209 103 76
124 158 9
89 227 22
0 157 101
219 66 202
98 146 66
73 192 5
121 76 168
40 254 128
25 181 185
166 152 234
66 211 157
34 147 31
118 95 13
254 90 252
232 34 222
15 170 246
119 180 58
62 208 102
138 208 141
248 152 244
205 230 173
118 132 147
17 210 251
36 41 171
139 17 58
223 105 153
52 99 151
185 73 87
206 70 194
222 117 216
56 184 240
160 183 168
113 87 249
162 131 86
35 214 2
33 68 254
44 215 140
30 145 96
227 127 133
67 89 182
203 6 39
233 62 10
179 21 6
160 78 52
193 120 13
229 168 5
148 115 116
131 42 233
59 72 202
151 121 233
196 154 111
6 246 114
149 35 56
151 74 250
16 158 143
36 190 115
81 109 65
161 50 105
195 64 205
227 193 238
86 93 60
252 161 175
61 50 119
133 157 67
170 67 70
109 229 133
211 77 174
93 223 96
123 234 212
202 230 253
145 77 231
83 190 136
137 178 147
125 141 91
131 221 245
44 123 33
230 91 43
246 91 170
140 254 135
252 31 234
8 47 136
235 33 151
12 151 50
13 23 24
32 228 75
222 221 58
190 174 213
252 231 39
210 127 103
62 53 41
166 50 22
105 244 248
152 7 41
187 8 21
106 191 32
115 155 117
252 73 161
124 155 79
240 73 243
219 148 209
131 141 178
232 91 110
45 151 134
20 96 184
222 114 50
34 158 240
94 3 76
132 61 103
66 208 113
248 133 18
58 100 153
217 80 10
133 88 136
219 202 197
190 9 108
163 25 99
212 86 193
29 44 238
168 64 251
17 89 11
47 201 133
145 62 84
78 198 163
17 101 208
101 54 148
87 204 247
204 26 28
52 56 13
222 222 133
74 26 52
90 133 124
252 37 235
223 86 66
129 46 90
35 117 253
147 247 4
123 148 253
80 115 173
119 207 141
124 244 188
150 115 236
35 94 122
77 119 14
77 3 81
251 70 165
58 220 158
192 165 221
242 226 7
126 248 249
151 194 72
30 69 140
25 76 82
169 100 180
172 254 57
173 130 204
187 215 5
113 175 141
130 56 95
53 174 3
227 125 74
238 17 44
130 60 135
118 180 22
50 152 249
138 49 35
148 63 121
37 176 204
48 189 24
54 121 50
49 108 202
132 128 99
126 77 9
8 50 175
161 64 47
183 190 173
220 6 58
91 13 125
12 164 31
120 151 229
184 155 230
74 162 212
136 216 10
51 96 249
161 253 36
41 121 85
209 10 122
62 220 137
219 87 216
211 14 166
100 56 99
183 33 78
114 121 227
233 0 149
6 188 241
46 121 53
131 58 123
227 90 121
21 23 155
41 75 214
162 243 151
6 23 206
33 81 85
63 71 151
132 174 104
33 82 77
21 43 149
176 248 165
99 167 181
52 217 241
15 208 25
82 252 136
196 48 158
203 249 186
28 195 12
62 236 27
136 48 157
185 200 9
122 89 141
124 191 120
116 176 65
7 189 247
150 94 177
45 69 93
164 62 129
181 96 133
234 192 108
237 236 111
140 23 37
177 103 238
235 92 161
106 116 99
243 91 151
137 117 154
51 202 44
103 199 154
159 203 173
79 106 224
145 193 163
50 19 132
144 189 165
61 103 167
175 244 176
61 105 112
252 210 251
247 124 19
116 1 187
91 245 38
130 167 79
8 37 182
80 200 190
230 140 93
162 117 234
107 128 28
40 221 10
178 166 242
148 226 192
90 121 131
120 202 200
166 27 128
250 131 221
156 60 174
242 96 2
100 150 30
0 61 36
129 49 156
173 104 7
189 155 1
116 23 92
226 101 133
32 74 228
123 50 192
229 159 226
208 138 9
145 135 97
43 225 234
91 245 0
43 123 78
166 47 24
107 61 187
149 173 189
232 245 9
179 26 44
130 21 155
146 124 180
195 108 50
154 145 195
168 2 52
45 129 180
4 40 220
172 69 41
207 5 198
146 148 194
175 21 106
250 19 199
218 73 23
249 227 58
209 125 162
137 156 107
137 82 3
184 72 173
19 132 94
61 47 120
144 45 177
58 168 182
107 40 196
12 100 248
21 97 230
234 212 97
163 26 93
59 19 181
144 183 219
31 144 223
83 181 238
58 238 72
88 33 63
136 94 176
184 234 94
228 245 198
53 200 172
48 55 98
129 218 158
56 253 7
96 157 70
43 39 34
220 0 211
69 138 16
81 219 64
230 30 77
131 29 188
243 189 183
20 235 123
187 218 13
119 90 15
87 129 145
181 18 148
55 59 98
48 58 74
169 77 23
243 213 123
78 106 136
130 81 55
177 149 188
179 141 236
206 31 164
224 115 154
43 82 216
242 235 244
88 121 38
85 185 198
113 42 16
190 162 201
48 38 192
198 152 157
126 38 172
214 79 165
47 88 129
120 222 164
137 129 140
147 83 114
33 63 194
196 106 191
207 6 155
44 92 106
91 142 30
15 78 66
85 242 119
118 158 137
93 185 151
100 79 208
40 226 178
201 162 223
58 246 149
79 238 86
248 65 105
128 27 55
39 49 233
209 210 3
128 175 248
228 165 15
236 238 15
8 234 151
30 245 176
242 231 222
24 246 191
108 245 241
27 83 57
179 116 47
156 139 151
56 233 152
117 213 132
174 228 104
85 31 116
102 209 196
179 148 29
163 15 117
140 103 179
58 29 164
14 90 4
35 199 148
126 141 0
242 137 210
124 45 22
151 29 114
119 129 215
243 18 56
119 197 138
228 115 104
0 157 5
9 11 99
235 215 151
192 112 131
68 37 28
164 225 0
61 192 205
67 166 34
164 208 63
47 34 247
88 253 160
125 221 209
9 229 80
188 170 240
165 9 81
114 124 193
133 152 51
219 85 167
104 235 18
209 96 98
87 45 215
63 85 103
205 51 167
76 53 31
65 34 180
232 30 12
203 152 92
229 15 178
99 208 214
63 175 94
7 248 5
23 89 146
132 67 190
140 103 57
208 254 119
30 227 236
240 69 46
99 218 50
21 151 160
99 33 46
99 100 149
109 218 77
56 133 43
59 207 34
153 84 203
131 128 112
175 193 224
119 55 2
134 138 190
64 9 10
106 113 41
15 34 31
215 234 70
198 90 191
84 156 101
201 66 116
159 231 197
120 88 0
241 115 121
63 183 198
110 241 202
226 144 208
243 81 82
141 70 43
52 130 209
135 69 200
70 190 175
154 12 136
152 61 220
223 226 102
224 171 117
204 76 129
60 97 139
44 117 88
239 41 243
123 4 212
137 5 220
242 28 95
25 72 53
150 105 144
3 88 206
78 150 208
238 112 227
58 24 58
61 113 112
222 99 102
88 215 210
182 254 70
104 83 55
120 22 114
252 115 50
51 201 247
31 54 36
118 209 25
1 107 125
4 229 11
100 65 113
74 153 152
153 145 40
86 231 55
118 191 114
152 217 214
78 209 175
60 211 126
229 128 221
146 90 62
103 17 106
80 37 198
40 233 141
209 6 12
94 13 101
108 24 184
120 233 141
232 187 35
216 23 21
55 125 231
204 83 122
249 253 25
0 206 29
239 48 167
62 93 0
97 72 111
175 172 32
212 234 50
141 177 130
115 226 69
97 6 37
122 28 112
187 104 190
197 107 241
73 88 162
244 234 2
213 64 111
241 246 68
0 130 65
49 147 235
110 250 63
237 132 236
187 196 210
76 85 245
89 58 24
76 152 196
236 159 27
219 1 170
56 41 25
21 72 239
68 120 228
233 0 128
222 233 62
107 136 25
104 10 2
26 203 18
152 0 139
81 118 194
130 156 49
59 53 7
103 189 188
57 10 231
192 135 0
52 122 123
180 100 211
147 84 228
10 88 48
31 124 143
155 249 5
51 68 239
12 219 181
113 158 242
180 15 211
44 132 146
190 177 68
139 39 5
19 112 108
245 1 93
43 56 148
10 144 249
230 135 3
249 162 229
252 137 81
61 63 128
222 206 199
110 55 43
34 185 85
155 254 225
192 188 183
140 58 127
30 163 165
129 184 43
236 118 92
138 94 22
186 244 211
57 204 51
160 167 61
234 5 67
67 186 56
128 246 49
189 234 27
7 29 162
124 157 41
6 58 163
110 254 181
99 253 163
115 42 42
41 162 187
225 204 174
64 195 48
110 175 35
224 234 156
0 117 210
228 66 250
132 166 170
160 208 134
76 227 216
31 143 152
49 175 253
158 169 87
85 152 218
245 192 122
98 4 148
71 117 119
115 61 159
140 76 234
98 252 125
85 13 0
161 39 250
174 64 37
145 10 242
73 42 213
69 211 203
252 53 167
207 46 77
59 224 111
36 16 114
202 170 86
20 99 196
199 70 133
226 79 55
132 181 151
2 131 45
14 229 111
80 236 131
73 181 230
147 141 20
133 191 87
187 202 101
0 112 48
142 100 118
145 222 151
202 26 185
153 78 205
98 227 230
47 226 232
100 54 247
202 21 132
186 237 110
151 236 48
49 219 128
95 219 226
195 56 242
46 90 148
206 187 102
137 17 204
248 149 230
161 63 45
49 14 10
62 212 41
140 118 39
11 128 239
75 191 144
127 131 116
38 86 172
4 141 49
247 102 128
56 156 167
146 96 9
96 7 218
85 236 23
117 134 192
37 113 205
40 231 42
101 79 143
164 182 87
228 81 218
224 235 160
188 73 11
178 78 6
63 187 41
213 83 117
152 194 183
164 68 30
93 25 23
103 190 167
143 234 237
131 11 230
221 1 78
141 184 23
200 197 242
188 94 217
254 97 56
30 55 174
96 170 250
209 169 170
14 237 176
246 31 6
238 99 175
110 46 125
30 37 83
174 154 29
85 116 73
74 87 32
86 150 40
88 190 251
65 70 141
232 228 56
227 58 129
8 237 100
14 165 178
151 222 19
219 127 198
164 87 99
248 93 251
73 248 183
151 101 152
177 2 236
75 111 24
166 80 203
89 64 240
24 225 204
108 10 151
108 185 108
190 5 53
45 193 152
126 219 108
127 123 35
224 180 217
97 16 116
253 228 101
198 177 107
137 72 21
108 93 205
13 210 14
170 185 41
118 54 60
220 20 93
76 149 214
92 86 214
142 242 191
211 59 28
251 185 252
175 131 89
242 116 113
225 196 245
196 50 157
61 138 214
93 185 128
203 194 102
221 155 209
18 98 87
56 202 208
158 5 207
119 177 209
146 111 168
214 167 172
105 108 168
20 231 10
239 159 200
57 55 95
129 4 232
65 116 235
66 5 61
90 21 194
156 41 65
221 186 43
169 88 56
205 88 85
180 76 3
73 84 1
26 31 92
201 177 80
245 154 211
65 59 172
149 78 131
89 122 235
45 158 8
196 199 224
18 35 228
79 22 45
122 149 58
180 5 183
73 22 104
62 56 2
193 159 6
148 149 246
30 27 155
129 114 2
136 246 253
163 164 175
114 145 13
39 41 11
215 215 178
44 28 2
134 25 125
74 193 164
69 204 111
193 36 151
187 180 172
152 167 209
163 126 132
206 158 152
94 99 54
169 18 65
167 71 190
42 34 54
199 162 198
215 22 9
232 24 93
20 44 126
0 251 19
192 94 210
135 129 49
208 5 156
179 150 98
161 68 174
228 227 59
196 22 74
29 110 146
48 114 236
194 151 91
69 173 238
180 30 227
46 96 59
171 26 132
131 107 90
91 114 253
70 98 215
239 9 243
68 74 0
58 32 110
7 241 37
173 118 223
199 20 29
12 93 23
248 22 114
34 109 176
151 172 195
168 57 215
45 237 48
62 155 26
34 242 35
224 101 82
184 93 246
60 2 186
201 185 137
30 224 45
140 209 18
49 56 156
93 19 132
67 44 162
137 25 249
86 244 168
36 97 138
77 106 69
69 213 224
5 140 246
225 244 27
176 171 210
114 240 203
44 145 14
6 173 71
226 69 101
61 171 213
159 53 244
114 217 2
169 220 244
57 30 154
166 49 162
0 90 52
125 31 112
9 207 94
152 68 199
178 173 110
52 64 91
116 188 243
235 134 232
72 132 184
54 198 178
157 100 254
21 181 61
6 115 84
105 45 35
228 187 8
4 172 238
127 97 122
51 105 45
87 167 4
179 40 4
179 208 94
147 239 84
34 205 69
11 145 36
58 17 128
214 156 125
84 234 128
136 109 7
224 152 45
96 66 8
27 114 195
118 41 177
234 239 24
115 51 80
18 42 164
166 99 85
221 119 244
157 7 38
226 143 121
232 113 239
140 11 23
15 108 100
229 38 218
190 42 147
60 162 218
12 92 49
79 149 202
144 205 94
168 150 107
67 233 157
197 24 61
199 22 140
58 25 50
60 2 33
96 186 94
35 38 59
169 252 245
28 247 43
216 234 210
57 7 192
249 250 251
253 132 207
133 63 73
218 93 159
117 245 53
22 173 184
97 145 36
93 0 18
141 238 63
226 193 242
168 71 137
138 28 170
229 55 73
34 77 178
237 100 156
37 151 122
80 14 45
201 186 169
137 193 200
70 94 202
9 42 60
189 7 24
97 140 58
23 53 83
139 237 25
128 54 151
106 93 2
16 223 2
175 188 35
28 121 97
74 10 16
202 29 44
121 178 60
244 44 139
148 19 95
157 78 207
208 185 133
90 19 112
3 63 151
243 80 52
4 51 200
238 17 68
157 191 121
175 79 151
60 54 165
201 182 23
173 142 210
254 180 48
102 166 212
103 93 51
136 67 96
114 85 168
26 138 129
72 53 39
114 144 62
187 153 0
146 114 10
224 244 220
179 65 242
109 69 198
61 96 56
36 26 153
157 76 16
21 2 187
108 243 50
90 89 195
22 227 10
14 237 75
195 76 184
21 194 192
250 140 74
102 192 213
82 232 131
81 167 96
204 178 117
55 76 89
138 250 55
197 72 138
149 58 159
75 232 86
246 228 206
76 233 51
116 126 189
100 158 22
108 235 129
106 186 212
53 208 31
146 9 157
11 77 111
123 188 218
96 84 66
94 78 125
213 59 29
100 36 81
185 88 189
185 182 194
181 117 148
233 62 191
141 5 36
0 34 64
37 129 46
1 235 248
187 250 156
243 244 116
97 187 82
189 76 83
245 193 251
5 197 179
220 59 187
57 249 142
133 160 53
200 84 243
207 193 12
133 30 215
44 189 230
242 155 207
34 67 186
144 49 51
215 158 198
190 253 156
8 42 39
22 30 189
203 232 91
11 233 62
145 229 103
116 183 137
124 248 23
26 245 122
141 116 142
128 158 15
176 180 90
74 197 127
100 114 124
61 148 106
48 47 2
160 63 113
236 215 142
10 91 106
13 114 95
129 98 146
213 110 40
172 21 164
214 158 95
125 72 244
144 186 242
193 201 15
190 174 178
119 160 57
113 204 90
11 135 85
125 241 52
166 167 80
236 57 130
154 189 245
2 181 250
154 246 70
157 186 230
77 72 200
54 29 175
220 41 127
124 50 192
32 86 3
107 146 46
199 38 252
127 124 110
203 19 107
181 111 130
179 169 144
131 237 4
177 194 57
59 42 70
25 63 130
171 84 161
10 53 85
209 54 121
175 202 164
173 211 220
213 81 140
113 225 203
206 245 89
166 6 197
15 2 84
63 99 120
113 234 111
117 171 74
149 85 184
70 85 175
62 77 243
184 218 153
75 157 22
170 87 175
108 112 208
98 112 61
238 210 176
92 161 244
88 134 83
15 190 129
19 22 87
157 41 186
185 240 253
137 51 115
84 5 149
218 56 43
187 105 54
41 238 131
33 78 43
53 10 118
111 149 57
111 18 150
185 172 199
61 204 179
89 215 219
33 51 147
179 54 76
166 49 57
14 218 149
47 186 182
55 177 125
13 69 95
37 181 203
55 168 54
176 83 127
145 95 81
247 33 83
112 120 12
54 151 113
86 71 217
222 29 61
57 31 230
220 157 11
44 235 218
129 6 69
181 225 144
51 59 27
251 76 92
221 102 132
171 130 92
38 164 181
179 100 217
12 150 69
243 128 224
136 230 253
206 74 187
125 245 15
210 89 145
246 141 220
179 61 176
46 69 66
249 159 246
85 51 3
2 234 195
136 108 245
2 204 163
162 216 150
153 143 228
114 66 208
174 151 40
228 184 227
96 82 216
194 148 157
188 198 132
217 253 232
29 106 166
32 141 88
149 181 131
181 15 168
99 123 124
120 44 229
37 26 238
48 210 135
243 50 188
153 237 198
170 44 241
130 161 46
135 149 14
36 244 228
195 195 189
185 72 42
216 141 174
71 40 217
13 27 44
231 208 200
1 136 102
33 163 62
148 50 2
43 241 113
96 103 75
18 15 117
247 157 129
13 97 233
53 112 196
110 11 248
233 160 116
154 223 88
154 126 245
107 223 14
134 240 234
103 63 96
135 187 3
6 165 121
156 130 179
186 69 184
143 5 76
114 243 26
216 40 116
141 143 155
123 83 163
57 238 119
15 130 204
62 247 220
0 76 147
148 181 34
114 111 111
13 18 20
157 75 42
172 129 20
254 137 158
56 54 39
251 137 252
81 247 80
120 93 249
99 206 41
194 181 65
83 145 247
38 94 132
149 63 65
72 163 181
1 139 156
62 88 83
247 159 167
149 108 185
8 180 0
42 78 83
37 189 99
148 144 74
49 176 3
150 11 2
46 122 78
115 6 78
48 236 254
226 229 166
47 132 33
129 198 213
145 213 199
5 228 72
132 147 108
156 193 67
110 29 140
101 70 128
153 144 214
243 188 132
111 33 87
53 176 233
66 212 139
172 152 201
225 49 231
234 245 182
38 237 148
186 248 101
190 79 164
65 181 68
57 151 171
236 204 190
3 169 96
254 208 173
178 82 39
134 174 139
183 99 166
80 237 47
147 188 146
236 151 176
125 114 90
3 134 230
23 165 39
47 239 0
2 162 218
248 197 54
180 136 158
248 221 58
171 6 95
0 32 96
6 66 160
68 109 2
111 224 226
4 242 30
168 215 61
74 116 44
19 97 184
196 158 65
137 142 67
250 195 25
74 33 166
111 86 53
162 162 217
32 129 6
125 205 163
90 39 213
139 236 40
218 219 249
42 124 143
70 111 1
12 71 246
25 214 194
25 114 14
71 190 220
231 237 35
202 220 175
105 107 77
210 225 44
38 179 61
94 116 235
47 187 231
154 18 170
22 93 169
95 168 39
24 69 174
16 5 82
183 83 176
165 11 135
97 146 0
212 212 13
227 29 194
135 106 121
9 168 8
116 138 145
78 205 101
121 146 213
133 219 248
20 45 17
59 74 12
251 185 16
242 163 173
142 178 238
11 30 207
219 244 79
2 212 191
25 44 14
244 188 77
11 72 23
147 178 119
236 12 16
5 111 156
177 194 135
71 181 166
21 92 0
72 201 28
39 34 187
242 140 90
214 74 189
181 83 156
125 253 84
76 37 247
208 218 57
59 226 142
80 249 66
41 196 18
213 167 58
124 189 196
242 109 71
169 130 49
149 5 220
48 125 127
73 13 225
60 49 81
144 219 231
169 216 52
205 134 245
183 118 60
120 178 176
247 74 98
157 16 124
141 174 148
243 27 187
35 169 83
6 229 19
69 91 190
100 3 180
252 195 164
244 176 155
80 43 108
170 42 133
140 251 122
197 84 91
214 241 251
0 52 149
248 2 36
59 161 194
25 132 241
234 8 4
16 41 178
188 224 75
0 102 67
93 20 229
62 105 177
19 62 147
121 51 179
9 151 77
36 37 2
189 132 170
193 167 239
248 248 49
12 160 161
159 181 58
167 75 68
105 107 125
116 98 191
166 95 230
128 11 248
16 204 210
122 217 116
149 207 52
192 73 204
51 20 69
202 131 134
36 250 184
136 192 13
194 169 169
108 110 134
34 54 96
12 173 57
94 7 55
142 218 174
187 35 162
159 30 73
252 4 16
29 201 84
34 90 92
92 235 236
9 18 115
89 65 86
42 79 181
166 45 239
191 105 175
178 30 79
166 223 61
249 39 9
35 218 152
147 46 2
17 24 175
210 21 192
53 198 150
105 239 192
200 157 10
157 194 198
107 117 140
159 177 68
243 191 95
236 210 81
7 200 46
199 114 186
81 48 146
250 184 222
177 8 16
163 51 121
134 75 100
163 180 0
26 195 241
104 172 32
174 147 12
96 81 251
116 254 36
78 129 150
73 36 177
244 62 114
139 178 126
208 245 180
183 87 137
92 149 76
203 77 67
187 182 127
118 215 236
27 192 39
130 63 240
88 189 194
66 221 179
254 166 140
160 67 94
101 102 247
68 216 148
146 214 17
83 224 19
161 168 203
139 169 228
160 83 58
54 238 189
31 36 27
232 214 251
174 170 74
111 131 86
31 113 79
104 188 3
64 12 68
132 20 30
169 207 232
130 172 142
189 9 210
39 71 40
45 46 156
207 11 50
237 28 87
223 42 38
206 185 224
190 207 244
185 69 94
60 202 135
184 207 55
44 247 92
197 184 176
246 117 51
146 148 45
214 217 242
140 245 184
64 8 119
244 2 199
132 100 247
125 93 10
22 165 230
115 181 95
99 166 166
99 114 173
203 184 188
165 79 34
113 81 180
253 250 12
197 138 16
184 38 186
244 239 144
23 171 14
248 94 229
245 161 216
92 141 101
15 245 91
177 92 225
81 7 18
129 15 111
22 81 64
186 193 49
222 132 96
161 117 66
20 240 45
99 136 117
71 191 48
36 65 102
113 74 89
124 149 178
31 194 64
230 194 128
212 107 238
74 151 34
55 128 82
170 125 119
234 243 212
16 159 86
194 80 90
94 107 44
221 48 124
151 162 33
106 21 59
111 91 78
152 187 74
118 114 41
58 127 188
195 19 93
102 147 107
228 84 8
237 132 196
13 16 88
155 6 199
234 62 252
133 144 130
178 5 58
207 251 94
49 125 4
195 131 145
213 237 176
95 224 42
197 167 206
98 5 76
207 78 197
174 71 238
36 56 251
38 182 73
164 132 212
112 9 12
178 178 11
161 207 65
187 206 133
232 113 165
49 29 234
83 66 221
119 65 51
224 66 76
170 66 149
239 201 159
90 245 238
220 149 126
117 3 157
238 171 108
100 42 2
181 248 21
75 34 42
200 248 103
99 124 42
163 185 4
254 214 178
111 14 42
75 163 104
242 189 0
116 30 9
231 180 6
80 49 164
213 109 115
198 123 243
31 154 216
109 201 122
37 130 199
190 181 245
209 2 160
136 222 114
234 56 120
24 64 249
171 227 90
198 87 0
17 57 254
181 209 130
110 86 223
236 53 126
33 211 112
176 224 158
198 9 195
187 156 143
89 178 235
240 14 174
43 157 220
46 79 13
127 61 193
63 158 74
210 34 145
23 135 118
207 85 92
240 30 211
54 146 140
236 61 140
219 142 74
42 91 1
36 1 93
86 186 245
61 163 156
81 46 101
71 106 199
180 36 183
117 178 204
43 214 206
206 70 43
73 181 199
76 20 115
201 228 123
114 80 219
59 242 134
37 217 0
182 233 248
138 61 196
254 138 121
123 176 52
132 236 177
145 169 178
125 155 241
149 205 35
57 95 3
29 20 165
0 40 25
29 18 220
183 144 211
190 49 127
33 228 129
146 16 164
25 212 9
92 215 117
225 47 170
239 163 68
155 229 220
89 100 10
166 205 46
220 65 220
153 174 223
61 201 18
160 91 113
190 180 217
47 136 193
155 55 120
247 243 22
29 100 209
253 156 142
114 126 178
201 122 141
22 100 122
65 232 18
197 163 62
51 30 252
221 104 17
6 170 15
159 206 9
129 115 225
134 212 71
89 33 227
83 251 8
88 65 155
18 137 151
179 104 233
19 29 129
200 93 205
121 173 28
102 232 18
67 156 61
59 42 194
185 123 198
105 26 150
26 99 146
159 168 185
147 116 139
190 139 199
239 220 30
73 162 78
131 231 108
208 250 181
92 21 17
238 213 235
39 179 237
246 240 95
244 98 90
34 58 100
16 188 222
21 147 17
208 80 32
201 188 180
187 237 133
123 66 145
42 174 205
116 142 135
183 201 157
236 28 242
56 100 171
118 225 234
27 96 167
9 139 112
37 20 192
62 47 119
105 170 12
113 238 208
46 26 116
81 227 47
125 159 129
105 126 54
87 104 184
205 14 102
150 12 187
75 14 57
73 221 41
244 108 8
50 119 99
138 58 222
49 144 98
18 246 243
172 174 191
169 179 31
202 171 149
187 187 77
238 163 36
215 38 31
93 216 1
75 171 132
160 207 146
13 121 105
93 84 92
11 62 97
25 207 13
242 225 151
1 160 111
116 246 224
139 77 148
95 9 222
228 11 193
113 53 54
48 246 92
178 186 103
30 211 56
145 102 38
87 169 143
223 96 88
93 74 7
21 111 43
60 253 210
242 60 10
239 47 57
193 128 9
245 213 202
90 38 69
202 133 214
110 139 57
214 176 83
186 72 130
234 223 82
164 29 103
178 81 57
175 140 5
58 167 67
90 86 225
58 4 148
165 70 89
64 109 46
145 62 39
7 148 43
180 68 134
78 100 75
113 171 5
229 45 94
175 216 237
116 109 145
25 2 109
12 80 154
84 129 195
97 96 123
188 245 115
80 134 87
62 177 13
10 16 194
95 36 152
115 126 254
16 12 4
179 153 150
45 45 215
49 67 105
5 227 227
55 125 121
192 10 152
147 54 54
195 230 113
41 45 210
234 241 116
204 119 173
56 213 189
45 245 100
193 100 137
2 101 124
68 4 128
158 108 164
118 184 169
91 109 109
140 57 11
238 215 60
92 91 46
62 195 244
66 130 161
194 183 27
142 250 79
251 200 49
138 155 200
61 93 231
145 86 169
239 166 186
11 136 77
10 52 200
245 130 96
59 126 221
44 248 163
135 59 175
78 191 19
177 29 20
14 31 80
42 201 65
250 63 243
158 153 233
83 114 125
119 14 252
34 110 87
233 90 29
55 175 122
173 250 166
87 48 129
209 81 22
136 253 184
7 138 181
69 17 110
186 248 153
150 253 14
147 254 63
223 92 5
209 235 68
13 188 81
170 16 151
237 44 85
120 132 69
93 68 136
248 56 167
123 210 93
183 119 206
185 78 81
133 252 51
115 172 230
186 212 191
37 76 53
222 242 10
120 204 13
6 77 254
55 193 10
177 88 231
70 7 246
240 66 130
10 174 22
120 250 234
35 77 193
15 106 135
119 141 33
152 79 251
53 227 72
148 157 104
19 13 22
7 245 132
186 91 44
232 15 153
13 29 112
88 121 193
3 98 77
98 254 67
237 107 18
205 155 50
165 202 42
239 185 251
75 234 52
193 244 197
201 102 184
34 227 10
116 141 41
15 180 107
7 144 68
90 235 197
52 173 4
84 208 150
179 250 223
137 30 134
14 241 232
29 236 82
154 44 240
91 61 147
63 19 163
99 69 22
125 186 105
33 14 163
77 208 61
246 113 202
220 160 49
217 193 91
104 136 35
48 60 92
206 214 211
65 177 195
118 46 56
123 232 40
14 248 249
45 194 76
16 28 197
44 173 47
221 164 193
161 130 168
188 3 168
38 173 105
128 97 238
119 62 63
48 100 67
59 196 2
228 185 32
238 36 231
103 106 250
224 100 129
48 79 234
6 192 177
218 124 86
139 222 137
230 30 148
249 94 116
175 105 120
223 91 184
55 181 84
194 139 218
12 14 153
126 81 223
200 141 190
114 108 55
6 192 190
151 189 145
5 82 81
191 133 71
78 242 178
157 130 184
51 66 77
51 157 181
17 81 34
50 17 72
111 125 57
61 5 10
38 214 209
37 84 37
72 89 216
28 61 73
14 141 76
170 11 95
16 27 222
220 226 251
90 252 127
27 98 100
44 189 159
252 211 101
246 0 178
99 49 180
241 9 44
72 227 11
254 131 185
244 130 201
214 172 122
20 52 241
254 219 93
91 76 53
139 171 139
248 230 26
222 67 94
79 163 48
60 64 185
23 86 47
215 35 123
230 37 20
19 5 160
145 242 237
36 187 112
54 246 254
192 18 63
208 135 50
206 87 202
135 154 22
21 217 81
183 132 51
95 139 28
126 234 181
252 106 243
75 107 102
181 191 73
198 131 235
100 236 159
141 184 133
89 253 154
41 112 27
86 127 6
8 190 171
25 60 62
36 217 163
90 194 84
178 195 22
174 166 95
223 22 233
100 193 125
81 0 245
206 37 13
26 70 156
96 123 246
91 175 85
203 139 16
117 245 145
35 66 28
148 214 139
203 69 94
166 102 151
207 185 25
111 247 57
34 98 218
132 230 146
123 154 16
202 82 75
207 88 17
241 246 81
30 25 234
63 108 5
68 90 138
149 14 89
23 243 115
116 249 0
221 32 130
245 66 173
91 54 173
71 232 47
191 248 125
208 179 184
136 143 31
41 164 77
4 136 35
199 226 114
254 74 227
135 86 205
83 133 88
205 236 229
187 232 204
174 173 164
247 89 95
220 79 23
6 74 97
223 7 21
238 1 159
99 152 19
65 232 134
165 108 201
1 123 205
114 69 150
96 164 160
137 210 105
130 57 11
22 163 15
94 31 234
197 132 113
171 204 187
118 243 104
45 138 109
22 152 0
166 91 182
138 167 248
121 148 59
42 129 98
91 2 126
142 253 110
74 61 98
134 119 136
133 41 36
15 207 134
199 172 66
43 72 47
156 153 155
161 79 139
48 129 171
108 108 240
162 41 130
51 150 82
87 18 252
73 80 127
212 224 59
120 187 182
32 146 163
160 182 183
104 251 205
109 204 198
227 181 166
42 50 227
181 11 241
238 237 173
35 36 189
129 137 195
140 179 62
214 114 8
124 98 3
165 7 64
139 75 209
177 47 42
209 5 64
75 21 218
191 62 2
236 226 130
121 86 129
219 148 194
86 144 83
144 241 48
123 59 201
248 218 29
49 226 207
111 204 114
62 248 174
103 200 106
46 69 135
89 58 109
137 193 172
184 211 150
91 77 63
191 120 146
83 21 119
20 12 31
130 38 33
76 200 154
195 82 155
112 229 220
45 168 248
226 233 201
76 43 184
45 90 216
162 161 199
24 160 3
91 181 160
78 165 192
243 204 181
127 192 235
119 82 35
212 50 216
21 76 188
106 215 134
199 176 99
237 244 12
33 246 7
120 247 22
104 162 230
246 211 238
65 230 85
143 183 187
247 250 73
14 92 210
217 150 122
24 234 137
205 58 189
186 204 80
108 111 56
35 46 146
201 194 89
79 75 80
91 41 2
67 181 34
148 199 54
25 83 3
253 197 122
76 147 30
92 200 121
12 151 87
41 164 52
192 213 92
91 177 212
238 121 80
157 222 1
146 180 209
44 8 116
58 83 212
142 118 219
20 43 102
190 185 138
47 166 83
26 135 57
182 187 228
126 103 89
93 117 91
243 8 207
99 187 66
231 72 115
151 100 135
162 58 153
166 92 187
37 136 154
141 205 197
251 226 165
108 209 252
119 53 101
6 254 117
210 125 123
126 215 97
2 153 149
6 198 96
120 213 170
145 100 237
181 168 215
71 114 108
9 222 62
17 207 26
110 67 205
78 3 50
40 49 54
106 204 15
155 139 15
15 37 68
147 112 64
15 99 115
99 22 17
233 57 197
76 22 69
114 85 92
169 7 161
235 246 57
39 221 157
50 163 252
119 155 92
156 114 10
7 205 101
58 144 71
138 17 72
82 31 207
39 18 206
127 87 119
44 234 147
190 10 66
16 181 245
52 129 192
6 18 1
190 92 82
195 102 5
145 6 41
141 204 17
31 4 4
176 192 178
135 25 64
78 139 125
89 235 81
97 108 102
126 96 52
159 120 121
121 180 201
155 247 147
123 248 118
16 97 104
55 92 189
80 184 143
196 109 6
151 214 104
244 52 16
11 32 248
234 149 244
213 161 242
35 168 147
87 207 108
199 139 206
236 93 102
62 165 6
178 223 41
208 24 245
196 232 57
248 168 141
15 148 218
228 72 143
58 114 55
166 201 203
0 253 32
219 156 174
154 206 116
145 201 108
135 201 159
15 247 182
96 102 239
213 231 66
46 169 39
23 185 56
137 229 249
193 32 209
200 169 174
125 176 199
16 123 226
146 1 107
168 88 73
160 216 250
215 77 139
94 195 165
146 10 66
241 5 26
15 124 84
19 214 218
53 49 140
243 100 181
91 79 126
222 124 11
125 10 56
125 25 34
88 229 11
224 189 176
128 9 2
187 187 19
183 142 167
4 64 238
225 91 81
107 3 80
137 25 36
77 74 175
228 106 32
195 253 201
123 198 30
23 2 150
16 149 174
165 125 247
161 171 63
115 187 86
147 182 243
225 168 210
3 160 80
50 77 79
221 19 174
61 229 207
12 179 247
75 75 145
4 202 154
138 248 43
39 137 224
158 177 31
121 236 139
118 18 120
1 187 44
80 188 254
49 67 145
96 43 167
208 168 217
188 136 19
155 122 85
101 111 153
47 48 27
178 67 181
178 190 85
225 131 216
64 93 48
132 119 143
119 227 182
36 244 18
61 237 201
26 185 43
150 62 202
25 36 124
58 76 17
140 85 61
15 198 135
12 228 171
21 83 64
250 40 33
154 19 128
105 185 7
125 129 133
166 87 254
191 233 54
8 93 108
1 237 142
121 21 164
37 84 185
102 118 46
5 161 231
14 11 120
182 1 124
115 188 238
28 46 44
219 49 29
159 236 205
56 215 149
32 162 158
157 37 164
167 129 224
137 204 81
138 47 30
143 198 237
142 58 84
21 191 121
88 34 175
160 34 130
209 0 20
229 204 43
141 16 237
60 131 35
13 52 162
72 226 122
161 195 38
173 46 197
222 45 13
20 188 31
90 218 121
102 13 180
132 165 154
77 125 107
104 28 190
12 231 162
137 78 6
44 128 114
205 120 7
163 228 81
199 2 71
238 95 54
95 181 108
56 233 164
25 221 62
134 208 57
100 62 174
222 159 193
108 54 201
135 68 207
169 29 39
104 171 148
167 34 144
118 126 19
13 3 27
169 105 85
0 26 23
67 127 61
79 1 143
43 172 241
61 231 216
158 132 244
192 193 9
162 92 102
137 103 136
249 112 37
129 228 97
19 241 249
189 198 42
206 227 7
117 90 168
230 164 98
92 77 50
20 81 241
48 90 177
112 212 189
27 237 81
112 93 141
89 80 192
21 247 111
180 3 152
8 207 137
113 86 129
157 159 75
225 17 47
138 235 103
222 167 47
227 216 154
46 119 169
215 242 12
53 142 162
220 123 101
20 210 216
79 154 148
29 202 44
192 174 20
4 12 137
52 87 170
75 104 101
63 175 199
208 79 19
186 164 86
250 129 103
136 168 132
32 99 179
26 186 10
59 118 152
36 40 5
207 169 145
66 228 218
45 249 110
199 117 228
1 53 99
143 208 53
226 16 224
65 93 229
41 181 145
151 155 243
5 94 234
143 197 119
229 193 215
107 240 163
244 228 85
67 250 103
109 39 188
241 252 232
13 125 39
86 37 189
213 202 91
41 13 73
55 56 243
114 91 62
20 211 221
244 19 77
245 129 235
239 31 15
235 26 36
212 121 60
156 23 96
244 93 115
47 14 234
26 110 236
212 56 164
13 177 51
125 37 1
253 14 228
168 172 118
22 251 4
248 254 82
50 42 200
49 235 95
84 150 150
9 180 86
196 133 73
36 161 175
162 58 33
44 34 42
119 59 36
96 71 17
122 211 6
118 156 236
233 190 87
39 11 203
210 228 111
172 196 31
39 148 155
53 79 50
5 41 253
44 14 144
254 194 78
101 231 92
203 160 100
130 153 186
57 147 84
251 234 37
1 61 14
236 113 248
22 158 48
223 180 14
36 66 45
33 220 124
151 69 182
203 249 243
94 39 197
13 202 10
142 12 195
207 6 206
130 128 161
4 135 186
114 122 56
28 250 85
77 195 51
113 65 226
106 239 172
113 187 191
73 239 82
149 21 218
158 162 55
58 198 139
56 219 241
223 32 58
180 29 138
26 190 242
82 80 153
104 81 86
6 129 233
131 213 5
193 24 80
163 247 137
124 238 174
153 211 0
182 173 73
196 68 145
164 176 213
112 19 99
221 70 119
253 200 15
216 183 93
115 117 228
177 198 220
253 156 124
27 113 220
121 77 180
109 112 48
229 59 21
2 119 37
99 70 53
133 80 67
27 58 13
75 201 215
186 166 28
121 65 174
155 241 22
248 99 61
177 145 33
246 2 183
84 190 5
10 250 69
122 157 175
243 58 245
11 222 166
61 191 127
218 218 63
95 111 38
220 47 4
221 195 127
112 168 59
135 56 193
247 49 179
23 13 101
130 121 53
192 60 167
245 44 110
205 235 142
229 215 65
2 201 140
134 81 141
110 0 159
59 77 166
118 20 1
95 50 35
194 170 250
34 16 92
193 213 28
8 109 76
175 70 184
26 251 115
236 123 197
140 107 129
243 214 196
43 81 224
61 13 31
158 15 243
197 166 197
30 61 78
111 107 118
51 154 190
233 105 211
205 15 222
147 179 221
45 208 249
161 230 48
227 64 155
131 65 60
156 131 8
139 203 12
128 151 99
51 54 251
26 143 142
208 135 3
172 152 33
83 120 48
87 248 0
189 251 97
140 9 152
137 11 70
224 188 185
163 73 208
178 186 142
42 186 49
43 106 123
148 126 137
142 94 43
73 111 145
113 181 77
105 139 40
207 146 69
127 60 205
103 135 28
147 159 53
66 254 5
189 228 169
101 51 27
178 241 148
112 26 2
146 236 185
118 246 50
245 130 217
32 110 214
174 139 84
252 66 138
171 96 181
94 15 199
149 239 86
77 21 122
25 132 15
203 254 114
206 70 221
245 206 112
129 68 223
207 179 169
106 109 74
159 206 21
100 112 249
211 25 243
71 51 54
40 66 62
221 42 206
81 23 81
108 45 39
237 123 236
201 123 201
183 21 183
199 105 168
248 171 0
106 47 109
120 250 107
76 8 163
93 217 202
87 27 63
203 34 43
37 151 17
29 253 41
231 177 164
236 193 81
251 34 224
94 12 218
213 36 76
103 188 221
21 225 53
171 217 51
91 97 66
186 108 142
171 247 69
171 47 231
249 62 63
221 56 116
235 158 154
122 106 10
190 21 233
119 170 177
211 191 222
15 0 116
31 162 124
205 81 213
242 213 253
86 206 199
75 245 153
188 125 108
206 145 94
124 8 34
153 175 72
193 91 67
75 25 81
253 24 71
84 118 191
230 224 6
134 233 31
252 232 97
153 201 39
151 247 36
97 42 68
249 84 124
166 162 217
173 15 30
50 243 186
102 42 125
21 14 199
195 214 185
235 108 110
55 166 37
137 175 170
141 82 186
155 168 55
100 33 237
74 80 251
218 23 146
138 177 246
128 246 197
62 236 126
116 220 46
128 59 54
212 222 253
78 240 68
114 40 86
219 71 87
55 45 115
30 124 251
79 193 69
124 86 67
238 58 191
45 123 239
75 69 224
189 223 168
236 121 248
187 89 12
92 236 201
2 44 167
58 222 213
152 153 69
80 118 39
132 203 8
191 178 60
160 50 198
78 52 212
105 208 212
222 112 3
40 83 59
100 50 243
88 247 127
140 193 127
142 148 0
73 251 110
138 105 88
187 194 23
41 35 71
129 250 241
148 199 137
242 26 115
92 103 80
158 223 129
230 169 101
75 149 156
124 209 59
162 158 5
185 186 161
36 201 136
217 46 64
231 245 154
103 159 108
229 241 227
136 48 172
1 248 240
115 221 95
134 17 42
74 42 249
110 157 123
170 84 66
194 5 86
54 144 112
40 202 211
174 24 169
37 144 50
234 62 11
218 222 252
215 182 215
88 23 155
129 157 169
74 39 116
180 56 244
112 3 188
6 172 57
62 216 190
18 90 1
3 16 145
153 250 98
244 227 212
102 97 19
212 136 65
33 28 229
233 68 168
241 3 76
123 11 15
16 178 55
139 165 160
125 185 18
23 133 2
51 119 129
16 254 190
142 133 108
38 244 249
23 252 23
20 244 98
95 244 171
135 9 202
229 142 142
57 46 191
26 241 170
40 199 172
210 205 133
87 103 18
129 41 71
131 76 252
246 23 55
16 237 25
18 147 245
85 70 46
184 181 128
203 87 233
90 114 132
70 61 234
151 243 109
111 143 38
114 62 113
225 214 179
251 151 228
84 168 20
232 104 223
141 152 10
102 206 32
205 106 195
135 231 164
116 96 246
146 165 236
77 162 33
196 230 96
7 21 236
248 126 127
108 182 48
71 28 44
124 66 223
190 178 60
106 216 209
69 158 83
146 35 147
241 69 79
101 6 190
187 53 134
89 86 115
179 90 119
101 158 48
175 126 162
85 52 3
166 215 203
247 58 212
1 236 230
84 5 159
64 233 244
119 144 125
1 105 175
28 23 187
89 56 27
52 152 193
79 53 159
111 102 74
20 166 117
170 174 230
186 56 68
136 98 111
254 220 209
238 234 218
150 234 154
248 121 189
136 96 239
120 125 142
204 144 144
152 117 19
26 170 8
134 42 111
168 81 91
118 228 216
6 79 107
177 69 104
6 13 61
113 124 58
155 65 122
119 196 11
247 221 30
96 74 23
113 70 111
194 210 226
20 47 137
134 17 68
224 18 189
198 102 132
96 217 120
168 173 227
41 54 120
57 83 93
160 168 121
7 227 220
55 202 4
174 93 96
4 72 151
149 99 196
23 128 10
170 185 248
233 107 153
164 245 197
119 13 111
174 137 4
54 174 254
108 23 72
210 19 198
217 184 38
252 148 72
158 107 244
39 249 118
88 86 53
117 151 106
233 95 81
201 95 27
57 196 155
119 159 26
38 221 7
55 139 85
120 83 108
250 117 44
8 94 168
6 154 253
183 177 133
91 234 199
17 77 116
196 62 18
14 74 246
82 210 169
160 248 228
247 77 52
92 88 148
240 143 173
218 27 37
119 134 21
13 117 101
134 71 98
204 153 32
93 54 179
180 76 211
60 4 91
244 150 77
96 34 65
243 59 81
220 79 133
37 254 248
167 123 136
147 162 87
128 149 178
231 19 24
251 42 52
179 130 237
162 223 27
74 166 239
128 45 87
154 79 176
210 40 151
71 152 167
48 0 130
99 139 102
5 91 60
57 186 5
218 23 96
32 134 184
187 209 47
113 32 98
105 135 139
196 99 145
127 76 215
124 154 177
15 93 37
209 53 45
238 188 50
33 217 142
64 45 95
156 225 243
85 241 12
159 106 47
139 244 136
58 12 150
139 94 199
205 142 194
49 196 49
213 61 17
158 31 140
125 54 7
148 95 21
10 147 131
242 121 118
97 133 31
227 173 90
120 35 140
101 104 157
84 169 125
19 67 65
185 212 144
166 249 165
52 4 97
3 207 109
236 236 26
74 30 23
180 79 196
116 194 77
241 143 193
192 20 173
98 87 58
35 99 219
150 92 67
72 31 125
182 102 133
28 184 48
204 133 48
119 188 242
235 113 3
61 138 38
176 110 114
123 113 41
6 195 172
96 179 143
97 75 123
172 240 151
39 19 180
47 58 165
12 182 90
127 178 128
59 203 155
24 71 78
162 184 29
20 69 188
128 135 57
91 121 213
19 81 38
212 85 187
131 108 20
191 178 167
12 216 247
230 210 209
141 239 6
76 95 193
152 99 121
101 170 189
155 57 131
165 201 217
158 115 75
40 103 112
236 32 13
105 121 114
8 166 191
137 199 253
154 8 151
167 191 223
176 39 229
115 15 79
248 137 247
70 234 114
208 15 85
36 169 121
9 171 160
7 51 195
135 14 48
104 98 66
75 51 181
112 107 101
179 114 112
208 187 196
202 175 203
196 142 238
200 116 8
149 54 69
138 77 89
95 17 35
208 207 102
31 29 150
214 49 165
19 62 162
181 164 231
3 9 34
139 68 196
103 231 245
23 154 65
90 69 123
200 192 237
81 48 230
186 187 228
64 203 153
200 239 171
192 215 213
109 152 22
104 237 6
176 87 194
159 163 160
72 142 114
140 246 169
155 82 87
162 103 191
194 85 197
53 207 22
63 213 16
252 202 37
134 39 252
8 112 85
85 90 81
230 61 22
223 34 237
44 49 180
67 29 89
246 64 108
206 198 87
116 191 12
154 200 70
198 125 25
137 32 202
198 197 121
110 47 77
231 196 197
120 127 112
143 20 20
154 150 69
25 239 101
123 227 74
37 213 2
243 224 42
69 78 41
251 222 222
238 27 137
139 113 210
180 253 12
41 37 135
185 69 118
234 163 119
133 241 142
87 156 184
122 38 114
253 70 64
208 249 177
88 252 134
135 215 167
13 82 132
136 14 93
213 237 190
107 156 88
127 96 220
126 55 68
2 52 202
107 83 176
192 23 197
153 205 227
149 82 82
223 197 127
138 14 112
175 116 189
136 167 178
118 107 49
237 222 245
1 250 228
232 3 197
0 91 29
202 101 13
81 151 249
192 174 45
92 4 146
43 96 138
159 160 179
1 99 239
177 240 174
167 6 41
109 52 22
68 39 187
238 52 100
184 40 124
33 121 222
239 17 150
219 40 211
49 252 139
105 229 103
20 119 65
165 175 61
197 66 219
60 52 106
114 241 168
182 181 194
197 44 13
71 250 252
24 58 163
61 236 57
137 108 181
125 6 159
141 227 202
53 56 67
155 194 37
3 236 182
89 228 192
224 164 121
178 214 200
47 6 97
125 109 43
242 94 66
140 80 197
242 41 97
157 11 171
103 158 67
156 122 13
62 231 158
115 139 173
187 218 237
63 218 135
197 173 242
203 46 192
28 80 162
216 126 8
194 115 74
34 132 103
156 41 230
143 137 172
136 108 199
160 28 134
158 75 164
8 165 239
139 94 232
154 207 101
135 164 254
85 102 105
59 141 119
54 93 223
75 118 30
7 85 37
188 233 40
122 145 70
136 238 138
120 161 3
122 238 59
215 57 10
180 161 128
99 43 118
130 211 142
234 30 38
8 36 189
201 115 60
182 7 222
36 190 115
52 221 69
170 157 181
203 26 53
235 17 211
156 220 27
188 133 151
126 135 67
140 234 217
131 44 227
253 173 29
159 137 148
115 248 96
116 11 120
100 237 93
78 91 116
15 209 60
228 253 216
127 176 5
246 163 93
89 138 114
191 26 135
73 57 128
129 235 76
212 226 157
226 127 60
139 29 107
51 203 228
149 234 243
189 228 249
132 137 70
66 190 36
144 54 148
155 52 110
190 242 197
148 74 35
204 133 136
200 254 49
55 65 70
151 221 155
185 236 45
151 105 70
84 171 170
80 159 59
51 243 219
252 197 120
71 59 57
116 14 105
143 160 157
188 239 99
76 63 67
174 161 152
48 245 179
235 70 91
244 154 20
105 92 192
237 95 193
193 169 251
230 57 19
59 241 26
228 121 225
225 245 129
186 161 246
210 118 193
116 196 115
64 229 75
108 217 140
127 189 76
116 176 117
179 53 30
125 34 233
39 84 128
249 139 165
204 18 5
70 72 122
217 203 182
37 57 75
38 38 111
16 246 105
74 47 24
85 202 91
163 185 95
109 92 45
215 99 183
73 86 227
227 210 207
3 141 199
247 79 74
111 43 229
225 200 167
29 234 8
39 123 235
1 54 140
250 31 212
72 4 213
55 34 185
42 61 116
214 181 237
222 45 83
148 60 49
70 200 219
244 20 251
34 83 227
102 164 37
21 211 125
86 103 57
230 51 225
157 78 41
74 168 246
248 240 111
102 11 13
208 157 194
244 247 230
174 119 206
58 103 6
12 254 90
34 147 174
0 143 79
143 30 214
86 40 158
26 100 12
28 56 139
39 162 218
42 52 94
196 111 230
148 32 24
31 61 155
160 136 17
125 24 17
213 30 76
150 80 85
254 39 147
218 100 210
170 168 137
202 64 203
239 219 191
68 117 1
47 95 224
152 30 41
157 250 115
88 1 121
132 220 176
6 165 120
108 140 51
246 239 63
185 125 153
89 68 4
136 30 103
235 245 20
31 195 107
75 155 50
146 30 246
160 204 204
9 10 216
213 86 15
153 120 179
63 90 182
188 43 148
67 30 181
39 200 211
178 113 211
250 74 190
102 166 66
140 240 122
124 129 69
116 114 41
178 155 107
194 93 13
181 71 144
18 162 95
20 62 143
4 186 191
183 234 195
215 152 140
189 185 50
228 2 179
83 35 124
224 81 11
202 88 82
44 252 132
142 174 106
164 39 215
121 155 126
157 190 16
45 76 82
137 127 162
75 250 27
240 186 120
177 12 147
8 230 183
78 59 199
69 82 16
124 10 221
196 157 4
245 27 191
177 32 50
173 1 240
118 227 95
37 91 67
67 220 74
139 191 35
127 17 251
231 79 68
153 137 119
4 236 23
137 194 3
239 126 248
230 216 150
252 33 199
6 48 83
223 143 14
254 108 32
161 204 216
116 231 107
242 114 22
77 231 44
92 237 91
63 146 226
252 15 107
75 2 249
21 129 108
13 109 19
236 237 165
88 105 214
133 68 226
246 170 187
192 154 102
131 208 198
31 165 232
88 227 214
7 185 5
184 100 188
94 126 192
62 186 222
114 142 110
82 247 77
144 117 141
49 112 182
20 237 57
3 191 174
213 161 96
79 134 133
62 217 73
167 81 107
243 74 220
123 39 34
34 62 4
218 78 142
187 97 186
144 236 117
181 18 93
236 103 71
146 26 130
103 203 217
97 82 217
34 40 190
234 169 170
153 60 109
23 149 192
190 177 13
186 24 147
71 207 94
205 51 151
205 209 170
181 66 133
85 229 152
232 63 38
63 40 178
223 214 18
237 169 238
53 71 24
46 184 212
52 126 22
38 120 152
94 170 140
244 166 89
135 254 69
165 122 30
137 222 138
226 248 129
210 247 217
168 238 154
20 9 197
59 153 185
10 153 108
54 6 102
0 73 162
75 121 225
62 100 17
248 77 1
28 129 81
65 133 26
28 103 44
114 244 229
2 11 150
18 87 221
145 113 163
18 12 26
84 38 248
152 211 223
171 197 98
222 233 23
115 14 110
192 154 229
228 180 209
57 220 104
14 247 79
86 119 37
146 42 184
103 107 32
60 245 157
232 194 82
25 42 49
118 173 118
12 250 235
191 90 105
14 165 145
28 18 180
49 120 240
93 31 95
131 70 7
35 143 196
72 87 139
142 36 74
145 0 192
142 151 133
195 196 80
121 122 168
227 149 224
5 93 59
17 142 233
59 198 208
96 91 148
171 36 61
128 7 199
244 144 192
166 103 139
120 62 180
112 62 2
225 101 201
252 110 47
52 245 19
97 109 102
80 219 83
121 18 209
44 239 147
98 244 139
41 254 179
101 204 177
193 90 230
243 198 108
70 44 89
181 67 16
236 230 106
229 148 214
78 247 187
161 58 180
211 111 245
196 44 199
219 19 219
19 89 21
3 56 54
207 197 107
167 97 69
32 150 142
251 185 148
163 62 226
238 151 74
172 218 82
26 218 160
121 250 5
206 165 7
102 83 117
136 140 128
54 112 65
227 72 87
85 238 221
64 51 218
178 134 83
73 116 186
10 251 221
80 188 193
87 225 236
89 11 116
66 113 69
109 110 134
21 186 144
201 127 208
129 203 188
254 38 22
73 78 178
243 80 207
249 16 46
164 54 168
22 31 105
128 151 192
190 214 141
125 5 243
184 130 52
176 5 106
30 250 199
153 39 51
242 179 49
124 2 100
33 65 171
98 148 154
11 109 63
207 95 185
1 36 12
110 164 160
107 196 229
21 53 227
45 135 123
247 11 45
2 59 1
77 247 220
137 141 208
2 240 147
200 206 136
112 206 47
31 209 228
79 93 102
173 251 253
225 179 95
101 172 172
70 156 148
185 239 191
142 112 138
197 226 32
96 81 214
46 101 227
36 252 14
24 211 34
177 72 88
122 110 206
233 214 168
176 136 197
194 230 179
66 26 166
39 203 213
69 183 39
52 42 149
78 199 92
39 85 89
47 166 195
109 14 54
43 7 234
186 2 190
223 248 116
199 111 109
201 217 132
213 141 67
25 205 140
10 39 142
222 76 71
40 19 105
152 201 165
137 109 225
234 19 192
188 9 174
113 99 41
91 223 91
135 190 205
20 250 36
167 153 44
103 26 224
3 180 157
61 22 224
81 217 14
49 209 68
213 236 110
95 15 15
94 84 16
85 217 213
116 43 192
62 250 137
40 116 195
228 252 16
34 188 159
33 15 206
17 181 132
37 32 87
178 233 58
49 118 187
194 163 227
245 138 214
223 152 223
47 22 81
75 35 66
83 89 218
39 230 48
156 145 125
49 103 97
167 99 197
219 169 128
50 205 34
208 160 194
252 171 253
209 25 206
63 195 221
239 77 31
182 21 104
80 161 67
80 123 199
250 202 184
89 129 91
196 142 19
187 222 164
97 114 222
28 8 140
70 154 202
227 216 193
216 109 230
63 234 117
116 142 216
93 214 138
165 27 115
97 131 47
197 253 209
66 60 0
36 27 64
202 68 45
69 76 73
97 205 10
45 95 211
129 134 124
86 130 66
146 23 127
12 99 216
127 189 72
126 172 10
92 248 52
173 93 108
98 231 96
211 56 8
184 184 108
66 13 167
136 159 7
1 151 70
37 81 160
92 129 201
208 208 39
14 33 199
200 232 208
233 233 153
4 107 82
80 222 254
87 20 230
124 225 22
153 2 39
186 222 214
144 215 93
197 181 112
94 75 235
235 171 56
98 149 172
60 32 224
42 227 137
53 238 136
46 79 184
194 254 244
185 74 186
120 7 232
37 226 188
224 230 55
197 241 143
19 116 207
57 193 104
74 49 121
115 232 158
58 110 192
37 178 183
201 106 13
71 110 123
129 20 42
249 34 60
231 30 44
34 116 91
223 114 65
69 36 75
55 7 120
245 103 246
124 96 92
45 140 218
64 155 182
188 185 14
25 108 158
28 213 0
106 100 187
104 12 29
204 211 0
97 63 79
86 54 175
191 249 181
128 67 248
208 195 148
20 172 26
247 209 126
85 221 228
88 231 172
32 243 219
107 68 200
215 62 95
137 249 231
145 88 135
70 106 74
62 252 55
134 184 69
235 155 67
141 139 224
15 231 40
108 18 246
249 0 158
204 13 247
222 108 6
16 212 235
153 153 14
220 17 236
29 127 18
175 14 101
249 72 107
3 3 137
2 220 137
107 7 196
152 239 56
102 44 123
45 1 62
182 111 156
5 86 129
19 23 215
247 64 66
127 77 47
195 179 146
9 206 19
20 184 241
68 175 241
78 90 234
24 68 121
117 41 105
223 53 178
6 154 22
252 230 152
27 94 175
183 253 107
29 164 222
249 61 39
70 176 171
21 125 134
77 161 130
117 137 198
156 212 27
94 82 126
223 78 203
200 194 197
83 247 182
113 23 36
81 180 207
71 116 180
102 99 173
210 80 247
164 110 172
52 201 109
234 43 25
122 234 105
170 114 244
37 215 237
124 144 186
233 243 93
79 229 188
14 109 17
234 40 236
93 243 205
181 120 240
237 243 29
153 253 73
54 153 239
170 178 227
95 183 40
46 32 214
250 169 166
200 73 180
133 139 63
15 228 184
19 202 53
68 91 12
139 54 236
204 215 209
252 183 246
60 51 205
64 152 107
234 146 49
199 224 16
25 225 178
253 96 178
50 115 80
251 11 87
187 87 109
223 225 46
116 253 239
182 119 114
150 207 85
121 202 64
249 79 38
57 165 101
111 52 53
158 85 107
240 110 88
26 173 16
227 201 44
96 174 190
162 110 70
229 205 202
111 71 91
203 180 92
66 40 90
214 179 51
131 57 49
30 190 62
147 243 85
121 3 207
136 61 155
114 147 144
77 55 41
217 180 19
60 5 249
24 74 190
101 174 253
153 77 250
84 46 250
155 166 11
179 62 63
135 129 189
218 212 227
178 185 212
14 182 40
18 78 75
30 113 211
20 94 100
94 91 53
188 146 25
60 237 10
101 203 214
200 22 238
221 51 119
22 122 189
77 87 136
214 157 102
220 220 233
47 22 145
92 175 28
93 134 113
55 231 65
216 200 183
68 148 119
241 2 230
241 240 239
28 12 191
170 104 77
50 59 241
204 37 217
196 102 50
126 17 161
67 145 71
94 107 147
7 148 232
148 134 70
168 187 190
234 199 87
31 121 89
148 24 205
112 248 172
22 58 159
92 136 164
217 40 125
211 213 244
76 247 51
8 227 58
83 121 18
66 70 54
118 43 12
13 2 216
33 208 14
245 14 137
235 41 227
69 238 52
222 127 86
18 167 175
30 76 220
250 20 21
229 16 192
214 181 42
114 219 124
208 17 184
114 65 114
2 59 26
97 35 136
60 146 59
125 117 43
222 0 103
41 189 224
194 55 221
46 192 82
10 250 126
72 39 247
159 228 117
47 84 228
15 173 180
129 14 8
5 39 192
234 212 171
74 170 22
156 149 145
147 114 135
207 96 63
60 206 182
47 219 212
89 239 181
176 104 74
59 92 63
141 150 80
78 26 94
121 138 153
167 5 220
77 139 113
177 230 73
40 11 226
163 131 64
90 171 245
200 180 2
209 58 195
217 229 210
151 176 199
78 185 147
45 70 125
99 154 95
147 110 63
149 52 76
88 83 99
216 228 61
177 187 135
188 13 87
227 86 107
141 83 73
108 168 54
241 194 239
75 13 125
163 77 194
252 236 51
147 170 119
234 156 208
80 221 195
150 48 137
190 128 83
30 20 131
14 205 114
128 164 199
146 193 179
145 117 185
173 56 53
55 26 121
183 73 189
121 1 237
87 23 232
228 245 111
251 55 189
167 208 192
136 21 120
223 61 210
129 11 203
79 29 241
34 131 79
243 24 67
86 4 23
83 160 76
124 206 131
35 4 249
8 46 186
127 125 61
179 212 48
181 25 36
104 39 72
4 154 79
133 105 95
177 12 8
172 14 130
141 95 199
5 126 136
24 232 150
20 33 219
102 61 164
122 40 230
137 152 245
194 125 190
93 102 175
39 2 65
163 181 187
249 6 180
116 54 242
88 171 100
56 209 84
219 97 233
14 28 174
113 89 228
195 19 210
109 29 45
18 11 172
219 48 238
166 220 32
233 215 225
88 71 20
5 117 176
31 115 79
190 15 9
52 20 12
101 196 40
251 54 17
40 236 74
5 145 86
156 197 238
128 241 245
75 167 183
31 82 178
185 166 186
136 101 143
214 229 170
237 127 178
47 84 43
73 109 151
103 35 228
176 6 205
8 164 180
76 128 45
208 20 240
149 47 92
98 246 166
128 109 209
142 139 89
189 29 79
194 12 168
127 250 48
225 196 183
198 247 62
73 0 172
97 98 96
240 49 48
123 240 51
76 180 41
182 201 43
246 44 96
71 195 196
249 22 43
138 43 4
64 157 83
251 216 90
236 14 134
141 210 49
25 248 122
159 80 67
232 6 40
50 107 114
90 45 78
185 127 109
29 71 109
237 174 134
64 227 0
235 44 97
34 177 243
109 61 222
190 42 115
180 20 217
159 125 66
216 58 118
235 220 93
191 15 153
195 141 63
135 161 136
79 125 200
152 203 84
109 5 223
197 121 38
146 61 204
26 4 73
211 41 118
236 210 96
111 107 203
254 167 114
107 185 22
22 71 8
95 18 124
230 211 82
96 76 109
155 86 189
93 104 4
181 151 211
243 97 6
21 215 79
189 244 10
150 215 198
113 163 223
50 233 29
113 116 97
29 228 87
178 162 191
1 138 2
57 239 76
61 3 169
200 245 58
4 62 123
157 138 111
20 115 225
206 133 190
50 9 145
43 247 109
72 209 194
246 121 188
191 125 178
72 34 86
239 74 184
223 137 41
69 188 133
180 242 82
193 248 117
55 39 102
167 165 110
235 63 48
10 118 103
187 197 235
91 11 58
144 79 212
163 110 185
40 170 49
91 179 53
18 12 162
223 178 181
15 30 156
238 239 39
46 174 206
60 58 22
70 90 159
169 156 241
18 147 86
181 234 179
71 137 171
42 209 65
159 21 113
159 164 45
194 199 32
128 146 162
175 116 58
215 3 204
71 98 242
222 191 97
87 188 113
45 34 228
35 213 47
221 39 1
121 186 13
228 250 239
248 71 1
1 236 189
180 96 123
34 30 14
47 104 225
86 44 80
126 182 198
42 217 72
31 149 196
56 2 126
227 173 132
189 145 40
185 28 169
177 240 40
89 117 69
140 231 134
134 231 3
126 192 79
8 53 222
242 228 47
172 150 242
19 78 92
126 184 80
134 194 51
246 43 154
79 116 18
187 119 162
46 36 253
235 93 154
167 122 114
233 11 234
52 52 27
3 191 150
232 178 148
219 119 236
39 13 56
6 194 34
246 55 158
138 219 242
234 101 196
159 179 26
154 110 225
40 230 97
198 217 79
183 226 65
185 199 93
17 178 148
105 86 119
141 251 18
35 215 24
45 217 13
151 111 144
60 46 192
58 191 147
1 106 137
143 51 84
19 81 186
162 144 87
7 15 132
202 75 65
111 132 174
84 148 69
149 133 47
172 231 123
132 142 118
153 168 63
230 74 234
75 80 210
188 226 211
118 143 211
250 10 225
88 24 70
31 165 113
244 116 114
249 184 45
97 214 160
229 152 134
191 127 86
77 240 178
98 85 140
178 36 26
177 171 59
141 104 168
104 149 61
141 26 196
32 201 124
246 167 232
71 47 125
151 196 99
140 220 51
148 82 136
14 212 84
31 91 164
21 62 127
204 33 208
195 142 134
126 19 219
61 45 125
239 240 12
169 115 156
250 182 142
238 193 38
11 112 95
107 232 75
131 159 20
74 103 18
15 226 3
27 193 207
127 235 207
42 73 219
150 121 161
80 55 171
157 196 82
230 229 158
90 45 50
68 30 68
80 171 240
210 164 207
148 180 4
75 198 221
210 121 24
225 184 234
243 118 117
136 242 128
126 48 233
2 146 43
79 123 219
184 85 148
195 49 121
37 51 87
66 230 59
97 246 117
123 239 29
223 176 209
232 100 203
222 129 53
134 86 192
197 176 234
207 13 211
3 69 59
212 207 162
64 173 57
230 187 248
210 3 32
205 197 101
164 65 234
121 212 127
139 192 89
200 115 105
195 92 202
131 120 8
120 190 139
102 231 80
156 150 7
102 16 225
76 204 49
41 25 34
148 5 86
81 82 112
9 29 100
123 85 113
65 193 152
220 13 183
153 77 102
138 5 126
173 17 148
182 97 158
53 62 202
50 131 39
176 203 102
218 190 96
175 130 222
70 123 188
174 134 63
46 72 225
201 242 154
21 143 112
238 145 139
132 115 183
165 171 213
78 75 134
199 207 47
94 124 51
113 141 125
202 12 246
218 122 214
228 156 189
113 123 248
201 238 33
171 87 20
253 138 67
120 121 22
161 106 93
43 244 205
116 168 19
121 93 149
11 175 227
31 108 179
138 129 221
51 50 56
232 230 109
250 72 182
254 229 194
187 15 222
78 232 12
7 1 194
207 86 25
92 119 173
24 147 8
238 187 50
74 253 215
125 128 181
206 79 87
151 51 194
54 240 215
29 223 16
73 103 234
95 1 235
152 123 73
18 15 139
35 76 241
10 163 121
113 172 28
144 180 48
134 98 200
155 250 75
240 225 53
44 4 212
242 235 53
95 160 117
112 6 169
224 162 9
94 193 45
185 203 77
193 212 230
66 241 130
118 214 53
61 161 153
34 191 114
243 49 208
207 69 48
112 182 212
76 80 177
128 84 23
73 93 153
211 14 77
16 167 221
166 21 5
1 251 0
142 86 26
224 112 28
78 8 194
137 147 209
85 86 34
62 100 215
154 75 27
205 178 53
116 23 167
109 196 215
226 15 19
204 125 14
125 95 163
227 212 176
138 10 51
156 218 241
37 12 99
219 64 137
228 167 180
221 72 143
40 190 162
113 129 210
61 120 96
138 153 100
103 145 170
64 168 231
32 176 64
81 27 68
250 59 28
98 25 191
252 65 128
99 84 126
116 62 125
208 160 29
73 94 27
229 232 50
152 47 171
231 129 227
39 237 37
109 211 21
54 33 189
58 66 136
82 194 103
181 104 188
237 175 143
89 119 185
193 21 138
126 251 64
24 215 243
59 193 192
201 32 131
55 5 168
134 129 61
252 62 53
42 215 26
106 142 146
101 237 175
15 168 116
211 145 151
144 110 254
242 106 2
156 222 14
82 172 10
184 249 160
61 141 242
46 26 12
170 123 181
54 182 59
66 68 183
105 246 71
138 2 128
50 67 209
135 130 170
219 46 43
176 86 140
224 247 68
136 231 12
55 25 156
218 167 201
53 115 138
18 13 190
127 87 115
25 192 163
201 149 62
120 106 204
247 187 167
240 141 35
100 33 30
166 253 38
88 86 162
21 105 169
65 5 40
6 160 82
28 57 232
157 210 143
27 127 22
186 46 28
245 75 249
155 61 87
138 39 195
36 252 237
48 94 153
92 158 65
59 130 200
53 188 83
136 193 118
187 243 223
20 57 90
135 56 111
213 139 199
238 213 16
69 147 59
185 33 71
125 224 221
0 98 233
113 202 69
1 74 186
137 227 203
140 13 129
193 86 91
132 13 146
108 31 148
225 157 165
180 77 206
224 179 230
182 137 139
26 226 223
247 119 129
100 158 94
212 136 76
77 119 106
136 172 91
117 22 245
156 115 134
119 147 225
124 150 72
46 96 221
173 153 116
51 61 226
40 124 234
139 33 149
6 196 58
217 233 96
136 50 48
211 27 213
62 165 142
176 78 83
156 53 229
9 73 114
78 68 215
183 253 34
32 180 23
4 247 61
82 77 63
61 135 224
205 249 184
149 207 30
52 88 61
69 66 176
19 123 124
211 241 227
174 135 60
242 111 121
105 122 67
208 160 1
131 21 77
251 222 190
189 136 22
131 150 179
106 53 131
92 67 60
141 217 148
23 121 93
136 219 139
61 224 32
169 43 58
79 152 245
254 205 232
96 72 252
78 173 123
222 96 227
83 16 150
246 185 84
114 197 141
198 48 178
193 23 104
45 116 83
134 133 222
26 117 88
208 80 223
225 135 26
130 167 143
70 204 27
154 100 87
66 223 182
249 139 114
52 129 190
48 72 66
206 182 26
26 230 234
110 152 5
145 248 87
253 142 53
68 42 170
18 104 42
20 16 227
125 110 154
170 217 30
185 199 246
176 104 38
71 131 43
30 77 22
48 96 132
157 29 228
14 79 202
253 155 114
150 185 195
44 17 175
187 37 23
106 169 110
198 246 121
62 191 100
119 253 24
177 27 59
29 106 179
226 32 0
247 246 119
27 26 144
2 239 103
221 52 206
22 3 152
2 192 240
199 183 195
173 47 117
101 154 188
227 138 179
72 109 227
83 64 127
195 246 252
222 34 23
199 237 237
119 229 79
35 167 69
182 243 247
20 105 76
164 227 181
136 130 28
90 199 107
98 173 133
175 53 131
119 207 109
24 230 71
217 251 236
31 26 210
81 39 140
94 250 114
224 151 164
7 156 107
82 87 52
67 168 252
128 249 180
64 165 236
189 98 69
55 44 202
16 85 166
247 2 184
98 214 100
149 93 105
104 218 116
227 113 48
251 22 91
239 107 80
209 227 48
44 27 70
53 81 84
214 195 27
129 243 181
209 3 15
178 73 198
246 225 146
56 185 80
164 226 170
241 30 59
69 128 126
243 128 31
140 245 71
124 181 58
27 110 30
56 55 168
184 33 162
149 150 10
121 123 73
219 127 227
250 139 47
118 163 140
83 195 139
106 232 168
97 4 80
199 37 97
24 199 188
6 84 75
217 78 218
215 151 170
218 29 235
84 147 91
92 194 62
67 17 136
209 163 170
84 201 194
135 62 11
30 79 166
21 5 119
78 31 65
20 93 186
194 43 6
184 126 220
155 212 128
19 142 238
77 18 75
78 35 151
116 192 59
95 90 4
136 64 186
219 27 187
159 180 56
166 250 183
51 204 191
193 34 60
28 252 8
14 166 62
112 221 14
61 52 206
25 84 220
57 35 248
74 253 198
237 40 0
109 126 206
73 121 62
149 235 180
16 62 134
206 136 119
150 247 214
161 242 130
74 80 27
254 178 184
187 73 162
129 138 252
79 44 223
58 156 135
51 194 14
88 88 74
179 72 48
5 59 160
22 214 192
116 209 169
27 84 205
65 162 245
210 44 191
44 23 20
191 107 89
17 50 73
213 70 216
182 205 232
106 79 246
125 167 31
125 223 23
14 254 237
80 125 20
99 185 173
101 65 34
248 88 80
138 1 194
148 37 218
71 62 54
86 198 127
127 103 116
197 94 91
14 49 163
206 193 109
249 27 56
28 77 44
223 149 251
250 215 41
216 18 41
128 198 219
171 138 223
44 189 223
125 183 173
149 38 107
127 121 19
91 110 36
99 194 209
88 186 176
67 29 203
123 50 20
26 13 63
113 113 14
149 154 214
31 133 193
248 18 40
28 234 224
92 126 152
191 69 118
210 33 165
173 100 123
85 60 252
26 17 169
242 241 237
67 29 19
47 134 79
76 199 75
59 155 202
242 180 108
131 174 162
210 20 59
161 57 58
161 22 184
34 204 56
128 106 139
218 26 60
86 239 98
34 99 18
3 116 236
147 82 12
165 220 201
24 202 147
34 189 84
218 32 232
153 166 167
99 139 235
188 173 72
54 98 43
164 207 19
10 124 39
191 144 100
137 21 172
7 97 102
110 195 152
142 206 240
55 25 229
188 2 10
250 152 144
159 12 48
172 199 47
85 113 73
248 215 2
192 69 58
66 122 144
70 236 67
50 216 121
73 177 253
33 147 143
163 132 175
36 16 48
165 252 79
12 69 94
78 117 100
70 213 6
20 154 148
206 4 100
252 143 113
188 144 161
110 74 109
39 235 131
172 57 51
253 103 163
207 16 254
230 21 135
112 11 178
184 204 131
25 172 168
48 14 46
28 50 52
253 30 164
243 111 215
120 123 51
60 246 72
144 1 45
110 87 66
71 148 73
111 167 206
196 206 36
97 99 42
81 2 114
0 60 40
226 67 117
12 17 145
92 80 150
79 114 145
246 38 70
62 225 98
43 118 90
7 75 111
235 169 212
250 225 0
64 176 138
136 136 246
126 208 58
207 139 76
181 161 153
32 163 119
200 239 209
227 142 8
24 4 13
237 100 67
250 51 25
117 71 33
96 212 89
132 141 241
142 187 74
69 106 210
143 76 249
195 178 240
121 49 143
40 191 170
127 133 98
80 194 39
48 109 253
191 110 93
103 38 115
70 214 169
132 135 81
142 36 112
59 120 35
6 75 48
48 124 243
111 45 49
75 182 13
48 56 85
132 46 234
159 190 247
213 252 123
44 65 207
43 107 169
220 139 170
251 48 189
225 104 50
103 212 85
89 93 17
56 57 82
112 80 212
45 192 150
243 209 208
204 234 40
13 18 2
35 104 98
1 254 187
212 131 16
95 26 10
80 155 250
145 133 63
229 1 43
245 58 198
129 170 116
249 227 20
92 208 80
47 213 192
59 82 7
29 26 23
226 8 77
63 83 137
60 90 9
163 92 79
57 47 246
146 206 221
223 160 195
181 237 143
63 208 110
206 157 188
108 103 145
84 109 206
230 206 11
164 175 128
22 233 94
109 21 133
4 186 207
185 217 33
73 191 28
83 202 190
144 35 226
221 150 52
125 130 175
21 250 40
97 157 228
69 199 197
47 37 210
121 25 71
128 136 163
153 2 53
179 23 165
151 203 173
122 179 0
244 250 147
6 16 187
198 6 70
103 128 15
52 139 196
217 151 112
226 52 27
21 34 65
44 250 98
233 174 88
31 169 39
233 3 31
171 109 138
108 54 134
231 112 29
147 14 95
91 53 47
37 229 143
11 193 57
129 82 243
218 96 10
101 249 116
163 39 238
187 61 189
191 189 76
134 236 99
136 47 168
174 235 147
64 191 164
178 92 125
184 22 82
84 202 78
55 225 182
120 115 126
117 85 117
124 1 117
84 9 45
0 247 16
159 146 20
136 105 204
24 135 106
238 86 140
122 56 136
209 132 221
114 162 14
66 200 6
94 85 167
166 56 60
167 98 209
39 110 223
21 116 210
13 66 17
207 243 247
167 254 52
86 151 77
40 37 69
21 112 64
52 224 239
168 132 248
0 143 203
131 207 42
73 214 206
156 132 71
10 100 86
12 208 123
90 136 162
33 214 149
38 132 18
156 175 67
172 144 153
105 110 38
118 108 26
210 97 219
67 237 97
167 50 9
64 70 205
74 187 37
32 105 230
144 100 26
65 16 187
120 177 115
113 210 8
103 107 89
173 101 60
149 162 233
91 48 112
14 13 95
173 32 1
23 70 75
21 64 152
92 237 30
162 71 42
37 72 228
246 223 111
163 211 53
8 154 41
33 163 45
42 184 202
190 138 6
40 159 129
151 56 182
49 83 149
1 226 97
145 247 168
65 185 4
222 102 224
108 36 95
111 2 39
232 117 243
4 130 201
127 247 204
59 116 42
76 139 65
90 234 84
118 32 61
238 119 171
106 144 211
10 82 189
111 252 167
167 120 104
61 185 92
64 176 77
45 177 36
88 173 65
78 17 247
179 243 73
116 245 35
14 140 75
69 75 219
151 82 236
71 227 74
217 174 18
183 177 61
207 213 36
109 191 56
95 90 234
237 85 115
114 151 102
147 143 103
170 50 87
103 101 30
92 162 224
114 155 123
60 195 71
197 233 45
236 249 104
190 129 19
242 115 72
241 54 171
174 204 193
97 15 139
197 1 230
161 218 39
251 184 214
38 10 55
248 159 89
10 105 138
233 180 87
117 18 3
178 90 183
235 74 91
136 134 214
56 205 9
165 207 74
80 126 140
192 83 245
118 6 129
183 230 198
131 13 254
221 59 162
234 233 33
210 150 253
194 242 76
15 252 243
244 14 198
69 98 197
41 89 109
105 32 183
192 113 22
110 153 48
178 224 234
61 44 186
142 33 211
140 143 94
132 204 161
196 197 207
88 168 41
236 63 109
71 99 73
119 230 173
211 0 36
220 44 90
174 58 66
148 233 166
146 161 141
138 229 223
154 86 98
174 41 82
44 238 251
201 244 151
84 205 190
55 111 153
196 30 50
217 178 113
222 217 45
115 104 92
84 67 52
167 184 76
225 252 122
65 231 13
253 198 160
42 239 181
149 175 143
154 159 247
104 67 173
210 123 34
200 197 6
201 169 164
87 176 240
51 114 42
89 227 224
173 242 237
129 79 191
73 170 148
73 198 236
9 118 80
92 177 198
156 22 63
177 194 254
56 88 146
95 99 194
150 95 169
212 26 144
200 54 38
119 134 95
75 206 57
126 169 113
86 96 11
36 100 171
11 179 247
124 10 147
27 58 134
253 74 180
131 190 222
106 25 29
157 124 94
34 58 171
195 36 251
116 18 84
111 23 26
188 55 168
93 98 243
120 163 6
84 101 211
178 192 110
137 133 188
26 175 251
103 139 156
157 65 71
2 77 136
24 34 39
113 8 36
165 131 220
116 133 192
30 133 147
16 120 114
94 246 24
191 118 19
203 196 78
119 130 131
187 76 248
104 66 214
172 203 184
210 231 147
76 187 119
107 146 228
226 227 25
23 185 101
51 127 67
96 105 39
50 15 78
76 166 197
35 201 13
145 125 225
64 48 240
38 112 169
222 74 174
1 109 154
166 200 81
100 230 38
101 136 198
118 185 14
49 40 33
225 1 11
88 33 48
139 202 19
236 185 47
63 125 1
212 179 233
233 122 111
85 228 252
12 20 217
53 138 205
17 89 108
199 31 49
246 36 252
120 204 50
103 60 182
22 174 141
197 115 152
87 191 204
122 48 83
82 177 251
174 85 147
171 230 129
137 244 62
47 236 90
79 105 84
68 23 227
232 26 237
149 123 150
104 177 220
194 180 31
199 77 218
69 218 187
133 178 91
148 68 135
91 22 75
35 243 136
59 117 164
63 245 9
12 235 243
139 146 58
187 122 60
110 100 61
36 240 48
71 246 133
74 134 216
21 164 208
144 207 243
254 231 9
97 104 25
13 218 7
186 99 38
199 128 38
147 132 192
122 2 138
148 191 135
42 142 4
116 200 197
99 3 212
206 196 101
180 66 182
17 242 3
203 230 207
91 191 167
1 148 68
74 47 64
62 165 20
179 211 135
68 133 143
158 115 7
4 107 78
127 36 119
68 176 199
35 192 231
139 207 65
27 134 13
73 216 132
194 10 151
185 93 100
20 166 243
122 86 29
17 0 25
155 231 18
28 110 55
40 21 93
49 246 223
55 2 83
147 21 241
119 157 175
43 169 9
127 160 170
145 44 40
241 46 223
45 152 177
154 177 252
38 139 101
116 132 18
20 42 246
122 54 104
59 113 216
250 82 242
183 109 37
12 53 54
48 191 8
56 113 106
210 149 177
114 121 181
190 152 227
143 95 63
140 15 121
129 4 163
50 221 65
75 143 225
115 190 100
7 45 244
111 195 147
175 160 241
237 212 87
142 195 168
252 116 98
194 121 163
252 207 185
35 182 244
229 17 206
226 227 136
195 244 212
74 30 235
53 110 184
21 172 123
59 254 210
49 25 123
234 98 72
147 85 40
8 188 205
198 105 222
157 28 103
134 92 236
79 205 254
78 193 90
174 44 6
1 185 139
134 215 21
11 156 100
64 86 152
152 3 238
152 209 210
156 41 23
215 215 59
188 102 125
102 173 226
48 148 253
91 32 244
27 81 173
232 158 138
154 62 37
85 60 102
63 26 230
140 61 42
254 167 135
37 235 247
58 99 220
137 44 57
17 162 169
16 32 77
253 26 103
196 160 167
38 17 14
91 95 137
47 204 26
144 93 75
13 59 211
93 200 187
38 39 2
193 13 209
122 156 39
167 51 235
109 240 227
135 137 87
107 140 72
75 36 161
82 186 88
234 237 144
81 184 231
76 28 248
244 46 27
97 158 191
245 228 19
60 245 241
225 29 246
117 10 198
219 192 96
170 74 176
161 212 149
190 211 37
140 223 177
205 162 215
208 66 174
215 187 169
158 40 169
147 111 151
151 114 68
2 225 38
98 48 172
17 251 192
174 0 130
7 58 112
118 238 11
229 221 224
182 109 227
56 89 244
72 59 57
151 38 49
24 139 35
252 237 195
41 104 34
2 179 111
167 102 64
204 126 177
138 141 120
75 141 100
203 77 120
29 90 145
137 203 167
141 149 33
234 252 12
15 58 34
88 143 56
152 107 73
195 3 189
224 21 34
45 33 191
1 121 236
138 209 65
5 153 178
68 153 205
100 211 68
234 173 45
208 77 254
43 241 211
11 132 209
200 223 146
152 89 67
202 79 126
91 94 195
88 86 191
214 226 176
116 204 8
194 243 17
109 169 242
133 14 205
112 204 115
135 85 168
160 159 110
91 141 198
55 34 54
167 154 189
154 177 39
32 75 85
111 35 194
185 125 249
52 37 24
47 149 48
78 225 254
115 235 29
179 65 232
110 229 167
109 168 11
70 103 232
209 174 232
204 154 102
70 118 236
188 149 204
216 6 156
10 70 239
77 148 146
137 82 171
2 47 84
99 234 227
116 8 29
104 46 199
103 120 16
89 66 22
5 236 6
72 34 155
168 27 161
182 234 245
149 16 132
104 237 47
153 22 210
142 20 243
14 66 62
207 94 177
36 6 9
201 141 200
5 67 60
207 122 106
38 108 154
133 80 208
93 65 149
248 204 71
125 19 95
222 90 221
123 69 98
53 199 19
129 239 174
98 254 58
113 140 209
107 139 44
40 188 76
194 6 188
234 170 8
224 247 178
24 41 117
138 180 31
105 235 24
186 78 143
206 220 29
236 154 129
216 85 180
82 227 80
51 167 1
106 69 70
55 199 122
202 27 48
182 23 155
233 173 53
214 146 111
141 158 79
87 84 180
135 130 140
214 123 137
19 32 105
43 5 124
157 38 243
131 150 100
63 145 27
192 131 124
106 8 117
152 235 254
154 23 125
129 57 85
200 153 108
162 62 145
47 44 164
103 227 134
80 162 146
128 250 115
222 57 71
36 147 176
238 171 35
59 38 7
124 26 49
25 51 163
181 183 44
47 194 169
115 66 40
53 91 33
254 141 16
78 144 179
184 146 247
159 75 31
163 202 205
222 34 96
254 3 206
189 58 115
211 128 138
23 26 73
189 50 141
121 248 185
94 9 11
108 155 62
9 7 77
105 245 227
124 236 248
229 61 40
103 103 36
160 168 43
212 107 43
116 2 70
138 197 127
92 132 240
96 142 99
248 171 99
147 237 149
222 219 52
103 226 152
129 118 99
95 103 63
14 111 46
41 40 77
121 115 201
113 213 196
61 248 193
127 157 155
193 182 251
251 25 234
185 4 57
0 200 214
247 112 136
37 169 73
115 91 163
113 78 118
87 55 26
119 110 186
222 210 46
154 45 189
6 150 94
182 12 235
242 198 79
54 148 188
178 24 36
229 87 99
79 134 52
156 152 165
84 3 212
86 128 117
253 25 46
236 102 142
250 215 37
254 33 16
81 125 155
64 90 46
234 100 148
236 45 76
208 217 10
51 144 18
142 234 33
28 138 38
202 194 137
86 202 225
231 178 64
125 187 224
214 13 246
72 71 71
138 18 0
127 105 217
132 202 46
19 233 232
214 46 105
215 191 107
113 101 223
134 72 44
233 140 3
236 91 148
121 7 150
46 4 26
18 185 11
149 59 124
210 52 19
36 3 43
44 19 75
146 11 168
51 199 134
203 230 77
184 128 29
113 159 85
97 59 232
201 95 95
22 40 246
71 3 90
61 108 222
187 47 138
45 232 48
230 112 151
52 65 245
251 9 162
248 174 192
141 18 52
161 101 162
137 25 126
175 218 34
159 235 69
148 252 81
204 82 112
144 97 59
240 61 168
249 133 248
214 236 202
251 214 87
186 71 11
29 204 101
223 159 27
236 135 28
49 195 11
14 163 205
10 117 150
124 89 15
93 248 221
87 68 83
69 104 198
240 9 138
54 179 215
132 140 253
204 5 128
149 18 190
15 150 233
251 2 230
154 202 191
90 71 145
221 12 196
161 68 142
213 17 84
238 105 136
114 63 208
56 91 155
130 36 152
93 75 142
150 240 40
149 22 252
139 86 145
221 209 50
64 20 180
128 211 174
104 196 33
213 71 61
193 111 174
221 248 24
110 143 74
86 244 58
30 201 150
0 105 195
153 175 32
121 95 77
247 207 225
182 64 106
87 193 76
110 33 244
61 62 5
134 170 20
36 104 234
42 72 13
7 251 253
18 152 185
130 144 147
242 150 189
202 42 24
26 35 184
150 210 197
207 54 157
85 236 146
51 224 140
244 36 158
137 22 181
181 211 192
135 145 250
121 34 146
68 26 58
5 180 125
68 198 204
29 36 253
229 202 146
186 100 99
12 247 54
173 219 85
204 45 147
238 17 48
12 57 111
221 188 68
11 251 126
73 187 201
13 108 75
16 98 132
40 209 176
111 9 193
167 170 44
82 183 61
160 24 135
55 225 218
222 72 41
106 22 43
166 189 111
123 41 214
223 34 82
238 161 245
85 5 161
61 252 43
157 33 218
64 136 89
218 120 131
10 191 85
134 28 154
241 133 153
210 73 48
72 224 95
19 15 44
95 55 229
207 43 20
83 50 236
226 190 153
152 175 152
195 252 45
161 40 78
174 75 222
69 91 128
88 186 92
83 227 233
183 85 182
54 9 161
96 21 208
217 226 10
15 149 238
213 204 147
103 180 110
39 38 91
202 169 188
140 123 238
25 115 88
141 75 165
19 110 96
99 238 243
126 148 108
56 189 136
12 31 111
247 233 89
72 209 207
244 28 212
141 161 170
254 176 228
40 196 235
173 115 183
190 169 186
113 187 73
114 241 117
197 96 93
237 160 165
162 29 103
2 137 87
193 187 194
62 135 236
215 111 233
157 39 166
231 103 78
147 168 17
34 118 91
90 161 232
80 229 249
200 91 130
144 66 180
51 168 224
242 61 144
29 62 38
119 238 117
89 78 171
199 99 222
98 137 3
114 235 206
242 58 80
0 179 70
88 248 187
80 219 249
192 154 156
221 154 165
196 232 105
7 99 172
246 30 240
204 4 116
176 152 249
247 18 212
177 251 202
157 197 12
89 68 162
18 53 141
73 222 59
172 115 2
188 241 28
142 57 244
139 61 144
188 109 126
81 48 25
244 235 72
3 97 101
76 148 7
84 166 199
9 197 130
216 62 93
70 104 144
188 167 203
88 138 94
132 74 54
61 14 104
181 174 235
139 239 223
72 0 138
22 109 59
62 125 254
172 142 107
180 55 91
93 120 69
66 180 57
141 75 247
181 131 67
160 187 121
77 163 117
244 140 94
87 191 99
133 204 52
63 184 158
76 221 99
204 244 125
10 72 172
0 52 188
229 211 123
239 77 54
140 88 211
179 146 101
151 86 214
48 174 128
23 134 77
108 217 134
82 167 63
53 193 168
22 207 35
202 180 205
94 72 229
49 251 252
93 59 245
26 254 152
232 9 133
146 231 23
182 103 180
207 71 69
153 123 150
35 195 177
83 90 54
1 79 66
68 136 251
64 192 27
100 124 167
177 21 171
3 80 65
51 236 168
41 131 183
149 6 109
68 179 118
98 146 70
58 212 117
28 191 35
22 165 189
82 157 121
110 126 54
109 150 181
189 10 128
189 207 116
5 103 147
33 75 243
103 224 238
178 76 161
13 208 67
106 23 152
119 1 73
124 206 41
168 187 93
236 250 6
75 124 136
209 151 109
25 99 91
253 7 172
248 35 95
128 205 0
80 206 209
143 117 218
76 34 58
23 248 113
222 177 73
117 91 110
38 49 181
71 199 171
113 22 33
83 65 168
235 94 29
122 63 14
85 146 227
218 102 29
45 91 128
92 154 9
27 131 12
166 13 122
187 224 113
198 222 135
85 5 9
100 4 164
197 138 222
96 252 185
24 166 14
143 204 227
195 73 185
92 9 47
34 155 122
116 29 26
189 55 81
23 196 82
225 88 95
184 27 198
54 136 17
20 35 27
193 105 0
167 123 71
210 205 134
16 249 34
96 239 190
1 252 35
243 78 103
167 122 107
43 9 221
245 229 69
102 43 116
84 59 123
123 24 143
44 228 251
227 140 248
172 88 164
56 175 156
97 23 38
247 31 62
50 250 21
127 158 199
146 138 78
24 1 41
163 91 147
247 77 151
54 249 182
113 134 113
9 122 249
72 109 174
111 156 15
195 92 26
12 42 74
64 69 235
215 66 196
199 118 16
176 40 136
202 250 233
49 47 193
253 231 41
25 105 160
158 47 165
164 70 122
227 107 228
234 64 3
223 218 87
103 17 155
91 207 165
103 16 80
139 171 201
225 182 202
227 22 181
233 192 45
234 218 64
53 219 182
209 105 107
73 130 157
244 195 172
187 25 240
42 53 178
95 181 127
197 167 210
92 224 86
234 153 190
35 253 138
155 98 146
214 160 117
181 118 198
36 73 97
135 143 113
212 101 185
205 192 254
86 217 32
57 83 43
111 205 78
209 114 175
234 168 250
147 202 208
113 166 253
20 184 168
189 19 72
250 89 80
132 92 133
149 51 103
1 62 151
123 87 224
151 55 20
236 232 168
183 39 50
201 81 163
158 135 123
47 75 90
164 177 18
48 100 18
139 41 196
21 226 122
194 71 73
103 226 110
151 154 174
129 127 119
104 195 210
2 204 91
64 130 66
26 146 155
168 81 66
81 200 84
3 84 148
19 122 131
34 107 100
118 165 155
71 12 75
240 122 74
57 32 44
132 158 227
145 151 10
202 150 199
120 85 140
102 86 200
194 234 96
92 12 30
152 38 153
121 203 223
158 105 76
123 54 4
106 158 130
112 70 230
234 4 134
162 251 96
150 221 218
139 110 234
51 72 6
196 168 193
251 243 169
56 22 93
44 187 152
15 186 196
156 132 67
150 102 253
175 72 230
62 162 230
227 241 98
252 111 15
204 126 50
202 237 102
170 43 0
122 226 42
114 137 83
118 74 160
210 91 232
244 92 200
31 150 153
133 130 27
220 17 2
219 11 178
30 245 32
63 196 158
196 31 199
133 50 129
205 89 199
228 206 22
144 80 115
196 173 234
101 211 215
202 232 25
101 171 84
190 18 100
53 158 125
74 60 85
6 223 64
9 135 243
108 41 161
28 237 49
132 153 189
174 112 49
69 140 227
110 12 106
34 220 172
131 145 192
181 104 159
191 56 17
22 28 174
133 49 230
251 46 66
65 33 3
56 171 253
28 237 228
37 247 242
94 45 235
74 201 251
130 82 67
236 224 61
161 231 81
100 223 175
37 80 67
141 0 197
149 32 197
46 46 228
186 171 144
91 7 51
96 61 187
248 128 191
0 11 123
207 140 101
169 193 15
222 51 97
39 52 192
90 25 148
155 243 217
120 144 0
27 155 53
12 254 110
129 47 135
79 214 1
6 98 220
12 251 223
220 95 206
161 111 2
186 211 180
221 79 136
239 135 2
25 43 219
140 148 68
227 168 159
147 247 98
139 130 13
15 8 60
48 32 176
217 13 98
226 179 147
106 144 52
130 168 131
216 8 247
207 186 166
34 212 199
25 155 150
155 232 128
209 132 221
152 137 173
26 93 126
134 105 204
198 85 167
15 118 12
203 42 8
74 100 205
13 59 41
253 191 153
101 155 125
25 216 10
85 8 230
138 163 80
23 110 231
193 79 76
81 193 202
221 42 205
49 19 40
105 84 42
65 99 237
189 137 22
243 27 66
128 88 95
150 104 58
153 52 89
244 137 185
47 8 162
40 147 65
113 203 4
40 20 223
212 17 219
64 70 230
69 132 28
245 226 221
88 82 109
109 240 186
3 151 187
111 92 243
220 111 249
98 239 149
133 222 61
130 252 168
172 78 213
210 216 235
51 69 94
196 220 220
209 228 137
22 2 77
195 137 224
184 212 23
197 117 155
136 94 24
59 145 254
39 110 229
165 137 126
91 109 88
45 204 185
220 5 166
82 210 227
99 72 191
59 92 80
1 70 43
113 78 72
14 165 85
134 125 103
67 139 116
172 59 122
142 89 48
107 124 47
21 156 2
49 201 123
102 145 214
75 24 158
66 101 243
191 162 101
93 243 176
176 39 117
124 179 243
212 14 76
144 209 142
33 107 46
194 247 175
189 248 193
164 7 56
106 220 30
55 42 201
27 141 217
205 214 145
155 213 198
77 72 157
164 155 123
167 197 53
167 115 189
78 151 43
61 149 194
167 69 37
70 144 153
58 9 135
147 81 200
16 186 228
21 165 199
253 132 194
240 212 19
180 172 160
141 136 71
103 237 117
112 94 128
125 37 187
81 56 34
249 164 129
178 115 123
235 142 91
109 206 158
248 90 55
221 32 56
158 34 217
253 173 12
185 240 227
228 183 92
135 172 171
239 141 163
184 88 120
127 188 184
94 175 152
174 133 82
92 1 83
187 194 156
248 185 244
134 155 117
123 100 224
146 232 189
157 245 25
30 151 214
17 65 12
250 210 214
235 69 77
163 16 245
23 130 71
206 45 3
126 230 245
59 112 100
28 241 154
7 159 208
89 5 39
175 115 75
234 44 123
161 78 50
67 169 114
0 74 213
103 124 234
188 60 195
45 235 17
74 119 40
247 138 18
172 54 5
181 220 197
31 138 136
155 16 93
33 147 248
119 139 137
219 68 238
6 247 76
160 120 84
164 30 114
119 217 164
214 21 119
226 108 175
48 79 217
118 85 28
93 99 9
98 223 222
112 106 173
226 199 178
102 114 28
161 5 218
140 122 7
8 97 3
14 245 75
125 13 242
35 76 86
76 125 126
26 151 90
141 180 165
98 4 210
92 216 223
199 136 75
235 39 89
158 88 251
154 123 79
34 228 197
89 42 81
150 58 202
108 112 47
63 243 27
170 154 156
89 122 247
233 248 108
126 215 225
111 44 220
167 182 101
130 62 221
39 166 218
34 105 150
38 20 20
150 187 114
254 145 163
6 118 124
63 165 180
41 223 74
184 14 120
213 138 211
19 106 64
19 148 121
83 36 241
250 31 104
79 89 35
110 188 11
72 209 8
239 88 67
208 223 95
22 90 9
167 181 76
128 140 242
208 180 196
245 205 18
113 92 164
146 15 57
51 135 23
143 133 221
216 241 238
26 129 109
254 216 55
216 248 23
72 51 99
252 227 66
57 254 189
116 78 2
49 205 19
235 173 236
170 176 14
214 254 86
165 163 91
8 23 193
43 154 79
89 98 49
181 148 181
215 92 73
35 69 215
90 115 158
127 57 176
225 176 228
194 231 245
218 168 138
10 202 246
232 167 251
38 97 167
71 75 169
73 8 191
42 57 225
233 117 31
212 18 27
93 226 132
20 191 73
227 137 182
158 119 85
245 198 206
211 135 15
131 245 37
239 130 49
107 59 146
64 71 54
17 189 23
236 143 20
245 56 78
95 39 63
200 39 134
120 188 130
138 240 109
174 50 214
142 147 109
16 141 64
210 101 176
218 65 243
52 22 172
8 236 32
201 129 14
25 198 100
151 154 198
197 28 187
89 162 75
59 30 97
126 40 69
127 57 188
165 59 74
189 159 41
137 141 241
141 235 217
203 113 72
124 55 60
165 249 39
209 226 196
66 0 140
162 66 54
55 221 114
89 38 159
43 34 177
33 84 223
140 141 202
155 126 191
188 213 36
58 201 243
197 5 130
147 99 76
145 79 121
236 185 60
167 197 210
13 180 7
12 74 30
74 31 241
43 44 26
232 183 63
23 45 166
1 105 149
178 182 34
163 149 78
238 161 46
175 186 153
41 32 152
241 81 27
199 24 5
191 118 158
130 192 6
180 124 116
106 87 174
102 131 33
226 152 109
30 30 77
174 136 103
1 90 77
92 254 231
196 6 44
93 116 42
235 49 89
131 76 88
121 143 84
107 200 126
25 112 26
224 6 27
177 141 241
26 171 247
233 197 67
235 87 62
60 218 96
218 248 184
173 108 115
15 236 50
46 72 205
155 207 99
51 19 253
123 111 1
45 99 193
76 114 57
90 235 156
67 51 101
137 97 235
65 16 236
19 212 124
99 106 115
208 148 163
75 108 215
170 28 69
94 226 11
198 52 131
32 15 148
233 217 17
131 20 88
110 110 26
244 112 56
214 96 0
234 152 29
14 11 135
96 189 48
27 52 71
230 82 242
224 133 130
226 47 234
99 22 129
91 76 86
219 115 174
49 148 94
200 136 11
66 30 35
179 161 173
159 15 32
126 101 179
209 108 81
17 165 204
195 142 125
228 225 162
6 66 23
155 107 221
175 28 110
59 30 151
128 81 199
76 240 113
219 253 183
140 24 125
8 246 12
177 38 150
38 64 163
146 39 116
147 245 213
16 196 96
112 46 159
50 202 68
47 198 155
137 249 184
80 202 41
60 129 89
167 134 81
191 66 217
218 82 90
34 102 201
190 65 28
16 210 110
108 76 118
209 82 243
95 190 180
101 99 170
149 200 218
203 59 67
33 2 15
188 199 106
238 63 152
71 8 170
244 25 20
81 164 24
13 47 177
95 39 79
85 134 163
150 155 117
90 1 63
43 6 144
107 71 161
249 212 141
126 189 226
58 203 80
218 81 193
128 192 204
41 27 227
68 101 44
72 132 205
64 96 41
228 125 210
39 213 153
183 101 45
222 254 75
193 223 0
236 197 129
95 48 100
114 54 15
253 202 69
235 84 96
140 3 181
7 20 108
130 206 202
210 39 245
46 60 202
164 63 139
84 160 226
36 162 16
181 70 112
3 121 150
84 81 143
244 227 5
72 108 199
224 91 143
227 65 218
111 92 218
132 131 15
159 166 59
214 69 19
123 164 61
208 225 86
152 251 108
66 34 12
113 229 41
122 7 187
80 114 61
18 209 3
221 247 20
9 246 145
117 65 244
231 50 188
29 135 207
35 143 7
223 126 186
196 24 252
89 110 8
102 112 169
236 49 87
245 230 109
80 141 26
118 173 106
242 47 14
183 164 31
53 201 144
69 120 236
45 123 220
29 161 172
70 135 35
73 99 85
88 57 51
165 190 46
85 64 224
31 237 220
214 202 103
137 93 9
81 139 129
212 25 80
42 62 115
177 127 200
164 69 119
88 128 88
131 40 204
225 52 137
106 143 189
70 103 38
193 246 223
244 61 40
201 239 1
26 158 212
162 114 246
216 171 56
12 76 157
103 171 44
117 110 162
140 65 246
168 230 12
190 177 29
159 92 224
76 93 191
225 61 62
203 104 136
46 77 156
199 212 178
59 222 132
80 173 180
94 132 208
115 97 22
200 158 121
154 2 151
69 55 78
94 25 32
184 46 13
13 111 182
4 149 250
159 21 55
20 13 167
218 189 90
57 52 154
55 179 78
133 103 23
8 101 80
17 252 221
137 168 241
179 41 158
223 30 244
172 174 82
191 192 42
125 140 95
87 146 72
70 42 247
54 4 193
158 205 147
179 129 63
184 249 15
210 165 162
138 76 167
198 89 23
101 229 212
94 116 191
141 216 192
162 27 225
142 117 100
180 36 218
129 85 70
170 150 12
51 54 217
246 178 146
14 6 96
199 58 11
106 176 222
146 196 240
98 174 146
56 150 8
217 205 238
56 47 7
216 81 115
54 218 39
208 170 74
33 147 75
89 48 11
243 74 66
9 18 119
194 186 36
136 112 96
168 143 181
165 156 213
65 165 2
144 119 218
41 218 32
117 175 145
77 112 86
12 218 214
199 53 166
136 86 127
55 119 80
93 131 46
248 1 159
32 59 177
227 122 48
0 225 141
121 119 72
11 168 209
114 142 150
172 201 208
113 56 202
240 103 5
183 36 173
65 86 200
74 169 202
45 96 239
229 123 113
81 107 31
190 61 193
160 72 162
254 60 154
225 191 54
91 231 77
179 83 243
110 29 217
148 242 71
99 82 81
237 36 28
99 194 241
227 39 147
106 16 252
70 123 157
76 192 216
28 164 223
131 232 154
173 89 198
4 111 228
70 108 171
96 5 67
99 159 207
38 129 76
33 92 194
64 132 75
32 81 235
128 253 220
99 44 30
123 70 138
32 147 90
165 14 187
241 253 193
166 254 226
26 5 181
156 211 29
32 58 120
252 83 9
55 130 29
157 166 56
78 118 39
163 21 13
2 141 249
110 111 107
228 166 30
108 99 33
242 198 240
62 127 83
6 200 11
154 64 137
148 74 76
28 42 77
111 215 8
241 230 81
211 216 230
97 101 160
241 46 108
118 104 29
3 148 103
47 201 80
237 175 198
176 226 180
156 202 86
94 182 72
58 200 173
90 93 163
88 129 94
240 226 106
110 66 223
66 17 144
25 81 185
242 178 47
232 219 75
92 170 157
183 54 38
217 137 96
152 36 118
181 89 117
73 226 93
61 10 163
81 36 243
81 172 93
222 75 105
19 83 70
65 182 70
36 147 236
78 96 89
60 81 38
198 175 233
167 133 190
137 192 42
4 166 7
193 26 233
82 161 188
169 207 226
111 52 60
157 209 49
209 86 105
144 254 63
115 223 129
41 31 120
231 80 48
212 172 104
248 130 81
133 162 147
68 205 174
232 112 146
183 63 178
57 78 108
177 15 126
28 189 126
216 8 45
173 141 114
128 6 109
238 157 186
114 45 116
50 130 91
243 119 53
214 2 159
176 180 244
56 109 228
45 178 12
121 229 223
97 201 197
241 17 132
77 156 57
99 51 180
29 153 63
130 67 46
70 155 122
75 190 237
194 82 39
226 121 164
43 183 216
121 67 120
29 176 186
56 238 122
87 111 208
196 142 33
63 202 135
180 57 166
80 153 101
80 5 34
138 245 220
59 129 242
66 90 242
244 6 209
232 135 61
110 152 19
225 112 106
137 209 99
159 207 167
214 32 160
163 248 199
107 27 36
208 250 147
73 150 227
18 222 229
247 196 178
144 204 253
70 106 26
54 149 130
103 10 118
159 215 101
97 225 24
78 223 29
173 9 111
48 40 134
10 133 8
82 178 248
206 233 40
73 128 200
174 93 30
130 124 119
221 48 201
43 164 30
143 160 245
247 232 10
250 205 178
203 76 203
213 183 140
242 210 115
147 163 131
203 58 93
35 157 113
108 23 26
75 250 10
252 23 60
195 150 174
151 233 160
170 158 121
213 136 40
54 58 128
225 94 18
21 43 85
237 33 8
158 200 91
150 87 180
39 52 133
231 38 87
246 82 221
184 238 127
221 222 116
84 197 164
253 147 32
193 179 164
83 117 171
120 184 102
180 174 142
195 39 181
219 67 84
143 116 15
123 133 56
173 229 89
183 145 19
93 90 185
20 229 64
170 125 11
89 163 148
55 13 80
18 93 89
86 176 109
210 24 215
93 218 114
150 200 253
80 196 154
220 240 125
182 244 32
199 134 202
207 29 124
178 195 168
93 192 208
110 100 46
208 177 159
26 204 69
129 20 141
45 31 79
135 45 130
209 84 176
150 42 168
166 19 229
142 189 218
70 54 37
81 17 184
41 137 222
32 228 75
75 249 217
95 113 227
20 24 11
199 84 11
44 56 191
242 224 34
26 155 177
203 157 115
219 210 83
123 39 148
31 206 69
74 76 116
148 174 213
167 42 129
64 212 23
198 40 244
175 244 248
14 223 30
214 111 190
39 57 122
4 152 77
152 250 55
122 31 160
212 75 201
12 139 247
12 71 225
87 90 55
130 138 65
191 252 131
206 195 192
216 48 154
216 127 27
184 125 80
192 14 134
2 120 225
241 242 234
42 93 246
71 170 201
242 105 86
120 11 124
67 48 34
105 163 76
121 43 29
93 42 220
108 187 183
18 175 70
28 209 196
78 225 192
148 76 202
93 188 107
134 73 236
8 122 149
109 169 179
130 155 28
218 31 93
170 228 88
205 159 82
65 174 15
172 180 210
145 29 25
158 238 196
106 195 224
59 75 216
236 215 62
125 130 39
212 24 210
46 241 233
23 104 226
144 62 28
112 151 164
107 61 187
99 201 247
157 214 49
66 91 87
199 95 94
92 202 239
228 115 242
105 6 74
38 254 45
188 167 41
230 145 167
14 232 106
202 109 166
8 156 216
253 236 21
76 45 123
242 135 164
146 66 174
242 218 197
7 213 50
127 244 157
110 59 241
14 235 177
172 92 152
52 142 93
244 135 205
172 178 65
211 71 248
224 17 221
238 118 140
240 8 4
79 230 207
3 246 167
19 30 248
18 177 159
8 171 124
154 17 119
220 76 52
84 53 72
200 65 47
219 69 123
108 202 152
69 81 76
202 198 79
98 123 110
124 124 143
47 210 127
41 119 84
31 41 229
22 36 239
109 200 139
14 132 82
157 147 141
144 93 194
15 210 5
191 236 43
219 145 62
140 151 9
108 251 180
217 169 51
84 133 136
111 19 101
47 110 121
231 108 49
110 213 183
22 65 182
218 110 65
31 73 129
250 12 234
55 2 143
99 99 238
234 11 215
238 109 50
187 144 32
92 216 169
33 15 211
132 180 220
129 168 108
207 78 118
237 90 238
236 183 231
197 187 231
193 59 147
237 216 120
71 172 50
179 176 227
243 11 113
114 231 29
124 82 230
210 136 82
118 15 77
228 34 185
54 165 76
87 103 81
3 166 56
224 17 110
150 129 218
126 222 139
72 3 31
78 184 180
227 188 206
138 242 77
16 229 17
50 161 237
70 38 163
12 177 116
116 189 228
130 203 181
87 1 28
244 228 129
130 216 114
22 71 210
31 74 195
179 175 129
136 69 125
33 66 179
179 1 40
87 22 19
100 251 153
182 212 186
23 49 21
110 77 46
25 227 9
217 228 206
169 105 158
39 209 150
122 106 115
135 208 117
26 2 211
223 24 246
60 162 115
68 85 100
69 180 204
56 216 157
171 40 205
36 212 223
249 3 122
196 219 235
97 214 85
68 95 53
247 107 106
120 169 200
62 110 220
63 69 80
174 219 231
119 153 207
110 192 32
133 7 149
10 115 165
191 160 113
93 146 22
166 207 147
224 240 91
6 204 199
53 177 154
127 123 178
196 238 135
162 228 95
117 121 206
203 186 244
71 196 186
212 0 27
46 73 174
143 78 102
128 43 163
101 36 148
220 153 53
231 137 91
89 121 178
78 48 2
146 65 138
31 249 152
246 163 29
244 35 31
77 16 23
170 109 246
68 77 149
44 137 5
182 75 5
220 60 53
232 140 241
116 155 5
44 66 115
250 6 247
63 186 32
197 100 235
193 247 105
0 69 47
144 117 36
209 100 58
40 21 100
64 115 95
164 28 124
121 158 64
168 181 117
165 165 146
238 249 37
251 245 167
28 44 207
203 58 87
229 227 27
152 69 216
134 218 66
178 37 40
88 250 152
148 49 67
205 191 242
190 237 29
191 96 98
113 0 124
180 67 234
206 210 45
96 246 233
192 130 182
119 126 50
18 59 1
78 29 158
95 224 14
201 118 16
109 113 14
13 99 166
131 204 25
155 4 192
157 52 238
106 189 86
239 114 81
76 106 31
94 177 195
218 157 182
42 38 52
55 216 23
191 242 11
212 0 218
148 34 179
208 73 115
254 60 50
21 233 218
196 230 90
179 135 184
5 137 220
51 61 183
233 116 177
210 206 67
102 8 153
120 5 251
53 134 212
179 65 197
239 199 136
223 5 101
5 7 195
233 181 93
57 7 31
171 66 82
199 74 83
172 143 230
64 200 30
6 193 93
92 233 219
75 47 54
246 30 92
4 58 210
97 191 120
208 152 249
216 212 116
17 241 106
58 71 121
27 242 69
104 110 134
151 138 239
185 12 110
196 114 163
44 22 19
229 112 210
61 208 198
12 213 178
144 241 30
167 41 173
164 13 17
174 7 152
59 21 171
245 74 87
239 14 197
212 251 212
60 222 53
83 61 131
114 190 163
139 7 201
40 15 44
24 166 249
105 234 148
235 13 252
16 104 191
29 147 136
88 0 152
220 236 90
209 149 211
55 191 147
130 35 183
159 3 150
58 64 124
193 28 125
232 29 105
154 146 226
134 124 98
83 231 69
22 243 128
242 7 20
33 248 225
220 123 151
40 45 254
134 209 132
192 162 207
200 163 170
219 32 243
80 90 171
48 167 167
93 38 35
30 64 39
189 59 212
248 125 157
116 77 101
67 76 80
11 211 101
45 226 85
206 21 120
134 91 27
165 87 15
6 124 46
26 83 249
107 156 157
177 234 246
160 136 106
104 2 57
14 201 30
38 122 152
8 60 175
41 246 245
165 174 198
173 80 245
205 89 13
248 55 99
153 54 154
48 39 91
235 132 26
196 172 105
138 222 205
55 160 78
54 225 81
26 241 181
37 152 96
154 5 228
122 155 185
164 251 176
155 91 12
22 150 24
183 180 10
178 76 89
43 121 109
73 96 97
118 233 75
63 123 144
118 140 126
49 93 43
174 114 48
210 194 110
40 245 190
167 193 221
203 103 37
75 87 29
28 200 166
114 105 24
49 36 79
209 190 211
154 39 190
113 142 96
82 224 117
137 231 241
62 219 251
247 101 218
208 100 18
201 185 78
41 70 55
206 59 75
25 132 12
229 218 63
39 87 101
17 42 111
123 89 78
218 107 245
72 51 93
57 146 16
72 203 183
224 106 33
44 191 210
153 82 45
216 126 172
62 8 252
247 185 229
182 7 190
144 35 48
207 161 200
51 125 210
17 200 114
200 189 217
176 146 60
13 53 47
231 22 205
42 114 144
107 184 120
191 158 70
146 128 164
104 87 204
163 185 150
15 250 117
91 189 203
100 233 101
168 248 200
159 118 160
19 171 126
41 30 149
199 71 171
163 151 31
185 252 78
69 41 197
107 182 71
149 121 182
244 4 168
247 0 71
89 35 214
6 96 15
189 104 55
183 43 3
130 87 218
36 247 30
233 43 46
120 94 100
81 94 131
26 73 143
130 80 205
78 136 222
112 231 2
92 35 155
31 18 178
198 57 104
82 84 76
128 27 200
149 239 161
17 142 215
18 71 215
66 222 36
198 248 6
84 166 89
240 220 108
196 234 200
101 51 193
89 26 137
3 219 115
192 236 106
228 244 127
202 30 231
74 6 132
29 105 153
251 139 189
198 202 20
97 90 136
48 221 131
112 146 168
7 146 167
230 234 166
172 1 106
131 80 3
62 135 22
214 161 233
99 215 14
70 250 62
30 218 208
116 140 191
231 193 69
164 181 250
245 76 60
122 26 206
79 174 249
107 52 0
246 231 20
68 70 190
124 34 88
170 76 5
21 204 219
123 182 106
192 68 81
156 230 196
113 213 123
168 71 31
74 9 203
132 151 184
232 230 27
158 243 91
152 195 157
175 67 115
29 60 226
150 170 55
116 171 172
132 48 0
29 101 49
140 245 95
40 161 83
72 96 184
254 226 245
26 142 213
119 188 96
133 249 246
15 12 174
239 172 221
13 244 81
212 67 150
109 173 71
30 71 188
90 106 170
74 99 37
175 0 88
223 10 197
42 29 243
227 99 194
242 243 116
1 162 87
98 40 78
59 184 3
107 244 23
34 78 177
38 52 48
195 197 213
202 142 215
248 48 213
101 79 169
240 14 76
176 173 238
182 218 226
132 86 70
243 173 194
98 201 72
203 35 136
164 14 115
10 172 170
126 208 13
49 154 15
196 183 127
232 83 169
246 151 119
212 198 147
52 160 133
217 151 38
254 140 96
109 252 240
24 9 125
23 179 118
56 159 199
211 119 112
249 97 171
93 32 235
62 125 201
7 248 60
163 173 158
94 102 200
129 147 76
156 178 189
183 164 147
6 138 103
227 253 82
43 166 205
84 193 99
51 14 179
163 221 66
5 62 228
167 107 191
85 62 34
5 174 252
179 103 60
195 237 247
35 81 206
184 149 43
45 77 7
164 216 15
67 140 125
3 215 25
21 26 172
168 12 190
166 232 16
14 77 237
20 197 63
237 4 213
247 1 183
250 32 56
155 231 128
95 35 240
68 182 248
152 166 11
128 16 57
230 25 6
89 201 63
72 139 35
248 151 72
119 35 205
252 116 22
2 65 92
49 116 138
123 189 101
96 164 88
141 75 100
34 118 149
217 131 88
18 112 77
186 240 112
99 137 234
137 215 82
67 232 150
218 97 107
254 79 142
254 161 171
150 86 244
37 74 100
172 184 177
218 22 161
110 148 29
89 143 45
225 114 88
173 249 214
206 138 74
73 247 225
29 199 169
177 76 254
83 118 184
13 29 105
220 78 210
209 174 74
224 150 170
33 104 24
51 125 176
226 163 235
120 219 64
33 228 113
88 19 32
220 217 94
90 167 31
234 67 213
38 205 44
4 155 191
235 88 206
75 184 130
3 111 253
191 180 219
127 148 188
21 181 172
119 24 69
37 77 196
119 23 72
56 143 181
19 211 241
101 141 157
233 123 82
179 13 163
216 252 130
29 19 221
172 61 171
140 12 118
76 205 190
76 11 68
1 111 225
9 29 118
226 55 31
225 112 61
189 224 189
242 75 18
229 233 177
167 196 236
177 50 245
24 121 240
154 142 197
249 80 170
35 138 247
62 131 81
48 48 183
150 40 10
139 253 53
214 4 77
70 212 141
115 150 95
157 71 214
25 251 162
23 44 78
225 170 61
152 101 217
217 190 38
19 120 75
239 118 233
247 79 101
62 73 218
111 127 179
82 210 72
18 58 101
162 253 128
137 163 51
65 39 40
163 54 169
84 97 121
144 12 245
22 141 12
228 140 181
247 88 217
214 102 204
148 90 74
162 49 218
65 123 10
199 45 205
48 81 25
252 178 96
198 250 76
220 128 177
47 18 239
62 233 220
161 66 11
15 125 195
129 148 78
110 105 94
33 184 67
155 165 32
54 52 76
150 97 38
69 215 111
33 47 43
212 150 137
96 250 13
65 123 192
229 101 220
14 130 222
243 225 84
62 160 33
209 238 237
136 111 229
80 123 116
162 245 44
229 20 101
67 80 58
246 6 174
131 109 167
63 100 35
192 247 10
167 151 112
167 55 184
115 83 108
8 145 91
14 200 99
28 101 200
204 176 122
40 2 13
22 108 147
85 252 218
57 148 178
63 188 18
193 173 33
97 204 76
240 14 116
199 216 221
72 117 231
149 218 198
42 70 163
24 241 247
203 237 252
204 20 195
86 109 107
229 154 73
232 5 128
147 188 135
199 249 201
53 124 121
3 65 163
91 185 228
193 56 112
252 219 135
241 211 80
157 169 164
55 166 140
240 32 105
18 46 226
246 122 120
215 145 113
61 29 90
201 24 93
163 93 204
164 249 197
160 180 171
131 240 127
122 85 83
37 175 49
35 18 62
188 180 59
184 182 37
252 52 31
116 149 237
154 232 88
64 93 97
126 194 23
22 52 169
182 116 215
171 107 18
239 28 200
225 93 235
123 36 218
65 85 196
171 238 67
158 172 90
89 81 156
51 19 35
71 250 245
159 246 71
37 107 204
67 171 252
105 205 120
171 4 186
221 214 215
159 133 128
138 172 49
175 116 112
189 235 221
155 175 37
50 141 89
99 172 200
195 134 251
36 252 115
120 191 252
124 195 159
38 228 17
251 174 61
94 19 236
134 84 29
210 87 47
48 147 114
196 38 196
3 167 216
106 112 108
82 202 10
143 51 123
101 16 245
109 194 37
213 141 206
57 241 159
143 7 5
118 212 132
56 182 122
114 121 183
227 72 88
54 91 206
190 240 224
141 40 225
9 137 25
33 100 204
116 175 168
70 131 182
137 135 64
246 250 86
185 237 204
42 29 125
203 134 207
133 120 68
8 81 223
191 97 186
41 135 223
236 2 237
201 157 85
163 101 50
21 64 108
173 111 224
206 55 190
51 147 205
19 32 235
83 26 111
86 4 197
148 211 148
254 243 24
8 192 95
47 238 92
148 14 166
214 114 0
74 152 195
92 238 90
194 15 215
13 52 67
183 163 207
214 187 9
192 82 231
24 118 11
132 233 167
186 160 207
149 38 118
68 155 163
39 61 3
16 32 20
159 25 166
242 78 207
199 9 176
131 66 234
89 203 29
91 67 181
245 234 183
156 73 174
17 2 67
237 104 116
66 15 52
233 180 167
85 139 243
241 22 87
48 14 170
37 185 206
166 99 147
253 250 34
169 73 238
55 38 97
51 34 166
221 106 239
91 119 223
186 78 179
52 31 223
153 65 49
174 108 131
207 253 33
176 87 207
138 117 166
201 210 82
101 13 234
174 6 165
220 156 240
186 201 198
206 17 104
170 238 162
217 126 167
73 50 99
196 200 234
85 213 182
191 108 108
6 156 224
44 180 25
109 39 112
45 119 128
27 155 164
189 18 197
51 188 160
82 80 211
243 105 184
240 15 234
91 204 246
101 84 133
60 47 104
185 120 222
106 112 228
23 163 226
203 95 175
4 194 230
229 209 136
6 56 70
3 89 171
250 27 181
82 90 133
100 217 233
177 224 178
0 109 4
206 137 116
92 244 153
1 25 201
115 13 199
227 200 218
214 32 211
127 132 148
23 235 197
63 90 208
60 217 52
197 77 2
189 4 116
122 58 194
212 212 205
95 183 190
16 115 240
173 24 5
78 206 203
222 33 202
148 90 252
221 180 145
36 203 240
197 228 41
72 129 76
147 91 176
100 190 213
59 248 253
104 225 14
161 172 100
138 227 5
171 49 174
79 13 250
112 121 217
110 222 200
75 117 197
122 5 222
208 121 180
5 109 205
33 201 166
143 20 89
36 123 113
238 177 245
130 12 231
143 51 85
237 229 195
135 223 237
52 60 210
127 119 240
15 52 159
134 233 241
26 167 218
45 174 75
63 59 85
209 93 81
27 99 29
109 159 2
11 91 108
23 151 139
174 217 168
106 15 80
106 243 55
85 138 49
58 226 37
90 249 141
48 191 44
99 165 209
169 36 36
205 174 12
230 107 154
161 177 162
245 52 30
89 62 5
232 6 64
213 37 46
248 195 116
192 86 167
53 169 65
242 186 179
79 189 123
12 13 238
89 118 172
196 107 9
152 157 224
138 189 199
113 57 113
59 112 157
93 131 238
45 214 57
21 96 246
208 4 2
111 44 128
96 97 26
46 16 67
76 18 131
6 95 54
32 19 1
160 4 216
80 104 187
241 3 168
135 34 239
36 131 186
7 62 63
23 78 56
29 77 253
77 24 192
201 15 43
163 228 180
4 181 106
170 85 172
161 164 197
162 73 114
107 254 112
217 213 162
127 203 6
219 102 26
214 231 180
141 71 252
250 143 21
178 51 181
34 52 170
105 153 28
140 249 184
96 160 209
205 45 208
161 64 38
125 50 47
73 213 182
132 12 155
200 142 99
15 249 234
77 245 9
99 135 240
57 141 20
17 87 49
182 104 102
106 122 253
133 117 138
100 130 26
208 226 172
175 175 102
221 156 75
162 79 108
178 47 164
177 104 127
208 239 142
241 184 66
54 102 53
98 31 27
94 223 226
177 58 24
84 165 60
75 154 16
183 92 188
6 34 143
58 238 214
220 91 154
45 45 207
249 25 19
84 57 44
210 233 43
164 206 224
189 225 171
184 100 240
195 28 181
14 182 125
36 56 47
151 150 204
177 79 193
185 6 199
131 64 19
163 183 84
60 56 35
17 151 55
9 97 20
24 5 181
89 58 170
117 130 143
28 145 124
79 134 88
32 107 66
100 229 224
131 227 45
146 78 0
13 62 42
33 163 206
188 220 206
10 80 195
87 230 101
237 220 2
88 228 171
136 63 84
180 8 254
35 212 251
188 89 46
6 57 252
45 48 171
58 146 30
166 140 15
18 177 195
199 171 138
8 210 183
203 193 140
17 221 149
199 210 110
186 64 221
108 117 206
128 162 121
193 184 131
238 114 91
66 236 84
163 179 154
166 232 186
210 156 139
152 115 127
77 104 54
47 168 59
62 138 90
119 185 161
176 131 59
173 96 95
179 62 85
175 171 28
221 227 30
188 149 234
39 216 113
51 208 133
219 100 191
199 168 4
140 150 114
1 246 206
19 82 89
102 195 157
126 12 173
35 51 98
229 85 209
150 155 91
6 119 1
231 152 207
173 165 123
173 252 34
92 72 184
107 145 80
129 96 136
176 68 215
18 173 198
29 196 92
251 113 195
90 184 11
23 209 252
62 254 147
99 74 87
243 108 123
132 35 182
31 244 172
95 229 174
93 147 72
10 179 149
10 235 41
178 87 65
96 128 178
135 30 76
163 12 12
26 90 205
172 159 68
161 131 145
52 115 214
64 164 90
11 192 62
83 127 55
154 205 241
115 237 119
66 243 157
77 48 5
99 253 217
13 128 34
30 66 174
61 163 79
65 40 180
40 42 196
161 31 228
44 223 231
93 166 27
168 233 166
98 66 115
25 65 98
198 60 199
44 198 220
112 91 242
148 99 204
111 253 116
216 12 249
232 66 113
96 103 79
127 84 12
186 110 22
25 26 204
107 177 93
109 23 141
144 81 247
178 130 177
50 1 231
40 141 49
59 33 97
11 220 150
73 247 174
58 226 190
189 142 93
112 185 155
37 112 50
57 222 158
112 26 7
246 97 151
110 61 96
101 95 139
95 46 42
213 173 193
221 49 238
75 116 123
119 77 180
177 20 202
135 10 145
84 21 166
239 122 216
246 145 60
0 148 115
10 207 183
158 116 91
20 98 134
198 48 33
2 228 142
159 105 229
184 56 147
108 7 209
182 62 174
131 166 94
117 205 174
72 22 186
68 164 48
223 134 160
206 149 188
204 103 210
61 160 85
133 136 141
177 216 245
67 149 63
171 10 32
54 102 213
203 143 166
115 112 195
87 254 123
135 6 117
193 190 51
21 236 242
112 239 100
236 36 192
194 161 83
133 44 7
190 236 153
0 24 122
101 125 71
149 63 254
104 218 71
136 123 210
240 203 132
251 128 134
114 65 174
91 45 200
212 47 11
183 33 192
23 91 67
18 106 73
133 212 116
237 66 104
138 154 182
175 6 144
13 52 87
7 186 241
72 188 247
50 225 20
106 92 165
48 224 26
151 54 159
184 61 147
166 45 150
230 246 145
186 254 51
153 11 134
167 60 60
194 153 41
155 146 225
48 202 3
186 193 105
170 192 46
218 38 7
55 30 225
80 187 234
15 192 235
139 231 155
233 35 45
95 60 88
121 213 237
16 85 241
73 190 167
130 10 104
113 157 124
223 106 67
71 98 248
41 116 152
7 35 248
152 193 149
45 247 66
248 27 6
154 199 4
188 101 97
121 135 182
70 134 96
22 181 37
242 107 0
20 183 117
41 190 64
61 41 206
35 26 228
19 190 59
165 218 72
205 60 121
216 44 3
112 231 170
112 152 112
136 1 186
178 120 130
229 190 78
175 7 193
98 147 129
207 146 152
202 142 128
89 221 6
247 120 237
129 37 162
186 179 102
136 239 23
7 100 233
189 150 94
210 131 177
100 105 211
113 78 99
252 205 223
204 58 59
110 68 0
178 218 117
153 15 154
77 180 77
234 154 234
174 144 64
90 207 154
32 235 27
156 201 198
189 220 65
164 131 83
74 243 57
145 10 130
128 90 1
160 45 146
30 247 33
196 243 251
188 93 79
55 72 122
52 100 10
192 137 249
87 55 239
57 207 29
12 84 172
20 206 54
186 63 236
27 109 30
36 225 39
186 244 223
164 3 241
144 162 222
74 113 175
207 181 105
64 189 226
117 248 180
11 144 190
181 211 13
133 99 155
204 118 158
227 142 80
119 96 73
168 240 247
70 249 244
175 101 140
18 202 83
192 78 33
17 180 162
242 140 81
0 186 60
195 94 64
240 95 187
117 210 243
146 94 183
21 36 8
81 103 162
82 224 81
149 15 221
205 146 64
217 170 2
243 246 92
48 5 187
216 214 57
180 14 196
156 138 217
254 252 22
182 86 222
15 108 230
102 95 238
119 131 187
98 156 207
135 66 176
253 165 186
244 198 184
53 108 36
6 141 200
94 94 24
251 39 89
199 62 207
194 177 169
90 251 58
39 232 187
170 95 80
103 115 102
207 111 219
207 189 117
111 234 145
155 217 194
54 59 15
63 130 120
95 226 180
103 105 157
109 38 0
30 110 192
104 158 25
171 42 30
130 41 175
115 145 1
128 67 110
53 222 173
78 55 123
192 87 207
28 28 162
157 93 54
36 117 112
53 121 3
248 228 225
244 115 145
105 8 194
244 2 76
74 116 22
119 57 70
92 11 239
230 94 186
150 81 142
73 215 230
220 210 87
27 158 175
211 27 59
235 140 181
119 10 85
33 79 246
129 217 174
115 247 102
140 220 49
128 159 138
94 148 197
57 136 150
80 52 94
137 61 172
124 72 172
121 251 229
131 180 239
70 144 101
60 163 43
164 100 180
28 5 57
63 198 153
2 150 95
227 146 121
183 141 231
206 208 43
172 153 83
248 87 185
22 195 55
77 207 122
160 200 160
12 15 145
8 154 110
185 140 34
103 170 135
25 212 85
103 54 71
52 110 74
185 197 168
243 87 183
32 6 133
117 151 119
124 85 198
167 44 131
106 213 196
3 158 26
0 199 71
49 35 213
28 247 208
224 4 222
1 216 88
183 233 91
196 33 18
251 210 112
79 222 223
107 135 12
130 32 214
121 158 56
139 62 183
17 9 103
58 241 138
76 198 192
86 125 60
230 210 24
143 104 157
23 167 81
1 113 76
1 254 157
234 109 59
212 45 234
130 21 174
159 62 206
78 23 8
194 106 45
55 99 119
69 16 92
80 252 246
132 41 84
207 207 129
244 103 35
129 33 146
15 27 94
91 70 104
244 240 119
138 88 44
56 148 2
87 194 187
227 33 58
217 244 83
11 9 120
53 86 200
142 65 216
11 38 22
56 157 88
183 202 49
85 144 22
136 95 84
67 161 131
46 43 53
131 202 178
125 34 188
65 46 212
202 222 97
245 148 208
144 4 52
79 65 17
56 35 135
96 158 59
140 219 189
148 162 228
40 139 175
164 142 89
239 89 160
111 81 205
114 220 240
125 245 125
116 127 107
37 89 202
128 232 92
110 228 87
160 65 21
189 66 52
43 57 223
196 101 59
228 53 62
207 136 143
59 48 219
23 103 137
218 43 120
113 66 196
45 120 64
132 234 216
45 137 10
157 229 6
244 218 119
181 122 192
176 71 253
40 214 81
218 222 250
207 57 93
69 105 147
161 165 94
185 204 188
224 19 232
122 75 88
199 185 91
31 235 218
248 99 134
154 46 234
217 63 76
40 154 192
236 9 157
12 67 198
239 144 251
39 33 172
12 209 223
50 56 150
46 136 183
203 84 178
175 174 209
191 247 224
246 227 225
114 222 63
235 7 250
155 30 149
113 158 1
213 102 184
226 192 139
81 223 199
123 123 220
177 68 168
109 51 41
48 224 41
122 161 83
167 139 166
143 38 37
134 39 141
129 121 117
238 43 225
16 28 205
40 63 244
206 186 139
30 71 253
133 249 40
167 186 7
162 204 159
145 175 174
190 83 59
245 139 106
214 247 40
67 251 60
230 108 182
200 119 91
80 245 238
165 70 217
166 185 166
126 28 134
166 245 206
58 2 130
200 236 254
230 80 107
31 147 101
0 100 60
21 84 35
152 64 98
212 215 93
7 224 0
91 167 196
205 158 5
169 199 82
37 53 151
114 117 178
92 83 139
97 145 19
167 132 57
163 215 247
208 236 233
125 231 180
138 102 188
61 45 230
195 208 55
49 3 59
245 149 149
200 223 224
216 221 167
28 251 65
163 122 11
36 19 14
161 134 56
15 93 121
222 211 197
114 56 204
58 157 183
11 24 229
191 179 182
41 218 118
94 203 214
72 223 152
101 10 237
48 176 227
220 233 249
240 242 105
54 8 223
80 183 186
140 77 227
211 97 109
124 5 46
244 117 114
60 160 119
72 96 22
100 173 127
104 148 158
69 107 173
6 42 205
40 175 111
164 248 220
168 101 121
156 141 244
250 173 160
89 150 8
97 34 57
92 26 17
118 164 8
176 19 140
230 210 237
89 147 24
157 14 105
142 118 243
243 8 209
82 164 36
65 232 44
64 11 1
23 196 27
172 93 248
76 7 242
226 34 12
159 213 102
74 26 173
72 167 171
109 220 94
238 35 170
114 79 224
37 81 244
41 180 68
56 4 181
133 194 194
146 253 140
143 91 28
66 74 122
184 84 104
239 241 62
62 59 13
48 121 204
39 69 39
39 223 98
152 156 184
221 253 193
75 40 251
121 173 125
173 202 139
224 64 211
83 98 164
14 133 6
2 180 1
48 109 138
212 248 1
69 120 221
98 100 243
19 214 47
207 252 105
44 105 22
194 71 105
67 194 114
14 220 246
137 0 110
106 43 93
108 9 103
191 244 1
99 89 197
222 98 117
6 206 69
124 16 188
249 193 215
207 236 186
21 90 231
233 78 212
11 24 2
130 171 174
99 176 221
69 8 85
105 183 110
244 112 87
62 5 145
142 175 194
178 7 96
47 98 169
178 166 93
135 81 197
179 6 130
13 36 97
119 130 17
208 163 183
60 108 226
112 38 35
105 86 177
80 200 253
254 76 18
28 139 145
72 168 145
46 188 113
187 62 6
175 152 161
166 55 107
150 148 91
69 121 186
140 137 213
168 212 183
133 117 180
177 129 166
140 202 176
145 3 95
205 123 44
181 46 139
212 116 143
189 38 112
45 238 169
12 62 176
68 250 40
252 57 32
132 130 79
92 190 148
164 250 105
238 75 142
31 121 184
1 249 158
180 156 128
98 180 193
146 226 95
168 49 216
175 218 46
68 90 181
41 235 4
49 75 79
98 64 62
45 77 113
216 72 109
178 88 133
250 101 192
26 192 153
59 208 230
28 117 168
21 55 231
83 140 87
146 222 204
218 125 247
194 214 149
34 61 142
188 221 11
231 154 127
132 151 139
63 238 206
50 190 236
58 148 27
240 245 195
178 232 98
238 60 11
119 123 102
146 131 218
133 58 107
84 148 74
221 133 144
29 20 165
109 84 9
111 165 168
204 69 53
152 205 204
116 94 78
187 37 225
212 131 40
32 72 136
171 55 161
180 201 140
65 239 236
193 99 91
233 236 202
226 162 69
138 113 43
183 138 234
64 163 187
171 137 26
10 51 108
243 7 198
254 24 93
153 74 45
250 94 244
187 151 203
142 214 247
220 129 213
14 128 238
81 228 236
124 70 239
55 84 46
41 13 91
97 165 138
228 149 119
36 99 215
139 19 221
188 233 178
171 60 112
89 187 107
242 3 235
139 236 89
177 21 149
251 157 205
139 147 115
123 115 124
106 71 179
49 202 233
168 186 241
49 121 54
133 118 121
207 84 15
42 66 169
94 78 176
150 134 50
229 125 101
254 215 208
210 83 1
99 85 112
98 49 65
170 187 127
122 3 87
199 190 2
128 178 193
201 103 174
121 114 24
223 93 28
205 114 138
222 194 135
248 240 56
215 58 181
240 47 1
10 67 234
202 131 133
25 252 112
130 221 213
88 164 76
239 66 154
188 191 128
151 239 210
79 241 107
176 0 67
112 155 2
224 118 38
114 165 251
80 34 7
179 146 38
105 197 175
220 29 180
9 20 137
36 231 34
100 132 250
37 4 241
220 79 159
56 138 199
27 208 0
49 31 210
232 206 169
167 49 202
86 241 191
172 2 130
187 117 141
206 179 116
228 54 220
201 150 18
243 173 3
93 211 98
25 240 85
251 11 28
14 94 111
30 130 143
209 60 92
201 140 139
186 237 129
20 183 64
251 248 33
132 222 190
154 111 102
215 151 137
152 165 229
95 49 248
51 182 170
216 86 20
166 13 179
202 84 54
140 115 174
245 150 222
147 100 36
7 30 103
183 135 64
152 216 136
140 214 248
78 38 176
187 186 193
61 4 116
61 28 254
22 47 165
158 132 108
18 68 76
120 16 252
186 212 157
12 9 147
157 60 184
62 241 164
26 106 151
89 136 3
151 54 84
33 59 66
113 20 95
84 83 212
216 117 29
13 176 42
4 123 201
172 12 83
30 171 131
82 173 33
218 203 207
222 73 79
122 211 212
157 184 49
166 179 92
240 89 2
37 96 16
34 233 60
17 167 12
110 185 203
162 14 113
37 190 40
7 38 187
229 146 254
220 59 197
60 72 133
80 178 156
225 56 5
161 32 69
226 228 17
244 77 46
152 7 254
53 197 18
181 238 210
65 15 96
87 33 56
223 13 151
130 145 225
251 198 168
210 217 144
37 184 225
245 158 251
10 173 211
110 226 51
20 180 46
142 43 237
31 20 247
163 246 55
207 27 77
174 72 20
53 160 159
144 31 131
82 54 156
233 20 223
103 247 63
235 214 155
119 107 25
227 251 42
234 249 249
203 148 167
225 99 240
229 250 71
194 90 62
138 149 207
189 88 128
1 155 157
239 190 215
192 222 219
233 71 36
91 3 181
45 64 231
137 90 151
48 16 210
130 234 2
0 97 239
155 3 110
101 50 97
95 45 226
49 214 83
225 135 204
53 29 100
172 225 15
113 209 13
161 77 40
115 228 153
0 159 241
56 134 110
84 196 203
49 73 71
82 96 42
44 35 44
203 126 193
107 193 237
148 178 181
32 26 137
69 85 245
145 165 93
48 27 244
108 180 238
241 201 112
73 142 223
155 215 144
49 123 178
53 57 192
151 139 177
77 241 243
217 239 98
135 34 121
102 72 89
175 198 220
214 246 93
69 163 210
127 188 169
121 124 63
111 160 7
228 214 89
3 136 129
125 254 234
172 20 219
70 196 54
234 15 128
80 254 199
170 203 185
165 133 252
158 248 226
93 27 10
95 249 41
95 90 147
42 167 22
210 157 44
153 165 100
145 205 137
36 82 222
236 117 165
87 110 5
65 152 136
73 195 136
143 230 23
40 137 124
25 234 49
96 120 119
191 16 111
56 84 86
230 219 1
113 25 167
87 47 58
74 146 213
98 135 30
79 146 96
157 96 32
44 73 110
111 49 169
28 59 46
7 181 75
113 180 67
98 239 104
47 74 229
86 89 184
131 204 137
248 45 111
146 157 79
222 163 26
206 108 11
8 143 156
242 7 37
28 210 103
32 115 173
27 14 13
67 155 25
104 210 53
238 130 167
123 61 85
114 196 13
245 56 239
53 49 212
103 48 172
95 145 155
110 230 27
149 86 212
229 89 95
251 246 54
63 134 165
211 53 95
126 90 24
76 14 104
136 181 127
253 66 246
206 183 245
167 252 8
54 36 247
198 71 231
49 74 115
232 10 225
43 5 29
89 7 72
132 229 135
131 34 47
153 127 16
66 72 83
181 161 147
27 179 89
86 144 27
165 206 221
157 174 10
15 182 226
221 0 119
224 182 193
106 25 86
50 75 119
72 227 128
213 58 245
127 126 106
1 48 246
229 73 88
241 69 63
41 2 151
155 15 254
198 5 178
67 125 155
123 12 252
225 90 199
216 72 197
20 130 217
174 33 176
96 52 217
117 108 20
117 152 150
120 91 135
120 32 233
250 28 155
38 17 238
134 83 131
246 118 240
66 79 154
58 140 47
177 5 217
252 91 51
36 191 227
130 239 90
148 127 156
231 48 225
83 60 138
4 49 60
3 218 113
42 58 12
56 146 212
140 207 112
167 223 226
187 134 118
153 251 58
39 147 9
188 204 183
18 49 156
189 38 97
15 124 198
153 23 89
64 165 244
94 87 100
216 228 131
152 173 66
70 126 184
120 219 75
234 83 74
135 18 105
148 141 188
242 147 135
12 248 60
174 190 46
86 66 45
26 223 214
19 75 176
19 193 196
17 106 179
98 87 224
14 85 63
134 9 9
23 23 82
1 227 128
216 140 168
180 160 215
115 2 131
187 74 235
3 86 173
44 145 195
57 211 110
11 175 205
10 22 104
32 4 195
227 174 168
105 25 244
170 87 49
222 209 61
182 67 240
239 137 36
99 121 136
184 68 116
195 106 206
150 52 188
111 118 191
80 136 218
138 253 245
182 95 54
195 156 170
148 179 56
82 237 123
171 113 174
212 225 172
230 84 43
59 203 24
175 205 128
68 151 114
17 98 246
155 84 19
78 112 35
40 57 9
165 162 163
50 151 27
6 240 210
16 22 80
114 52 235
58 223 29
127 88 50
132 252 85
10 236 228
231 115 221
226 2 237
18 82 157
154 194 248
232 64 106
191 220 149
45 13 2
19 72 144
219 41 162
20 207 171
117 29 129
205 26 132
229 235 250
201 156 33
46 54 67
196 189 53
93 98 162
86 248 63
238 114 44
2 185 103
162 146 65
210 68 63
213 214 49
201 253 63
168 216 242
29 130 252
92 36 97
197 230 112
197 146 45
108 143 13
246 9 59
154 218 137
202 154 61
243 182 181
179 16 209
179 218 239
123 6 9
226 14 117
128 231 99
186 148 235
223 222 191
239 87 37
64 101 194
242 48 89
24 223 166
185 60 105
227 87 87
2 250 104
26 102 43
45 31 108
170 1 137
78 44 114
139 23 99
50 111 36
68 234 80
126 214 223
29 115 61
94 22 154
95 79 211
84 83 20
158 94 104
225 141 248
133 81 64
215 169 220
165 199 65
109 171 76
181 73 66
15 79 243
7 247 86
89 26 64
28 85 86
205 186 102
130 63 77
44 175 211
237 119 80
66 163 13
201 5 43
96 9 63
177 235 209
72 116 233
97 233 92
141 145 249
130 139 144
195 182 7
107 126 253
55 110 55
29 213 34
108 145 52
101 74 50
253 238 64
191 136 178
219 31 188
111 37 20
242 117 238
167 78 213
200 28 246
144 15 17
188 122 70
57 247 94
185 83 197
173 149 54
97 168 94
34 199 225
152 57 224
1 238 61
205 167 47
126 180 223
120 151 23
113 220 227
3 15 220
201 65 173
130 70 68
245 3 216
247 49 158
47 63 155
176 198 55
108 43 206
145 147 100
254 158 246
126 201 79
168 68 254
212 229 69
213 164 220
155 231 246
118 8 166
25 59 107
72 159 3
62 170 212
123 135 69
242 207 124
20 123 107
198 145 72
160 162 186
27 182 190
171 88 34
39 68 160
112 149 120
128 33 237
36 102 249
218 34 149
150 44 99
76 176 126
209 197 250
222 66 99
111 73 178
14 117 85
162 43 217
234 66 183
76 194 66
85 5 155
123 236 53
103 75 38
99 202 197
222 103 198
45 94 134
217 189 241
135 109 204
49 172 236
70 6 225
200 253 83
38 203 238
195 110 139
80 22 3
203 39 5
42 39 174
141 18 82
69 64 196
206 196 78
52 223 215
17 145 144
69 55 253
48 204 72
86 250 239
202 34 105
99 15 95
83 237 155
57 91 114
24 233 220
0 69 77
74 126 98
222 47 251
248 187 208
25 14 213
26 24 148
231 77 27
186 114 34
135 209 56
95 37 127
138 1 102
122 103 248
117 104 33
61 245 56
40 250 14
137 41 84
44 237 16
100 165 38
166 110 13
34 95 141
238 94 14
36 85 117
137 253 172
241 4 214
253 181 28
194 150 22
225 22 131
239 106 225
11 212 17
150 128 158
146 89 150
128 46 184
31 101 76
170 199 54
8 157 210
88 133 248
83 114 229
81 231 89
89 187 9
46 27 252
90 129 76
121 22 23
121 176 6
153 220 152
30 79 1
54 165 169
232 58 153
64 106 251
153 141 85
172 17 125
132 136 134
37 149 106
156 54 212
131 198 135
125 163 58
184 150 199
156 214 217
224 241 134
0 15 74
147 103 50
201 114 220
36 102 136
17 105 13
213 116 173
11 199 2
107 93 213
68 0 82
178 132 17
151 175 133
136 163 149
176 15 12
159 11 189
77 209 114
250 125 83
100 47 245
151 212 213
121 106 89
16 84 51
38 46 252
9 175 233
61 99 227
72 101 125
200 200 130
199 129 101
184 110 4
138 27 216
242 137 183
33 249 44
36 113 17
96 69 198
8 57 168
238 200 41
22 231 35
60 194 86
155 52 60
76 4 199
132 14 109
242 114 5
158 13 183
44 45 23
200 126 234
0 231 81
186 191 149
28 252 145
189 13 47
182 59 243
237 243 47
97 106 194
57 138 146
110 250 196
114 130 149
42 9 203
241 66 167
93 141 63
11 72 24
160 193 0
156 83 26
155 12 159
33 235 80
6 245 146
201 65 112
151 233 168
231 174 50
34 21 25
216 216 215
98 104 104
107 103 122
57 184 86
128 186 96
40 173 48
187 188 247
75 73 143
61 187 222
61 8 244
151 76 12
210 65 103
60 97 216
135 163 219
76 184 227
70 137 242
127 166 45
55 201 50
179 103 180
138 156 146
69 95 92
21 107 126
120 224 147
169 74 63
154 81 171
95 5 251
18 12 34
234 227 76
122 101 247
224 48 31
32 75 50
174 161 87
111 14 3
94 225 133
19 178 149
152 128 233
163 56 130
246 44 227
81 205 56
251 119 1
189 104 63
137 137 208
60 183 199
152 60 114
15 222 28
73 254 144
202 252 118
123 247 125
226 88 56
18 164 177
34 144 162
183 161 241
121 214 145
159 85 154
80 179 246
190 225 173
117 125 93
190 37 235
37 171 66
246 177 111
212 224 254
28 88 69
70 175 38
250 157 190
171 242 65
187 106 87
116 77 204
136 222 219
77 209 77
80 250 208
40 194 211
142 168 246
10 169 123
112 38 22
112 7 150
228 229 42
45 122 120
222 138 62
201 3 0
153 75 128
239 220 220
109 31 95
76 51 153
100 103 100
4 39 172
173 146 24
102 162 118
162 37 86
231 14 237
105 193 212
138 21 183
114 225 211
169 156 173
45 153 214
130 66 190
209 10 172
82 24 66
201 242 233
72 239 213
77 235 197
139 56 143
168 159 80
159 222 217
53 34 254
212 200 26
194 202 219
82 196 57
83 201 76
67 143 192
44 244 179
187 83 74
156 108 155
165 151 210
123 135 186
20 140 197
226 77 37
14 49 229
244 99 158
163 215 122
121 4 203
28 95 168
81 96 126
203 19 125
203 137 153
130 99 2
121 31 181
19 41 100
96 184 133
28 48 73
30 34 174
153 87 87
205 81 5
161 127 107
246 16 89
169 174 12
8 125 174
195 50 178
22 154 156
81 127 102
37 8 214
52 218 29
26 99 228
39 53 88
100 155 242
119 140 105
50 91 167
46 217 76
174 201 52
119 61 75
49 246 122
131 60 34
78 192 163
180 236 242
173 190 149
194 119 131
22 212 161
25 227 77
236 134 102
200 82 46
59 212 45
55 148 47
14 78 124
71 197 238
147 78 62
136 33 88
56 55 12
75 126 99
2 41 28
113 245 244
66 108 182
51 201 197
60 86 141
19 126 137
151 238 230
40 185 218
54 107 46
203 103 2
75 204 236
164 224 66
98 101 88
207 243 59
32 242 154
22 130 59
14 115 117
67 93 67
248 76 171
156 20 171
133 127 145
91 177 181
119 224 145
8 111 107
214 90 15
196 65 224
55 135 140
133 126 172
206 55 87
235 120 33
235 246 40
32 223 9
131 229 98
107 203 30
100 199 109
15 184 117
162 250 248
169 125 212
148 163 245
236 179 59
59 66 121
0 244 19
67 67 54
85 230 49
65 60 153
221 228 107
131 113 148
128 29 76
137 8 96
81 245 164
242 172 52
220 68 79
116 93 84
109 70 52
140 54 131
75 115 30
143 152 152
90 85 220
119 139 123
92 203 21
81 241 123
171 71 226
152 159 149
212 167 92
206 74 33
180 138 134
220 106 229
209 103 6
130 83 101
116 68 34
134 129 113
184 185 20
254 217 6
225 40 167
221 217 20
113 183 24
174 129 195
27 2 101
161 126 32
120 194 14
118 188 131
219 34 182
156 56 7
90 225 56
225 83 21
165 249 150
34 129 174
158 152 122
35 181 61
128 21 183
244 80 75
166 122 160
146 121 152
219 49 146
67 122 93
45 241 239
12 190 124
68 174 23
82 72 171
188 116 254
45 205 223
164 158 233
230 251 218
99 164 183
241 194 135
180 23 92
158 95 247
253 33 233
51 120 104
182 162 3
69 157 24
77 112 237
111 167 134
83 239 171
61 121 98
64 78 38
238 219 198
15 15 127
180 175 40
162 91 236
51 170 114
182 104 154
20 253 98
20 221 58
47 93 225
194 190 116
250 193 173
125 27 11
70 129 153
131 218 202
42 133 171
227 1 87
22 240 62
31 189 247
178 125 89
87 149 167
104 93 182
176 122 99
208 214 58
85 248 140
126 250 92
17 0 120
60 193 252
92 101 139
239 175 17
26 18 203
224 50 101
12 236 204
225 6 159
103 166 99
193 34 167
14 122 17
70 65 49
107 91 192
4 115 135
169 199 67
227 65 205
94 220 36
78 38 215
176 196 167
237 163 36
81 210 52
20 253 58
176 51 252
85 82 151
123 57 107
234 96 184
19 237 157
155 225 206
0 48 4
129 117 151
165 21 90
221 117 183
64 185 198
88 213 242
27 165 187
219 14 208
138 98 112
211 84 21
16 166 210
164 114 153
163 202 139
78 177 138
40 252 185
200 29 249
133 157 249
50 191 234
61 148 144
20 91 151
220 218 17
81 73 210
196 212 117
86 139 76
127 0 121
253 61 140
221 182 82
39 159 200
136 135 184
21 118 231
171 84 131
40 217 16
195 187 151
2 40 172
111 208 33
73 233 87
15 209 73
112 182 193
145 120 8
118 212 245
112 88 10
43 9 88
115 230 211
197 215 112
104 100 150
224 166 83
79 43 236
6 49 205
222 4 42
210 40 29
122 31 106
199 247 61
34 110 251
29 68 184
76 244 87
181 114 69
85 112 208
159 6 189
126 56 44
234 24 111
69 136 165
59 3 121
70 52 121
141 36 64
13 194 139
232 140 128
9 11 163
215 236 220
122 174 43
94 181 85
219 105 45
105 230 55
139 22 28
187 171 254
49 158 224
245 1 168
18 68 245
5 64 36
115 17 100
52 198 51
195 6 202
94 165 147
98 74 140
169 243 130
199 174 124
205 160 70
236 20 227
41 101 69
12 210 137
238 77 204
117 107 211
37 16 113
103 124 79
104 62 164
30 60 212
175 243 37
101 15 226
143 118 247
155 40 152
199 167 171
53 27 236
2 151 189
168 200 28
195 251 205
17 219 187
34 75 181
151 193 122
139 202 133
47 157 237
72 49 199
27 0 14
230 122 52
117 63 103
143 101 166
71 121 166
135 196 237
152 26 253
131 95 222
224 97 102
46 198 9
82 126 132
170 63 154
123 5 6
252 240 116
214 138 165
175 86 68
3 222 28
217 79 141
198 13 179
20 108 222
164 14 42
121 215 108
35 69 100
58 151 174
189 169 121
245 159 117
168 145 22
186 173 148
73 72 152
1 167 146
129 136 25
64 159 170
222 12 138
25 60 222
169 112 31
230 199 22
208 24 94
213 112 200
147 16 188
224 241 135
117 84 93
42 76 205
201 233 181
210 55 237
30 192 116
191 180 229
178 185 234
38 233 87
88 210 140
53 144 71
33 81 167
87 167 101
245 167 246
113 205 14
223 63 57
240 96 1
243 101 157
85 176 241
111 194 232
170 200 145
60 175 168
116 31 155
2 127 229
130 165 94
235 142 49
42 208 197
10 124 39
40 97 1
123 18 203
170 145 163
109 84 78
144 193 106
141 39 122
99 253 88
139 52 39
43 72 115
60 90 196
219 108 244
73 247 55
99 141 0
148 20 20
212 103 168
214 16 253
127 26 31
53 101 16
89 110 62
184 0 103
13 149 48
52 149 150
27 99 5
244 158 136
215 73 9
187 118 136
39 73 52
89 226 148
171 81 23
130 163 11
220 81 126
52 108 198
217 123 110
22 216 250
65 88 79
14 144 150
189 168 212
32 85 38
6 187 239
158 29 245
62 56 182
13 150 16
102 187 21
33 24 245
135 201 7
67 94 215
42 85 9
64 35 7
118 227 130
219 186 125
253 179 243
48 98 65
127 75 219
129 155 36
102 191 249
62 118 91
235 15 188
230 33 11
127 84 177
103 117 187
89 37 174
120 45 86
213 42 37
184 234 90
73 146 198
68 225 108
247 135 100
17 80 82
153 246 58
53 34 250
161 181 222
3 138 83
215 1 44
150 59 100
151 219 252
114 79 102
48 154 86
130 182 174
145 176 67
168 138 169
233 93 108
55 29 56
80 42 102
123 164 106
183 138 72
111 153 187
54 160 30
195 67 219
214 173 81
47 185 120
7 132 45
63 222 68
176 151 33
54 78 4
33 28 85
157 73 210
6 88 216
125 165 21
82 117 60
197 5 142
86 111 48
108 20 71
168 113 243
43 5 131
136 207 169
182 145 65
201 151 42
42 54 157
6 241 124
6 226 38
196 164 58
79 228 223
203 144 154
233 10 175
101 114 147
131 104 90
174 82 93
164 248 5
114 181 194
239 30 153
202 109 78
218 201 139
108 173 132
166 43 235
214 147 16
185 112 60
44 186 178
218 122 51
225 49 85
14 34 91
120 14 118
50 129 46
45 74 239
247 115 142
115 200 131
252 184 96
37 135 232
30 104 31
254 208 92
233 202 3
48 177 173
22 238 251
100 176 80
231 250 184
208 187 50
232 126 68
245 67 60
104 52 96
221 146 39
94 99 222
226 131 187
37 71 56
190 201 32
134 227 115
1 58 217
26 200 195
247 118 192
20 65 86
202 111 227
95 151 148
245 180 81
21 88 157
51 207 245
11 128 232
218 177 214
156 205 134
61 233 228
83 120 213
198 188 9
81 145 227
89 249 22
132 237 207
220 52 63
140 167 165
246 165 110
25 181 212
242 83 57
252 127 79
222 227 226
249 116 154
66 176 212
237 202 88
53 96 227
55 34 110
236 114 151
158 154 85
59 168 18
198 11 178
67 19 27
105 175 97
177 247 145
139 92 160
31 50 71
134 204 43
241 206 96
62 29 72
159 69 105
53 118 27
165 85 242
123 55 230
74 58 141
39 100 238
161 27 160
4 102 22
187 196 173
215 161 74
225 44 0
253 36 106
113 253 28
196 19 152
33 50 210
190 244 253
94 7 187
52 225 55
123 247 23
238 52 135
84 203 105
230 134 197
53 12 215
144 171 113
236 48 45
243 241 158
252 225 235
181 167 154
122 168 147
168 10 200
201 49 33
107 87 171
62 153 202
48 2 106
47 98 140
56 15 39
79 124 218
206 185 16
195 80 133
165 219 56
131 36 150
251 177 70
243 61 118
38 118 69
76 149 170
177 68 223
98 159 24
112 106 211
185 97 211
171 32 116
171 75 56
8 40 98
184 237 45
118 68 209
44 136 24
142 194 141
169 7 166
0 127 5
42 148 36
37 126 213
110 77 120
25 29 46
110 50 230
101 20 195
128 52 71
143 74 72
194 57 21
192 60 65
186 183 60
72 239 15
80 75 149
217 221 111
109 6 62
143 244 41
220 167 196
22 3 193
74 168 151
9 163 87
107 175 3
125 106 57
93 3 55
223 193 188
157 172 42
50 207 113
158 162 224
54 116 248
3 217 6
138 83 232
183 198 220
110 150 60
28 71 238
154 8 56
32 136 154
198 149 9
62 161 36
181 156 25
49 17 74
105 236 59
170 214 116
190 160 239
54 79 225
103 106 35
121 206 100
70 220 69
54 147 11
62 72 181
177 14 228
195 196 82
116 251 121
100 195 37
40 126 40
7 110 157
89 31 40
240 197 240
16 195 88
147 154 188
209 235 227
229 58 46
62 77 21
132 61 57
211 17 74
181 182 36
152 8 137
195 145 64
125 120 132
116 11 247
181 224 143
150 156 134
162 31 232
230 75 252
23 14 148
208 65 6
46 223 219
212 14 122
153 179 75
193 173 153
32 233 135
72 205 228
233 231 208
27 89 253
24 132 78
177 187 99
43 54 224
226 86 198
61 224 9
19 112 164
163 13 47
194 34 95
98 252 250
24 190 216
137 69 0
46 75 7
194 125 138
220 37 78
202 181 48
72 10 253
53 236 34
58 20 144
247 233 36
120 164 56
166 195 86
71 12 253
28 132 101
8 70 232
210 180 33
13 197 54
43 100 226
91 138 160
110 151 227
125 237 226
225 126 10
250 2 93
72 238 242
50 166 32
167 25 201
155 100 203
32 228 98
14 73 34
94 214 159
204 31 135
160 189 78
51 45 83
49 184 197
110 166 177
75 21 94
131 105 0
65 5 165
65 4 19
58 234 198
3 80 218
77 68 32
127 169 51
23 211 237
91 24 223
175 178 91
236 251 143
153 208 141
96 254 108
78 98 13
82 144 98
234 160 113
199 83 15
218 240 21
55 165 159
217 24 45
252 36 94
120 124 194
238 62 26
156 188 223
189 28 229
170 69 31
49 115 248
165 74 106
240 182 110
168 47 165
224 95 233
55 88 171
88 209 179
238 0 175
59 186 58
197 44 167
15 95 82
32 18 7
3 4 77
207 155 46
138 157 249
46 103 234
120 213 137
58 232 93
244 173 165
199 194 109
28 193 185
99 127 40
33 107 125
249 178 248
23 77 6
102 20 162
121 86 21
152 72 240
78 110 241
208 236 209
19 248 33
211 207 166
102 159 139
202 114 64
98 142 108
6 200 167
212 105 52
88 181 250
34 238 150
40 1 25
183 8 62
83 28 220
114 231 105
254 5 159
15 239 49
49 218 182
79 14 86
86 195 18
152 229 246
178 104 54
194 197 94
126 170 235
224 130 86
42 31 162
153 233 244
197 9 195
213 40 231
76 40 222
229 230 172
42 123 62
95 101 232
223 112 172
145 179 56
12 67 52
210 202 168
46 184 35
103 237 133
129 56 20
202 156 107
128 23 248
184 148 138
169 187 175
44 108 128
34 93 228
149 18 130
29 227 115
227 140 93
31 196 208
54 160 181
77 61 77
49 104 12
67 108 154
21 67 137
126 216 50
127 157 60
145 96 32
83 69 114
44 15 3
35 134 46
172 209 210
211 253 5
241 165 212
251 114 230
110 178 7
208 226 195
105 61 199
211 65 80
179 86 204
56 18 228
249 192 121
252 51 189
7 213 245
11 93 37
17 177 70
2 139 115
181 66 33
176 10 118
81 138 209
244 96 163
129 0 99
225 76 9
24 157 162
150 54 19
239 70 247
14 36 12
121 155 50
134 64 194
245 24 131
5 56 37
252 52 205
162 223 215
109 189 208
169 204 112
90 108 167
178 79 167
167 22 157
126 98 144
229 179 103
57 113 21
2 182 216
94 56 41
114 63 41
83 77 43
71 63 233
23 35 49
96 61 50
23 46 32
213 85 214
86 131 18
23 231 78
233 211 43
196 41 126
136 208 248
36 130 151
20 84 104
130 252 155
161 233 191
192 89 31
60 123 21
177 140 211
122 66 241
236 185 186
233 78 118
56 79 144
32 134 52
236 9 234
196 20 189
57 238 80
89 211 33
221 234 155
199 109 159
131 249 200
57 39 229
15 160 57
237 237 11
32 151 105
245 8 172
127 138 78
188 190 161
142 83 175
105 50 149
140 254 63
30 177 111
89 78 83
116 174 222
192 93 55
233 101 126
133 74 56
25 27 240
77 8 112
152 195 179
40 124 60
19 36 239
20 182 102
133 14 48
250 30 173
196 96 139
93 200 151
168 63 12
213 9 36
53 152 167
19 129 115
182 237 41
102 243 128
123 37 35
155 231 129
159 125 133
244 19 181
77 112 71
182 153 121
183 78 41
176 173 57
161 207 52
117 230 189
35 44 62
51 115 182
131 45 200
160 115 145
71 178 216
76 26 228
16 66 224
187 52 224
73 116 113
188 150 11
192 229 106
239 150 111
244 3 190
103 116 39
122 152 37
128 139 104
7 180 75
52 31 63
251 217 15
170 230 253
180 203 130
158 171 72
43 128 219
5 42 162
111 71 24
173 92 45
219 7 233
182 192 20
192 145 250
77 8 99
10 25 152
184 202 170
59 86 186
202 16 164
167 211 251
91 94 58
83 170 144
235 17 155
246 236 70
76 126 113
174 74 245
218 128 52
139 210 226
96 149 252
44 177 240
115 80 224
117 235 34
78 199 224
191 186 137
12 228 111
40 131 243
47 220 209
95 135 141
97 93 204
162 7 127
92 17 124
23 249 21
52 147 84
114 53 44
16 166 5
6 95 237
189 186 6
2 207 220
224 105 167
95 169 89
28 14 58
231 114 109
108 13 71
42 91 83
58 3 58
146 173 200
97 153 102
93 103 189
110 209 77
15 247 11
41 73 181
16 196 168
215 102 34
63 31 153
100 134 68
98 250 164
31 125 163
201 194 165
141 251 7
204 68 65
170 122 30
145 143 112
89 91 182
7 41 162
247 202 86
117 174 220
186 72 56
41 178 111
158 84 89
61 185 18
28 149 154
186 3 104
168 79 57
92 26 201
179 191 84
88 123 226
85 122 3
252 154 7
132 80 198
30 206 23
104 150 146
121 169 76
242 22 197
127 10 91
19 28 150
55 248 21
4 99 155
181 132 85
45 3 111
6 142 42
150 175 60
5 199 168
56 36 49
249 112 8
213 219 56
224 205 57
237 6 254
95 229 125
144 119 154
63 173 126
77 149 250
196 30 60
63 183 48
44 161 3
114 37 8
181 31 237
243 13 128
225 228 147
158 181 158
160 79 17
96 251 221
110 109 38
190 79 98
141 252 193
76 56 94
198 115 20
103 140 78
13 67 149
144 144 179
51 200 159
125 130 138
20 29 186
0 56 144
132 125 100
141 52 222
177 6 143
78 119 175
251 64 38
11 65 63
188 21 68
79 215 29
208 147 175
239 240 108
114 75 85
64 74 86
201 169 30
4 87 175
179 29 237
213 93 111
59 20 206
185 164 148
64 103 237
70 142 59
254 14 225
106 113 191
163 206 59
162 188 50
170 151 112
216 7 187
70 79 138
20 83 156
10 159 99
217 254 82
64 106 195
228 39 171
186 116 165
241 54 226
100 177 199
101 169 143
98 195 140
203 107 44
173 183 153
27 97 183
220 203 44
235 146 19
245 147 71
59 92 63
89 165 254
230 34 223
46 113 15
226 238 73
207 168 16
17 112 85
237 134 149
169 11 178
180 226 151
231 99 82
38 187 189
204 134 249
98 175 34
51 141 181
61 239 90
60 132 43
154 67 207
144 107 198
106 54 228
191 103 53
140 96 52
110 104 220
144 214 98
98 126 141
212 247 97
174 229 253
231 144 29
121 98 100
83 226 46
238 85 184
212 201 117
108 144 98
216 127 191
173 52 105
14 61 78
140 82 182
252 104 234
206 239 51
148 211 245
34 137 221
167 3 101
57 3 100
147 40 127
2 205 114
152 25 240
3 88 249
160 123 97
89 18 248
250 81 106
243 178 138
135 131 117
244 49 90
82 150 108
83 64 83
8 93 9
172 153 35
68 104 109
56 134 19
53 162 33
84 122 32
26 9 6
231 201 11
100 200 49
185 30 122
118 138 80
235 48 193
82 102 89
38 111 231
150 60 131
102 50 228
239 246 240
234 55 21
37 228 191
227 160 228
0 185 236
94 27 219
237 215 180
154 208 165
239 205 235
223 123 225
245 76 10
218 50 102
31 154 251
72 22 77
216 147 59
177 229 173
242 50 212
85 177 141
88 125 79
110 153 234
242 182 168
250 29 238
10 17 153
10 181 26
81 237 67
168 80 5
22 120 242
56 173 131
139 150 19
229 253 18
225 50 18
10 121 131
143 33 218
229 210 122
46 104 236
239 0 102
17 219 166
99 206 121
116 143 220
141 22 62
130 197 190
105 214 134
9 27 220
157 186 197
205 7 182
226 121 67
223 118 37
225 52 56
74 69 87
12 142 207
235 7 247
219 219 44
16 217 112
31 148 86
241 115 95
205 18 93
27 154 106
100 134 197
79 226 63
49 58 108
226 60 146
231 139 105
153 121 100
180 185 141
89 130 253
22 49 241
247 78 138
108 217 33
132 188 254
117 153 20
52 12 107
56 251 169
1 198 141
50 76 76
101 9 227
28 144 57
194 25 22
211 19 116
155 128 65
252 58 163
220 11 18
166 16 45
14 185 45
18 127 31
20 220 228
88 252 96
144 76 99
238 11 44
149 177 212
187 179 67
239 198 29
245 210 95
142 8 35
43 250 171
235 104 220
33 32 230
133 82 22
162 186 34
234 60 6
104 89 110
166 206 0
92 131 120
168 186 244
183 9 179
232 57 132
156 26 220
240 67 241
55 239 244
66 228 63
139 237 158
181 153 185
99 190 4
205 251 124
160 168 50
1 172 8
34 44 175
22 84 167
33 198 154
29 92 70
236 1 197
103 159 39
33 222 200
117 4 77
43 233 97
95 111 193
148 1 22
251 246 109
81 7 213
161 74 213
89 234 118
36 59 37
122 160 206
92 201 226
69 230 246
64 44 166
236 118 140
139 133 64
45 17 34
197 220 176
215 131 80
36 191 137
95 105 130
200 204 205
55 54 210
147 19 3
151 92 171
187 218 119
164 122 112
69 25 143
86 55 153
65 134 60
11 11 202
141 207 249
173 34 99
21 223 97
247 233 156
182 46 36
105 166 237
94 67 34
10 130 131
140 41 226
41 209 32
115 56 125
60 194 227
28 39 153
191 113 225
223 152 59
126 180 71
16 156 85
139 149 207
178 204 28
228 109 70
213 199 131
136 57 103
102 201 82
94 206 108
248 208 4
204 71 41
233 36 60
52 250 148
223 71 165
59 229 112
153 83 13
209 111 192
86 179 217
153 46 231
182 1 65
137 171 222
10 191 174
214 75 120
159 140 150
83 215 127
123 176 213
165 20 145
222 6 123
201 200 245
112 166 198
65 166 19
220 216 135
85 103 218
110 242 72
134 161 215
55 108 6
206 194 248
86 92 109
166 229 147
18 225 44
5 103 16
155 59 84
166 22 131
232 75 108
111 173 246
189 64 40
118 191 186
55 237 22
140 44 144
101 192 70
70 69 234
117 246 37
16 127 154
100 103 125
236 31 129
60 57 252
249 1 187
247 166 60
7 105 3
158 217 95
195 47 111
121 75 67
33 220 230
4 234 111
160 98 163
116 252 20
13 66 117
12 249 17
135 142 171
57 159 60
183 201 85
195 14 87
152 147 98
239 215 185
174 140 83
203 248 112
122 138 19
71 169 137
147 5 23
160 39 69
203 114 9
51 239 53
181 63 73
34 46 31
63 41 229
99 41 222
29 167 216
39 210 25
15 170 143
93 213 150
41 157 239
32 203 186
209 228 222
233 90 153
29 63 61
148 239 110
207 179 223
69 56 39
53 151 164
25 25 184
131 203 69
168 123 25
164 21 254
233 230 225
76 28 236
186 53 239
147 127 117
218 56 7
125 123 138
248 106 109
254 75 40
77 115 32
97 166 91
11 62 141
141 134 160
190 126 142
79 95 249
184 208 85
191 190 81
71 132 196
230 184 180
92 140 92
13 144 23
3 91 247
27 79 120
137 95 10
213 203 249
193 48 146
153 25 180
84 34 100
57 215 36
124 80 70
190 237 210
222 26 96
180 76 100
226 173 113
150 251 28
23 97 37
167 216 140
144 247 192
33 221 35
227 47 175
140 249 18
44 105 61
229 224 28
12 173 171
154 153 82
5 31 171
253 78 53
171 106 25
144 146 66
245 160 108
154 63 201
121 156 244
85 56 127
30 104 80
204 71 17
49 169 137
78 84 5
51 147 125
247 132 167
108 191 32
243 203 250
8 9 92
183 216 5
44 107 162
149 69 222
131 67 186
178 227 64
116 242 0
222 23 253
154 139 132
22 6 68
45 234 221
242 78 2
157 196 75
54 238 69
43 66 224
203 13 8
223 171 128
9 147 153
149 200 147
174 36 134
3 27 18
134 136 80
142 220 62
202 154 109
247 57 85
153 152 165
209 202 190
239 128 75
3 40 228
41 157 165
43 151 167
230 207 113
66 146 111
111 102 173
117 163 37
217 172 204
148 177 138
158 182 139
148 1 20
212 204 115
92 44 11
16 184 122
142 207 185
74 217 35
247 230 8
112 209 52
173 134 113
178 7 42
111 38 107
54 195 76
227 1 227
157 201 253
47 141 202
203 19 48
71 166 136
216 212 237
79 118 232
54 4 211
111 154 134
134 75 188
65 33 148
173 63 126
2 51 55
183 85 147
228 158 199
108 226 69
49 186 96
245 2 15
81 159 189
157 13 154
141 167 111
198 159 218
236 114 97
196 176 248
212 88 57
20 127 169
3 211 72
121 189 170
50 135 21
135 66 232
8 114 159
78 230 25
25 109 221
69 44 11
177 52 62
207 143 179
163 217 28
16 22 208
20 174 195
218 61 95
30 51 239
67 2 205
113 210 104
204 247 100
54 36 129
175 98 178
92 196 2
57 18 105
110 107 2
195 152 9
235 95 73
183 50 102
203 6 16
24 201 230
23 224 234
113 156 20
96 64 5
49 247 203
126 178 244
247 28 77
37 85 247
164 14 181
48 88 163
27 245 108
76 43 135
112 200 150
180 113 171
57 229 136
249 86 47
164 163 41
106 210 240
197 108 175
139 114 62
58 200 118
11 57 211
15 139 110
224 252 45
58 15 99
203 253 142
227 166 216
74 54 233
1 24 166
7 99 180
180 39 208
12 66 106
204 152 11
216 215 219
210 158 68
38 8 251
232 209 193
153 207 9
216 9 166
76 6 58
9 206 199
164 133 209
239 226 88
38 155 27
206 113 137
213 200 226
245 173 66
113 131 240
109 213 80
173 56 207
183 46 78
245 124 106
100 20 178
121 113 220
193 238 26
113 84 211
232 9 253
10 42 177
126 203 119
122 94 46
205 124 83
187 65 152
37 157 30
97 131 227
144 239 2
103 34 189
174 76 37
49 117 49
100 106 204
249 27 21
75 214 35
62 51 113
216 249 26
85 137 89
31 16 147
230 101 136
244 204 211
41 100 201
55 53 213
134 76 2
102 151 223
231 25 20
246 147 106
176 183 32
29 177 4
27 60 157
247 78 196
167 70 133
241 145 159
31 139 5
159 30 205
70 235 22
177 148 129
150 181 166
92 127 119
178 246 90
175 195 202
166 104 238
202 50 122
29 17 103
51 249 172
58 168 188
193 136 149
102 248 165
216 28 108
229 89 187
0 211 120
94 113 241
88 210 233
51 17 87
112 127 31
11 157 120
48 232 57
91 145 70
202 32 89
162 206 63
166 60 236
195 129 67
134 136 52
154 240 194
44 124 168
200 199 116
224 47 7
11 42 31
21 132 37
151 30 33
239 102 104
186 75 154
157 32 164
51 59 160
113 76 39
155 39 27
71 6 41
229 47 184
245 215 178
133 121 210
244 82 190
174 204 80
113 250 131
242 237 47
86 82 65
111 190 27
92 192 92
162 234 93
143 221 126
124 36 192
129 203 142
70 175 91
163 169 246
187 201 17
135 48 141
51 247 3
23 51 63
122 106 65
225 131 116
182 41 250
196 67 183
178 126 221
185 37 225
8 55 233
112 161 24
219 142 88
116 141 180
113 72 121
119 236 11
128 12 212
226 177 147
173 90 104
62 82 89
58 160 192
209 195 87
159 204 202
172 108 214
76 131 180
245 228 47
197 169 172
235 32 25
244 181 179
108 5 40
44 14 59
29 190 172
189 195 92
215 140 220
46 4 48
209 52 201
88 96 126
67 150 9
79 189 140
242 157 182
80 253 201
90 61 183
252 239 254
96 122 235
34 185 238
37 93 80
246 73 99
253 222 161
125 191 114
199 54 54
72 67 204
99 224 199
201 118 13
6 226 185
114 195 3
0 23 40
171 151 90
126 8 31
193 84 216
79 105 178
32 144 35
224 169 226
244 223 92
128 22 160
248 193 143
154 23 146
30 62 40
33 143 246
62 253 22
44 210 92
236 125 111
180 178 163
206 102 227
52 104 163
207 178 4
77 240 176
63 246 20
91 20 75
26 194 111
121 224 63
198 108 131
41 187 251
15 225 86
191 90 214
80 81 135
245 125 149
140 203 74
87 154 185
226 88 84
249 124 149
55 231 199
236 13 189
144 225 101
55 15 34
90 96 111
29 31 228
143 184 40
52 128 2
232 213 190
238 233 53
56 247 69
197 28 170
57 196 237
5 245 131
251 167 61
235 144 65
139 192 27
55 96 54
27 103 71
241 130 25
92 18 231
236 201 184
58 219 17
205 73 42
19 104 210
202 172 27
245 26 86
141 177 119
164 163 72
158 150 146
190 71 0
50 72 98
153 232 82
150 107 235
9 58 39
78 253 237
166 142 84
167 28 19
28 66 57
79 170 225
71 128 184
72 253 60
135 233 26
191 69 213
119 52 10
63 173 222
28 84 254
111 213 17
143 221 212
70 54 19
214 141 223
72 232 212
209 88 74
61 199 234
41 120 182
66 156 234
55 139 1
38 219 105
23 29 116
189 13 146
133 75 215
37 123 188
123 8 206
179 165 54
177 219 70
195 254 181
132 15 231
6 177 112
184 44 39
185 164 198
166 157 104
216 44 78
198 114 208
93 23 2
164 210 123
202 154 94
122 174 248
38 120 69
233 163 99
107 141 119
140 81 185
66 242 160
196 208 6
193 126 186
37 247 72
182 219 176
87 83 165
86 39 202
179 4 23
19 0 222
193 139 47
249 146 187
140 138 8
30 14 200
76 99 195
206 128 168
157 203 99
18 83 86
174 59 250
194 92 120
131 65 50
78 160 160
48 45 112
3 80 197
201 232 54
132 23 69
56 147 34
158 214 111
41 92 162
94 194 196
15 111 185
210 189 61
138 232 69
27 174 124
106 253 183
70 237 169
144 155 71
134 217 110
1 160 161
29 12 186
147 143 60
248 65 87
188 120 42
187 59 238
43 105 27
33 232 201
87 199 251
152 253 179
204 70 97
193 9 205
103 251 8
239 32 249
141 23 116
197 81 196
171 244 157
68 21 172
6 161 138
180 115 6
31 243 24
116 46 82
129 41 36
114 210 243
173 184 100
220 164 141
228 243 230
224 146 136
5 194 70
63 85 42
231 48 97
191 233 138
80 182 130
237 166 145
181 111 13
226 225 120
252 221 220
253 239 71
232 55 135
41 122 86
54 70 160
105 240 182
132 221 103
180 83 223
70 114 11
121 150 138
115 62 162
101 199 90
0 160 211
212 174 201
131 225 228
140 180 135
235 29 64
11 194 121
147 195 79
79 189 236
218 160 92
132 47 123
71 197 1
75 93 234
129 178 216
29 70 98
16 228 101
88 136 109
232 146 51
229 129 136
78 105 26
1 178 39
175 150 144
192 19 136
222 132 248
150 130 138
121 146 244
221 228 243
220 169 20
244 122 20
145 162 210
208 76 229
226 7 36
86 235 15
9 253 9
178 4 73
34 237 205
203 119 85
228 31 206
164 47 119
1 160 39
70 240 75
155 111 42
7 131 121
55 56 108
52 95 12
3 71 230
83 199 33
0 48 84
43 8 135
95 85 181
99 94 188
229 196 103
36 28 142
180 228 99
137 245 152
59 167 205
171 152 132
33 134 77
88 23 17
193 66 246
172 90 182
199 248 3
107 65 106
159 10 22
35 118 18
23 252 197
33 174 59
145 20 69
88 109 58
131 234 76
133 2 131
132 247 102
12 43 177
111 16 111
231 119 96
137 39 242
24 1 27
97 216 190
215 84 85
71 73 227
119 11 201
60 64 30
139 50 48
214 80 236
68 152 29
31 236 201
95 96 1
191 184 153
145 37 231
164 158 146
122 120 153
116 70 152
173 227 86
152 64 19
193 232 156
1 160 197
62 248 152
235 182 42
164 252 145
215 34 61
187 92 71
116 215 21
250 187 123
232 196 120
60 127 196
69 16 93
110 25 236
106 241 84
154 187 9
166 170 131
167 90 22
6 46 253
221 11 169
126 62 146
195 38 71
81 92 25
124 56 6
184 181 9
207 141 239
195 151 35
209 228 219
110 251 194
47 49 122
10 89 111
234 154 199
232 170 207
209 173 34
241 234 58
249 82 89
190 99 103
6 116 163
206 234 28
33 156 81
28 32 217
82 208 94
15 198 126
209 215 172
130 36 59
37 38 191
87 124 195
0 29 140
18 219 168
64 60 27
239 158 193
229 211 35
22 88 208
186 149 76
216 191 73
139 29 191
250 173 187
232 45 56
48 101 99
221 234 13
92 227 110
163 25 135
106 31 106
251 22 35
83 79 215
28 233 70
240 75 168
17 187 19
60 224 194
212 73 47
164 70 59
218 155 113
14 98 30
92 43 80
106 129 78
176 109 25
253 161 101
217 20 220
34 176 106
179 198 157
21 120 120
38 207 193
80 32 254
250 135 179
105 65 40
221 147 236
69 209 211
85 253 5
23 35 209
193 225 78
132 135 12
8 28 40
64 190 58
70 190 118
82 196 106
29 4 66
34 164 159
166 238 246
17 231 253
31 190 3
4 177 23
98 104 80
217 15 234
220 90 132
21 161 188
112 168 25
3 61 111
156 208 57
5 5 201
33 10 44
114 249 97
194 111 250
88 104 17
222 95 138
3 121 188
105 26 221
208 75 125
98 226 58
65 113 128
95 166 84
112 76 12
112 195 76
81 41 253
135 178 225
225 153 96
78 227 98
210 245 196
175 35 198
215 138 236
249 0 200
122 43 90
36 58 238
39 123 210
66 238 142
69 37 235
65 109 169
46 194 224
104 154 36
116 133 159
190 101 194
87 235 235
206 227 251
195 73 184
223 225 166
181 251 227
120 41 27
122 58 51
229 211 166
26 110 72
189 125 169
77 254 12
84 118 113
158 192 129
144 95 240
188 180 208
248 59 241
122 166 172
177 126 201
207 230 67
180 72 146
41 193 94
164 215 114
103 196 16
4 97 32
174 135 247
81 176 205
143 106 244
68 253 198
13 18 138
34 69 3
240 169 207
38 226 111
42 154 99
128 50 122
226 145 116
97 123 101
188 231 181
0 96 188
185 49 83
133 81 153
7 199 148
174 16 20
188 94 165
5 223 97
238 125 30
196 48 30
129 94 205
90 152 18
57 56 1
48 183 142
2 203 161
215 217 207
126 240 96
181 32 79
167 39 169
137 185 223
22 69 28
171 179 218
54 71 176
71 201 132
149 60 16
129 98 104
58 190 35
67 85 123
37 119 90
20 182 63
243 202 139
191 173 194
175 67 32
9 43 218
218 243 60
66 131 195
76 150 131
178 122 56
55 123 114
99 233 239
95 226 158
48 173 89
237 27 246
144 254 3
64 74 210
73 110 118
246 224 19
224 86 103
116 31 56
195 123 219
30 136 224
94 30 129
75 197 233
51 52 229
138 167 189
79 161 80
227 85 25
234 161 172
169 154 244
235 27 168
228 13 16
170 107 191
236 241 232
25 0 138
133 8 146
170 35 136
11 218 69
251 173 184
19 62 198
142 210 182
56 193 138
134 48 44
164 53 150
250 61 77
227 165 251
225 248 7
165 247 42
192 52 174
14 99 187
68 76 11
220 186 252
104 124 189
192 227 165
149 189 215
179 63 30
13 159 129
179 120 172
132 233 216
67 210 33
201 33 202
43 217 80
216 231 188
121 11 215
172 123 216
151 136 235
176 138 78
104 151 204
1 214 120
139 131 119
244 106 141
249 72 42
201 226 21
143 162 123
169 225 103
166 29 235
208 185 199
216 122 70
122 100 228
242 2 164
159 78 66
251 149 54
146 224 46
187 22 26
191 43 59
155 247 29
33 154 185
164 12 140
36 25 37
42 46 133
52 29 149
182 143 123
138 118 101
190 220 118
41 196 1
231 195 25
196 198 76
146 16 232
235 126 229
184 179 229
42 200 133
49 204 145
210 37 220
145 223 6
176 37 188
96 20 68
171 65 58
129 38 90
98 243 185
215 219 238
106 113 232
167 206 243
179 183 166
73 61 15
132 75 136
201 102 80
235 6 63
78 199 30
219 139 6
234 41 154
38 120 45
59 192 195
79 71 60
115 74 74
34 173 188
120 197 93
219 140 192
168 174 207
97 97 62
82 19 165
85 154 105
136 133 197
201 111 43
229 92 5
160 159 197
221 83 76
209 203 123
34 14 216
142 166 126
132 66 239
227 46 185
126 206 196
163 39 225
181 230 218
13 157 176
211 165 198
247 215 21
243 68 50
145 251 215
11 154 52
1 58 155
69 185 67
131 199 215
9 169 82
235 137 76
101 37 134
5 65 60
128 253 44
89 237 206
38 229 8
180 18 182
155 28 222
152 182 182
158 24 43
7 181 139
164 28 118
204 235 232
218 25 1
128 186 131
33 15 163
249 251 209
51 196 143
142 32 2
126 158 203
126 222 35
4 245 54
0 224 154
202 28 212
233 230 147
92 46 166
89 113 56
25 248 160
48 39 94
103 130 18
114 196 73
137 106 22
193 26 5
167 165 126
172 164 237
19 176 64
105 110 1
194 169 103
181 213 162
137 188 66
11 61 239
117 217 166
142 248 106
128 54 192
169 244 237
243 72 187
213 12 232
124 23 126
57 192 24
197 230 110
156 245 113
31 215 185
54 68 4
236 205 239
39 152 131
52 115 160
0 107 136
213 132 106
114 190 57
211 51 85
111 163 55
120 110 171
237 101 136
5 132 101
46 191 107
141 55 208
25 187 2
127 203 171
184 227 174
209 219 164
159 219 209
138 135 117
32 171 122
61 30 31
13 139 50
158 29 241
236 119 252
11 156 169
173 139 165
41 44 59
59 136 120
168 69 152
79 204 135
185 75 250
234 220 222
188 228 11
92 142 110
102 1 136
130 238 59
107 14 141
12 176 211
42 220 123
39 87 18
19 138 197
49 77 129
27 254 9
51 218 72
29 41 114
203 223 204
43 6 177
217 249 55
156 4 137
113 9 248
98 23 14
241 20 0
214 31 77
182 53 111
181 6 76
178 129 71
117 245 137
38 186 23
236 87 30
146 248 220
250 95 236
107 185 236
187 17 172
158 249 147
56 81 27
193 64 192
16 160 92
93 14 55
215 242 114
92 134 39
31 75 237
162 59 222
198 10 168
192 216 132
59 102 64
115 89 166
143 173 44
202 223 69
13 85 203
67 50 121
222 205 246
108 243 176
39 6 24
192 156 110
90 116 190
68 46 210
149 105 196
247 122 251
251 215 48
37 78 254
99 165 222
246 207 243
17 26 28
183 68 105
168 1 34
58 72 133
148 210 201
187 222 196
49 174 227
158 246 76
12 65 209
156 118 246
74 25 62
19 158 18
24 66 180
223 150 67
44 200 189
57 66 217
82 216 155
160 251 10
49 245 165
76 221 92
72 134 95
24 104 117
65 116 146
107 126 247
145 160 213
110 38 49
31 129 5
161 26 211
221 108 6
207 175 130
124 169 170
193 216 176
241 189 174
130 230 108
148 185 225
8 195 155
252 200 85
116 82 170
158 14 214
252 238 14
47 107 54
137 39 41
86 165 174
141 36 36
253 172 91
26 73 85
8 58 167
113 173 246
9 168 48
218 105 215
56 230 35
52 165 73
253 162 74
191 104 168
114 7 113
250 10 17
125 5 199
118 190 3
69 82 235
114 235 8
74 125 134
148 249 43
252 245 33
243 249 201
90 247 127
153 145 134
44 156 168
184 62 66
15 183 13
86 50 131
0 38 226
206 204 213
152 197 127
228 181 74
2 147 55
136 194 145
226 103 33
187 104 56
58 81 152
173 201 211
135 248 47
140 81 148
214 236 213
154 133 44
24 183 80
240 164 13
75 229 27
22 31 116
206 234 29
158 143 230
19 159 138
23 81 86
103 250 65
33 254 102
123 166 214
175 168 185
186 87 58
210 167 111
43 79 226
223 94 229
92 201 214
20 77 197
82 95 41
144 254 188
84 10 224
115 178 9
33 200 132
99 196 89
166 54 162
215 157 200
7 169 29
161 213 142
216 14 176
76 82 199
211 142 9
7 203 246
163 2 163
0 7 76
52 189 235
141 180 32
109 252 181
173 33 29
164 240 166
158 254 128
206 249 219
233 69 6
226 86 84
59 113 63
52 209 100
134 127 128
101 59 180
115 156 251
237 76 44
160 165 76
230 41 191
97 131 164
36 212 99
254 34 182
154 113 118
219 72 129
28 123 139
67 200 77
2 225 185
39 168 8
186 140 33
178 252 30
140 152 183
224 29 158
32 223 7
1 43 113
229 189 178
209 85 211
243 201 65
239 115 137
44 20 185
249 253 206
140 177 141
38 3 64
116 40 21
129 240 93
33 64 83
16 101 182
191 142 244
80 70 251
59 174 26
182 113 212
97 116 48
133 238 47
125 41 97
211 251 76
104 123 32
24 65 16
139 69 160
24 124 234
22 30 227
187 171 100
157 127 65
94 85 228
112 26 19
119 239 156
3 84 79
209 95 238
111 154 178
248 158 24
49 197 69
52 247 53
237 153 115
128 42 137
164 127 34
82 37 172
194 192 139
146 92 219
141 93 178
206 24 53
180 60 46
53 126 95
179 7 192
208 152 3
186 57 245
230 106 70
8 107 10
195 172 226
154 25 200
32 116 147
48 189 181
52 0 45
128 132 6
253 90 14
169 214 38
115 214 147
3 231 129
251 145 237
50 7 105
142 41 151
51 13 163
189 66 53
168 200 29
205 149 206
66 213 51
236 52 0
10 224 121
46 79 201
180 72 153
33 250 67
55 201 127
169 203 65
83 119 158
197 185 39
57 141 86
177 186 93
190 240 131
143 176 147
160 101 226
164 21 186
85 66 238
223 253 153
185 58 53
184 76 5
209 66 254
54 198 175
182 226 183
149 238 64
220 24 154
130 160 20
12 193 211
155 65 37
105 80 175
125 135 183
143 141 115
147 166 38
151 225 17
220 32 5
166 251 136
188 83 248
7 237 25
131 165 227
147 139 13
134 166 69
60 59 186
9 65 85
163 32 35
220 169 77
16 25 190
174 18 9
88 69 193
205 9 55
205 49 63
40 203 57
73 46 158
139 18 197
113 4 32
202 21 187
211 219 178
239 252 39
170 8 170
6 145 20
224 115 162
159 17 178
154 38 120
58 71 243
210 52 205
224 247 48
110 26 85
210 199 236
88 24 87
197 60 127
73 97 213
181 205 79
201 10 2
210 197 206
39 70 167
234 52 240
187 190 132
155 106 161
161 180 1
26 243 216
245 155 210
31 209 221
208 227 159
46 160 136
121 180 129
86 180 37
23 253 176
74 0 228
194 91 168
177 214 40
171 85 51
226 170 118
244 176 123
132 185 66
38 81 15
154 239 125
143 190 253
21 205 134
219 159 254
182 87 146
112 161 2
214 69 8
94 216 144
85 118 93
54 18 89
253 182 16
219 24 65
187 130 134
192 15 107
122 56 13
188 201 23
201 203 250
111 220 22
246 43 217
59 29 165
9 146 36
210 140 134
7 72 192
209 104 106
227 210 165
247 95 125
140 71 198
52 229 105
91 135 201
254 46 26
248 142 183
191 27 123
103 3 47
24 150 48
19 93 228
10 214 63
80 78 212
51 167 183
188 95 30
127 140 124
166 180 39
231 211 224
253 125 95
58 120 22
173 241 36
100 218 93
201 127 38
253 98 65
215 41 43
241 228 94
188 68 124
2 100 160
54 13 45
86 21 230
206 154 22
3 124 251
110 239 57
32 203 232
53 10 172
45 95 181
20 152 159
46 201 77
112 152 218
108 205 58
15 152 38
245 134 96
66 209 173
179 105 123
81 131 22
219 93 62
140 176 52
54 58 194
144 53 141
36 227 60
72 145 54
179 238 104
216 157 221
205 13 115
158 225 103
212 13 182
133 41 105
96 239 83
89 195 180
172 5 141
22 78 71
245 215 240
165 169 138
95 251 134
97 75 34
22 102 248
104 82 164
145 175 180
151 33 138
32 0 248
33 145 89
7 60 185
163 216 68
98 61 224
142 201 101
44 194 205
200 157 59
22 156 107
30 144 159
226 35 1
156 182 50
97 186 97
90 93 50
206 203 176
183 240 74
150 56 218
209 54 174
7 91 33
55 129 248
205 32 113
184 191 157
212 139 33
236 104 154
154 250 133
193 166 99
240 168 162
218 111 36
236 216 141
226 195 157
113 132 55
83 57 39
234 116 147
133 107 66
63 185 92
91 131 47
203 78 215
229 85 180
215 148 5
176 25 48
4 97 173
141 14 26
184 12 197
123 13 251
203 181 26
181 66 150
165 31 24
43 48 132
77 16 84
127 6 62
45 100 27
115 249 225
131 248 135
77 69 110
42 77 195
98 66 211
158 207 155
163 122 78
22 200 216
154 248 199
234 51 218
230 119 173
113 83 195
151 202 143
22 110 41
220 73 11
150 156 122
144 105 208
85 51 62
60 253 231
174 82 34
224 200 224
186 74 3
185 103 192
192 191 21
254 157 21
195 147 6
92 145 71
101 63 253
245 237 44
243 110 52
9 143 189
51 193 184
104 110 111
254 102 57
11 213 9
238 221 17
5 23 34
210 70 189
139 190 90
127 41 41
7 24 90
137 102 105
186 124 12
201 210 16
26 24 230
30 216 87
170 129 140
99 195 224
64 112 86
86 68 224
137 187 114
191 54 91
152 206 66
194 28 128
71 146 149
85 9 105
158 228 108
219 121 24
87 20 81
209 69 245
191 149 100
130 80 100
20 67 55
218 146 126
227 78 177
112 52 125
108 228 238
250 27 215
194 244 186
120 116 137
0 67 121
178 25 3
41 19 107
245 201 23
41 83 147
71 254 12
245 178 82
243 66 209
179 35 2
208 14 204
13 19 50
217 195 226
198 253 229
170 60 153
122 164 200
155 189 206
28 183 125
165 186 172
244 241 53
221 113 149
52 4 223
63 143 70
19 228 84
223 86 226
134 73 152
54 119 228
90 31 124
61 20 161
239 90 71
58 162 157
242 63 86
198 21 176
73 138 131
138 106 80
44 193 208
20 24 147
127 240 196
199 151 87
165 2 121
250 94 95
131 234 139
94 223 240
60 223 27
29 82 57
245 166 253
165 36 124
141 151 110
180 188 169
102 181 193
182 42 192
65 229 101
68 228 26
129 17 69
152 63 104
224 235 40
110 70 63
15 121 53
176 151 217
100 248 104
252 157 195
147 19 93
43 85 25
203 42 47
107 134 121
246 74 54
177 117 105
225 19 35
246 110 100
144 190 69
65 32 197
142 194 139
12 131 219
233 78 175
221 161 246
56 120 8
21 122 172
152 139 149
248 244 211
59 199 178
243 199 223
20 27 145
222 175 249
102 122 56
190 39 148
83 95 248
91 186 141
124 146 13
126 135 158
31 98 67
134 157 63
62 6 79
126 198 89
221 223 32
223 220 54
105 194 134
4 73 190
90 110 173
46 21 156
192 133 190
106 80 223
50 154 217
186 96 97
242 132 57
243 172 181
119 244 213
244 63 248
15 19 56
103 165 92
53 247 175
129 117 166
82 168 151
51 52 214
217 46 251
74 41 32
107 122 172
50 107 69
195 5 20
27 170 23
28 144 55
213 167 187
105 197 92
70 183 233
198 8 82
192 238 167
88 132 34
1 34 21
78 231 34
37 132 238
136 22 112
81 40 45
223 48 68
235 163 181
190 213 241
208 227 230
124 42 182
114 248 112
133 59 201
31 168 6
114 249 46
238 163 184
216 43 112
177 179 173
133 5 162
62 248 7
46 103 247
248 246 112
251 67 132
181 73 70
109 14 84
124 125 156
92 243 222
175 216 98
104 153 127
86 150 163
3 211 211
121 215 75
16 184 27
72 212 10
221 73 71
84 129 10
90 20 100
71 146 80
251 188 25
171 52 227
22 180 155
52 123 71
58 108 62
59 171 35
45 175 188
43 210 162
57 11 47
186 40 7
18 85 159
13 254 216
107 118 221
216 50 123
78 115 94
189 127 25
101 73 72
21 190 127
240 249 27
186 101 232
187 31 61
58 238 115
215 7 15
111 241 168
26 206 252
16 39 51
151 170 228
6 102 27
96 239 196
142 174 40
111 238 84
140 186 176
247 101 101
146 47 64
23 113 138
40 57 39
157 213 13
120 171 119
203 150 67
186 181 69
219 183 67
13 75 226
243 29 172
45 236 72
126 112 88
54 31 85
57 51 236
64 171 193
28 146 64
207 43 176
242 60 112
34 214 250
31 70 20
152 226 228
56 236 210
156 4 43
88 246 56
164 101 164
129 120 127
156 142 133
3 182 104
193 30 241
41 96 113
242 141 109
214 254 21
56 39 242
43 186 151
133 117 222
122 197 99
196 131 175
7 231 85
197 78 217
248 8 58
94 135 182
21 158 165
63 213 83
156 182 36
128 165 199
178 59 196
252 231 127
54 187 124
28 85 235
154 187 251
22 141 4
76 243 164
222 82 191
79 221 242
191 137 80
45 93 182
132 127 181
105 56 14
3 199 185
85 74 9
210 5 39
44 89 78
33 120 152
194 107 91
234 20 120
58 175 190
54 77 124
11 112 7
49 225 155
68 79 80
22 27 190
211 20 37
215 61 199
18 229 65
132 214 2
8 97 214
213 75 27
66 84 235
66 38 224
111 114 208
222 225 25
21 83 14
14 5 108
239 6 54
153 253 159
37 156 0
140 198 50
173 35 107
182 72 82
106 113 214
68 209 90
76 174 125
24 189 151
100 250 225
15 110 183
9 165 42
172 78 162
179 101 158
61 157 63
237 93 194
65 155 164
46 173 243
74 33 200
207 138 88
216 174 168
9 247 216
82 80 18
231 93 12
70 63 43
180 124 202
52 90 100
165 122 82
52 223 240
18 210 150
144 1 79
26 173 21
71 74 182
134 38 234
13 128 93
145 130 14
115 244 186
40 160 195
128 45 64
64 58 34
220 70 44
124 29 9
138 232 197
25 184 60
178 20 148
9 231 125
173 13 29
162 104 224
111 164 68
51 22 227
85 233 61
121 46 239
116 132 196
29 73 105
144 104 119
71 106 223
87 78 232
24 99 176
74 127 128
93 43 91
110 64 3
197 126 44
63 132 122
60 111 143
216 64 75
4 39 11
156 129 210
179 71 26
40 158 129
70 181 101
105 161 245
237 151 213
224 65 92
103 202 129
182 96 49
137 73 141
104 10 71
177 177 192
46 1 189
144 64 179
165 27 11
134 79 42
252 254 88
125 83 72
112 201 88
245 68 146
62 5 86
147 31 117
4 109 215
64 110 205
208 146 155
188 238 12
142 86 49
232 140 9
202 92 241
175 39 121
52 13 52
114 1 26
107 24 8
148 81 79
116 67 15
236 149 238
198 59 61
245 196 127
215 115 183
91 192 239
135 214 92
145 136 94
233 181 7
39 181 118
124 39 128
0 105 18
198 60 27
30 214 178
220 242 202
45 103 131
74 237 245
64 198 25
234 213 10
159 98 116
55 53 144
70 181 183
102 21 147
14 69 70
205 90 179
55 168 139
247 148 106
46 127 169
181 130 224
106 201 184
254 22 231
217 21 177
173 67 157
203 152 54
243 70 8
219 21 133
231 199 223
210 243 91
71 205 156
16 193 51
10 1 117
231 90 77
105 237 115
157 59 83
164 106 43
181 219 77
226 89 182
127 228 7
173 67 3
40 37 231
187 200 158
161 112 5
83 225 61
133 135 104
0 10 183
193 64 48
24 104 147
114 113 52
35 253 208
216 125 123
42 148 208
200 203 229
48 210 77
72 153 136
220 228 190
19 11 55
223 87 254
137 47 84
46 75 138
137 12 175
147 75 62
4 209 213
206 187 7
117 117 26
213 136 220
124 97 85
8 173 7
75 66 175
82 73 51
15 223 124
127 4 57
98 36 11
107 21 213
180 219 214
174 209 160
156 99 60
227 124 77
232 9 54
141 130 47
219 123 170
184 176 67
177 243 205
85 92 152
175 132 138
170 38 139
206 251 96
190 81 212
119 173 144
13 195 253
201 139 220
56 49 131
3 225 60
221 93 253
148 42 210
113 22 3
85 215 212
61 112 53
146 91 248
174 177 14
34 34 241
64 96 203
24 125 210
86 72 37
167 253 178
69 49 167
87 135 155
144 138 14
240 126 245
46 248 140
60 89 134
129 140 59
190 205 183
60 5 21
33 141 132
235 150 98
1 166 112
111 112 103
251 108 135
196 150 152
178 51 5
20 167 20
78 123 147
10 206 39
3 131 52
107 18 142
137 206 122
223 168 7
148 192 152
169 96 169
55 124 36
200 195 178
65 71 16
153 62 128
252 120 185
124 19 42
48 98 180
170 92 188
234 172 8
56 51 108
41 192 185
205 18 32
149 1 146
250 78 60
228 99 74
194 152 204
114 72 6
25 37 107
230 22 70
211 147 153
131 46 20
19 166 148
2 70 122
30 96 6
170 161 238
155 157 103
149 182 174
87 251 149
207 89 97
188 236 131
63 230 37
188 215 155
41 108 191
248 214 123
241 176 105
27 135 68
197 159 167
113 68 252
62 242 137
145 21 114
55 215 216
213 24 184
48 201 18
135 218 42
116 98 146
183 244 13
32 171 243
118 77 164
85 116 63
122 13 132
79 110 30
254 116 207
62 153 91
2 212 40
38 129 125
234 18 76
88 242 235
214 188 203
7 239 168
12 178 47
120 118 96
92 193 188
103 242 96
41 27 157
137 39 57
216 132 133
196 19 196
215 227 125
154 83 215
102 38 38
19 196 206
2 160 218
101 233 75
143 168 3
183 103 235
241 110 62
123 116 129
38 144 221
67 10 233
21 200 140
93 57 156
36 245 18
104 124 110
110 127 171
40 155 249
32 220 7
100 245 61
206 35 145
178 58 11
29 236 237
231 92 127
206 81 105
56 104 148
201 233 76
36 2 207
183 177 122
94 124 0
244 5 126
138 213 201
181 127 137
200 138 69
68 99 5
117 100 196
153 136 60
5 150 161
126 121 239
50 32 25
248 231 229
114 194 155
106 22 47
40 86 134
241 244 38
1 15 19
154 173 142
41 67 146
242 32 194
223 51 80
172 90 185
135 40 139
174 61 180
250 150 81
191 21 250
144 88 120
178 119 196
232 3 95
194 138 30
143 164 34
195 230 174
16 142 12
76 183 168
219 149 4
240 11 181
67 207 179
164 10 74
178 206 208
10 152 144
135 230 161
174 67 54
87 44 207
220 107 28
195 108 229
91 220 216
42 218 72
241 127 73
29 195 154
216 37 6
72 247 72
176 75 30
43 244 128
29 80 154
90 15 223
8 207 76
86 122 69
7 189 53
153 120 58
162 72 57
6 49 99
183 175 242
72 226 37
62 76 107
236 213 85
85 160 93
17 33 101
23 186 70
159 192 168
214 143 123
152 118 124
150 98 132
196 183 149
36 96 35
34 248 167
48 28 208
253 36 165
7 35 133
41 215 81
144 91 0
111 249 172
205 112 153
68 131 50
159 245 58
112 137 243
25 35 218
175 25 212
231 141 31
203 172 244
174 23 243
96 129 207
91 106 176
50 236 10
81 198 221
238 51 204
43 178 21
39 31 88
118 101 6
75 125 192
139 71 115
25 15 237
94 202 242
122 66 115
27 58 250
117 185 203
81 208 150
84 39 159
218 162 105
212 177 231
171 136 50
10 128 230
217 59 10
29 165 74
91 74 127
221 6 86
14 153 137
188 171 213
128 156 251
92 164 42
114 109 167
200 71 238
101 240 32
134 240 169
110 138 136
177 201 2
230 162 201
43 133 50
34 51 195
82 8 152
13 83 34
108 224 80
3 234 102
140 2 143
239 118 92
48 11 135
2 56 138
185 113 150
161 58 3
112 11 24
24 46 62
158 239 120
61 144 52
180 250 115
114 27 89
172 17 244
214 142 254
152 206 159
27 181 240
190 172 148
224 107 87
57 135 194
94 41 150
156 58 72
78 66 57
114 243 155
194 213 149
236 109 57
7 121 242
39 56 17
80 170 69
105 134 152
105 213 69
27 184 175
10 103 192
123 114 97
120 178 60
20 34 45
78 186 123
147 182 76
241 99 243
63 173 215
120 238 155
214 77 108
228 36 47
21 228 4
14 57 22
10 90 52
13 189 118
60 101 220
187 76 74
76 112 229
128 158 24
36 137 164
246 192 80
125 69 153
2 38 207
77 109 91
17 128 155
240 14 102
243 102 231
16 35 200
116 54 155
200 223 98
207 3 149
193 36 222
254 129 20
13 206 247
22 3 101
133 198 126
147 96 202
232 183 198
19 56 2
202 203 135
95 26 66
155 77 24
252 18 32
28 75 203
247 148 153
132 242 148
185 253 213
88 2 63
57 99 226
220 110 192
88 45 188
252 102 250
155 246 235
3 3 126
138 88 10
5 244 133
229 194 213
112 250 128
162 103 15
153 15 94
99 60 247
178 48 4
120 144 206
15 118 67
19 127 232
138 153 173
155 206 131
104 176 182
123 15 173
5 242 229
74 200 95
99 87 52
4 232 101
49 8 25
21 135 84
61 51 33
13 118 242
79 31 36
17 24 36
60 148 94
46 132 122
11 51 96
149 112 154
43 80 21
63 208 54
41 90 23
231 188 162
76 85 25
37 85 115
189 149 70
190 222 161
121 56 120
5 98 198
76 230 142
15 89 63
118 57 36
78 48 58
225 232 159
144 225 146
35 10 183
195 238 7
21 63 9
82 200 79
156 116 207
114 25 173
126 39 76
115 154 110
240 18 251
66 229 229
130 122 245
56 247 248
251 61 52
142 63 72
24 94 69
152 38 215
150 105 230
232 26 173
80 12 134
12 87 231
150 12 122
130 122 22
84 208 183
36 20 42
105 81 100
213 22 36
31 73 22
180 220 75
173 38 174
139 224 119
165 229 175
173 106 228
161 240 134
61 110 242
45 67 25
214 17 169
79 122 175
137 234 183
13 233 83
13 67 229
52 213 251
154 176 104
25 112 34
73 174 130
113 210 32
27 36 244
103 37 50
117 238 113
172 75 6
178 98 7
189 169 119
224 84 187
31 78 111
135 242 211
206 56 25
101 48 138
166 254 144
228 134 95
153 109 53
253 62 105
48 174 243
119 104 3
11 79 131
228 124 160
83 248 77
76 59 188
66 251 253
249 157 219
149 120 14
124 36 20
12 36 24
143 221 132
6 220 98
177 106 166
114 69 67
212 115 127
185 222 227
111 202 30
129 78 175
245 208 181
93 2 173
77 122 170
26 154 148
191 127 19
100 1 165
147 135 183
112 230 241
72 65 246
117 218 18
215 165 126
139 190 8
115 67 37
60 245 231
22 157 53
235 119 133
214 145 62
42 166 86
234 77 103
48 59 167
81 13 228
207 47 7
212 14 198
80 188 194
217 171 233
234 248 149
54 103 125
209 12 120
218 155 200
51 159 165
118 78 85
17 55 9
150 54 72
32 142 189
123 123 179
112 25 143
121 76 122
165 63 43
214 130 63
28 143 145
71 188 120
155 241 33
101 173 58
42 253 176
144 214 155
212 84 225
189 92 90
198 68 98
218 129 12
31 117 20
165 91 169
180 164 134
228 37 88
35 17 157
108 118 199
78 46 67
0 81 134
108 242 158
231 65 129
223 48 101
82 40 195
4 134 112
113 201 31
231 79 205
136 234 33
236 99 55
19 62 241
51 179 26
207 207 141
107 216 115
214 179 93
219 118 7
15 118 107
98 197 25
90 153 127
18 189 83
69 138 130
65 84 32
153 6 174
189 175 12
250 15 44
43 211 28
157 225 236
241 176 147
179 203 223
117 201 181
243 45 132
163 135 75
202 213 162
148 6 172
159 86 119
38 109 176
38 182 239
22 184 50
244 225 244
247 26 210
176 32 140
192 106 67
128 97 104
180 76 110
122 70 127
124 206 213
110 110 120
221 116 167
3 41 0
152 76 249
149 168 110
60 229 154
119 14 160
11 55 194
39 253 232
150 72 185
120 218 146
207 163 166
136 35 78
110 171 198
46 15 182
241 53 26
109 9 92
141 236 82
180 39 88
117 224 17
69 72 220
22 214 6
179 141 93
20 17 189
105 188 68
91 48 46
39 236 41
158 128 171
66 73 80
47 154 199
38 10 150
105 218 143
72 9 233
239 118 13
183 243 186
144 109 103
141 94 93
142 49 178
126 59 78
1 113 205
185 45 47
59 47 226
195 238 10
14 186 144
174 35 159
150 183 31
185 156 44
138 99 247
50 97 36
110 21 19
237 148 23
162 40 193
216 124 222
3 209 149
206 149 176
111 29 73
11 3 238
204 62 60
57 202 235
137 244 223
235 27 149
63 41 103
239 31 172
130 228 61
106 222 2
137 254 145
246 217 117
33 8 42
72 131 83
75 177 77
165 137 253
183 168 168
247 127 155
185 156 198
132 53 176
238 228 219
236 42 231
53 200 157
48 202 38
241 153 223
109 21 36
206 75 13
218 83 160
51 113 89
233 156 96
162 24 144
60 92 164
221 158 239
235 228 74
172 131 30
103 149 154
11 11 241
164 66 87
227 85 16
237 44 175
221 141 101
166 207 1
67 161 87
191 64 91
35 107 45
99 162 142
29 72 31
175 28 177
4 57 34
91 100 190
195 87 229
22 252 246
125 95 171
54 69 96
128 165 74
221 17 155
159 81 200
157 4 151
89 236 1
147 123 139
197 73 21
33 150 248
18 181 175
55 18 5
214 12 48
238 19 158
126 84 53
231 16 81
49 253 26
38 109 105
129 83 139
165 248 33
212 39 236
40 190 30
90 136 67
193 241 109
116 95 129
14 140 127
17 47 225
80 51 254
128 180 104
179 208 28
47 191 135
7 250 34
72 92 201
140 196 245
140 109 174
6 10 24
78 182 138
151 148 49
92 239 118
98 137 194
120 47 87
56 28 115
207 15 45
237 12 51
23 141 107
77 195 170
106 153 43
34 96 0
141 119 50
193 15 211
98 168 164
146 245 25
4 57 32
108 146 132
174 111 253
229 156 1
249 155 90
12 211 202
26 111 82
46 53 19
13 93 146
163 62 170
118 72 179
26 70 77
226 3 163
139 62 76
84 143 89
91 118 60
127 42 227
130 175 19
75 216 57
200 222 5
112 22 37
251 36 77
191 87 73
3 194 163
32 131 231
20 178 158
188 205 106
179 141 106
179 25 58
215 221 209
49 48 172
35 179 191
79 124 47
196 55 81
69 41 115
67 84 189
150 78 144
53 208 200
139 233 50
230 47 172
76 43 150
161 38 86
183 244 185
197 89 100
227 236 74
96 137 183
182 207 92
137 58 188
118 66 244
90 65 214
60 68 86
249 190 227
213 229 42
206 229 59
41 152 197
140 211 224
182 253 210
35 29 32
100 130 162
108 134 167
190 246 211
97 212 212
0 25 246
61 104 84
220 225 45
87 28 150
199 154 213
169 142 33
183 152 159
119 159 7
159 209 70
11 207 156
36 202 81
119 138 124
52 225 170
181 21 43
103 169 241
202 195 66
245 200 77
172 221 97
187 70 196
237 188 136
235 96 34
93 82 70
212 247 178
39 223 162
56 49 107
148 254 8
226 194 55
47 196 73
246 91 200
82 156 163
201 26 71
233 178 127
192 101 220
54 109 40
147 140 17
29 51 219
4 58 151
153 165 122
72 16 166
81 31 70
244 47 87
31 232 77
190 155 132
195 239 114
82 60 219
199 187 180
139 185 243
32 77 169
184 229 70
214 140 134
152 179 187
97 22 168
55 112 49
142 37 231
29 157 177
16 213 31
251 82 5
25 43 72
113 75 10
192 240 39
171 15 147
157 134 30
120 253 127
143 249 169
79 234 185
217 65 161
162 81 182
99 117 27
232 152 243
201 89 111
61 189 234
214 243 123
11 93 180
153 241 55
140 177 84
122 220 0
155 70 102
142 117 108
244 148 77
201 203 97
137 231 229
12 150 154
158 59 167
171 198 170
35 203 224
95 41 86
99 153 61
165 202 0
103 129 97
141 96 104
242 199 160
53 234 57
221 108 127
59 91 170
109 146 138
5 241 96
229 213 237
231 134 58
251 187 93
77 91 194
140 213 229
162 74 247
11 157 211
177 4 207
201 140 45
105 133 107
63 211 72
224 95 221
190 86 42
210 205 15
73 37 158
69 167 141
213 98 207
199 239 35
160 193 186
153 75 120
85 94 78
81 49 244
223 163 142
27 138 197
210 152 211
88 75 192
188 151 53
188 1 119
142 81 75
75 154 48
84 62 156
145 36 224
37 35 93
20 130 129
212 12 41
79 103 180
167 37 47
195 127 97
45 35 109
156 125 159
120 62 151
236 227 11
78 0 205
145 133 62
13 213 71
142 179 46
180 200 46
162 140 137
113 191 167
117 176 57
183 95 9
201 38 236
25 166 219
30 246 248
79 230 131
55 161 170
120 195 179
209 189 63
103 209 230
219 6 201
96 51 250
37 36 233
89 214 11
145 224 161
145 167 240
131 31 152
40 51 160
178 26 72
151 81 211
253 100 203
161 51 230
103 79 250
69 76 203
121 111 207
116 99 180
252 102 67
252 194 163
238 122 48
231 81 99
135 236 97
145 60 153
119 21 135
189 225 12
48 92 216
220 54 177
48 23 110
240 129 31
209 98 23
248 135 219
75 43 226
79 64 56
107 79 14
29 25 86
206 62 105
173 169 209
242 57 73
21 7 148
212 107 53
177 89 175
22 124 70
220 55 29
215 198 171
233 166 149
245 43 40
193 98 40
87 46 129
174 227 177
99 152 3
41 176 106
216 91 78
146 6 75
46 123 215
209 102 82
162 251 205
83 74 163
148 117 0
53 182 57
39 144 179
9 136 7
219 224 170
214 182 44
132 173 194
21 96 15
23 56 149
174 32 105
6 146 17
134 246 143
56 5 179
249 62 56
148 151 34
117 216 166
233 25 237
156 72 23
11 217 202
13 75 113
66 139 31
227 253 140
194 202 2
65 151 220
92 56 11
205 68 134
98 238 21
111 161 152
225 178 225
175 37 6
191 234 224
220 204 15
18 128 156
214 224 34
216 200 249
224 2 133
85 248 56
250 124 135
181 129 136
157 100 181
95 158 38
39 118 131
60 46 25
156 243 8
122 221 240
114 154 80
199 121 189
54 192 183
116 254 113
160 9 19
5 177 67
20 97 21
87 43 13
4 116 96
107 22 194
50 76 51
209 100 89
78 184 171
214 55 231
182 209 157
4 205 43
16 49 105
14 8 168
2 210 115
151 142 216
159 6 94
76 8 201
68 234 6
85 199 198
174 85 84
8 9 111
146 49 92
154 227 119
56 98 185
149 131 12
46 199 161
99 164 69
146 63 212
228 13 120
1 211 249
207 193 119
84 146 37
103 76 136
142 32 65
85 9 209
224 108 11
118 130 203
205 128 22
4 68 225
47 90 78
51 149 250
42 57 213
11 79 16
53 148 54
61 33 160
44 247 91
234 51 87
139 8 164
187 251 252
2 49 30
133 174 144
163 147 254
26 72 73
95 97 20
112 238 56
187 60 97
235 230 201
123 143 230
177 249 167
81 35 66
214 111 218
33 8 107
103 247 154
201 145 166
136 133 220
14 47 217
239 233 5
154 226 121
251 38 183
32 104 199
4 253 11
28 140 170
173 211 88
138 110 220
126 122 162
204 178 172
242 164 218
14 15 179
161 10 42
190 221 112
152 51 65
112 56 2
37 83 132
236 93 119
253 231 250
181 67 210
92 170 137
173 109 23
74 18 6
74 219 8
184 69 68
141 16 26
254 225 125
168 137 231
0 189 103
53 72 52
241 159 90
168 172 230
111 212 235
56 38 158
136 61 181
126 108 242
185 189 177
225 198 59
42 155 94
161 249 115
251 216 41
228 62 141
73 167 248
26 27 78
167 46 217
128 18 127
134 35 154
230 88 11
132 31 70
128 43 174
186 180 126
136 215 243
49 4 1
172 120 60
115 34 200
99 48 86
224 177 123
133 165 221
46 75 14
237 182 54
172 49 225
112 11 173
98 195 236
121 168 20
175 22 6
33 89 110
28 38 9
125 167 34
94 180 36
242 143 68
196 252 61
185 92 127
52 182 157
238 65 159
203 225 180
8 213 97
62 66 228
60 69 86
92 37 95
64 219 57
138 193 172
187 74 30
75 160 95
19 213 53
18 109 166
125 240 241
91 153 109
149 133 201
163 45 223
223 84 24
173 53 207
11 34 251
88 118 128
119 194 58
201 121 212
29 43 50
161 61 3
37 117 226
43 226 9
249 105 71
1 151 165
229 8 201
203 234 250
33 135 137
237 164 172
66 151 44
126 47 89
83 44 5
118 106 58
0 169 57
40 243 184
222 130 171
176 42 193
92 94 62
27 64 64
208 165 58
246 221 249
8 253 34
170 220 36
47 71 252
18 106 59
35 101 83
56 77 151
220 147 196
191 52 45
235 109 63
80 177 40
182 43 179
200 157 71
116 197 120
158 27 32
17 183 53
4 156 110
115 225 150
66 62 114
171 224 62
0 119 186
25 113 130
84 143 72
187 189 183
185 208 189
253 6 179
39 48 166
38 254 171
134 143 196
7 218 145
143 77 84
1 103 9
173 79 106
215 92 119
62 54 110
135 214 175
204 224 135
187 113 33
252 229 81
133 4 128
244 22 70
146 155 107
205 187 205
237 23 50
189 78 109
36 232 176
209 26 77
164 72 166
31 128 40
121 97 55
223 49 78
176 68 110
217 199 90
145 83 116
56 38 243
197 225 217
66 162 72
16 182 22
206 95 123
253 122 159
172 108 40
66 10 24
126 34 103
43 106 139
214 62 94
29 93 224
40 83 165
120 136 67
140 202 117
124 104 21
158 244 248
233 164 131
221 203 29
84 242 175
81 209 3
233 207 105
43 45 64
47 84 145
22 79 36
221 135 181
219 133 116
251 226 254
14 227 20
139 253 144
250 114 87
46 151 216
134 60 228
56 31 177
33 144 38
46 169 240
198 233 94
210 14 152
217 124 19
250 138 219
176 67 85
22 54 17
103 175 47
172 98 147
171 68 118
93 36 192
27 166 232
24 140 198
54 21 34
53 86 3
179 7 122
63 42 63
156 12 216
91 43 56
82 215 193
240 78 162
174 76 203
38 22 228
152 236 228
30 210 3
236 216 22
154 209 59
120 152 47
214 232 136
17 188 55
158 51 105
184 207 23
120 98 156
234 27 199
21 203 198
216 66 224
0 76 230
101 210 14
79 3 202
165 168 169
253 229 7
66 254 220
151 102 209
89 183 249
166 115 211
77 130 114
211 176 156
131 1 22
130 145 148
165 232 179
242 114 163
136 51 39
172 241 241
84 200 0
172 197 24
9 128 129
172 180 156
78 248 0
66 245 46
250 31 19
210 73 98
156 56 155
201 15 140
66 26 81
50 120 51
202 164 136
184 52 128
134 132 159
131 149 199
79 154 24
39 192 80
176 51 15
44 114 245
152 221 48
14 254 197
57 133 242
37 9 219
100 33 163
248 254 78
48 114 159
116 8 235
148 203 75
104 225 82
178 229 88
134 47 18
180 159 14
99 33 23
178 141 69
146 29 105
57 15 205
104 148 72
193 173 234
212 11 72
100 98 213
204 86 141
199 44 250
65 149 18
169 26 194
182 63 191
85 76 146
31 1 146
21 136 139
178 16 156
247 93 21
120 169 97
15 30 149
168 146 143
193 88 85
117 139 130
109 117 132
24 190 124
110 29 56
140 4 68
73 250 45
117 44 18
79 93 241
9 74 149
237 80 218
129 225 15
112 226 160
228 182 203
233 201 209
121 76 142
155 49 205
234 89 34
19 148 61
0 100 66
41 71 177
51 249 221
0 244 236
137 217 163
76 229 48
76 121 94
80 172 22
74 198 140
192 58 228
69 62 139
60 224 138
83 185 69
142 192 85
89 140 240
82 170 246
236 36 237
199 66 248
105 14 228
212 32 185
215 245 82
109 199 198
34 218 23
149 253 92
129 248 143
113 83 244
215 191 104
204 188 50
228 174 43
110 91 11
15 48 215
75 199 191
253 67 227
153 176 133
51 248 252
249 145 81
178 97 108
4 101 35
235 68 70
142 60 248
138 238 98
34 222 156
156 248 125
103 171 220
130 129 163
206 145 89
122 115 82
235 141 240
244 150 206
154 170 105
203 194 85
252 202 37
81 89 164
178 152 89
161 75 180
52 110 157
163 138 14
56 58 27
197 11 42
134 224 231
156 67 234
52 160 164
26 94 89
34 158 91
167 181 143
34 177 250
23 119 153
119 47 14
55 171 1
43 159 75
64 115 232
211 16 9
212 198 198
138 229 77
40 53 130
141 104 49
41 105 8
68 224 252
230 123 215
138 17 251
112 47 174
151 160 9
151 84 225
60 108 247
41 99 196
85 9 99
188 220 142
69 140 190
231 109 225
26 241 221
44 125 62
109 144 64
152 3 189
248 56 79
74 11 152
161 92 38
31 48 199
29 24 10
85 116 162
12 114 23
156 125 106
4 173 59
114 115 106
149 38 48
205 64 194
58 237 123
185 100 169
223 99 254
65 229 118
72 136 146
140 50 53
241 202 182
230 60 0
68 115 74
213 7 28
64 220 16
41 20 140
34 148 82
16 34 73
186 104 113
22 45 200
195 91 125
45 18 23
13 139 94
83 93 57
221 160 246
67 172 10
70 231 70
78 91 112
186 179 158
136 123 202
126 229 177
114 19 215
228 237 57
12 0 113
62 156 105
93 127 196
195 25 160
196 137 72
194 78 17
71 94 149
68 169 154
66 123 162
89 116 83
32 195 154
123 245 19
180 52 215
105 213 156
159 226 124
249 249 197
21 130 143
118 180 254
186 139 99
176 217 44
16 86 104
35 117 181
205 179 22
152 26 55
138 18 42
3 206 248
94 19 84
125 218 26
110 49 9
76 242 248
197 155 154
55 129 191
253 170 169
172 187 199
49 223 159
146 13 170
224 188 116
80 191 8
61 48 48
55 37 79
62 139 93
107 235 152
44 122 59
104 128 190
132 199 46
79 244 35
94 183 183
206 189 20
176 57 14
210 72 63
161 122 180
183 86 146
60 108 173
34 213 17
136 221 177
113 40 99
11 217 118
59 192 141
65 106 160
190 103 80
236 204 23
36 236 92
45 187 168
122 206 127
155 218 194
50 234 239
184 239 138
98 117 122
201 170 10
211 49 87
41 44 180
181 161 28
30 111 163
199 52 222
91 202 254
16 236 26
185 69 124
186 61 251
187 112 135
171 166 196
38 215 117
28 30 36
223 162 166
123 188 201
66 10 164
50 23 14
141 36 140
197 149 128
19 248 240
200 17 233
42 36 102
41 52 10
136 25 244
234 6 157
64 9 29
63 254 89
155 72 237
150 55 26
170 238 158
193 253 229
96 19 42
206 126 198
18 22 56
101 137 160
98 133 58
130 113 149
67 84 235
196 155 231
110 191 99
170 149 210
18 93 214
42 66 21
31 65 251
145 85 176
74 222 132
121 125 226
210 122 205
173 9 30
102 70 76
7 237 73
212 57 159
248 182 4
16 58 155
187 37 3
235 116 100
56 88 210
26 16 179
44 0 228
26 1 228
146 209 20
252 213 217
24 91 53
40 74 182
118 234 240
6 37 110
129 141 176
239 253 107
161 112 190
62 233 231
178 238 95
221 97 70
80 200 41
192 197 54
251 94 118
42 170 89
103 176 248
252 65 127
253 12 224
67 154 112
163 223 134
35 246 58
58 2 169
230 180 13
14 207 232
175 89 25
202 30 107
232 210 237
215 223 230
92 207 208
122 131 235
149 231 224
213 143 64
111 203 160
157 194 40
200 56 89
51 27 197
150 136 181
89 31 83
14 225 128
160 156 239
233 145 62
85 206 170
234 230 78
144 4 83
40 97 217
227 15 140
184 162 76
71 22 171
214 11 43
45 225 187
15 93 148
214 51 97
86 219 193
247 102 198
196 223 71
60 155 57
135 97 28
253 8 232
111 60 89
72 251 25
170 187 247
122 128 239
242 49 162
1 104 144
1 176 184
92 109 109
15 89 124
161 152 137
217 221 138
208 116 70
233 12 76
239 8 83
39 8 31
127 38 231
26 33 233
6 218 122
174 94 152
186 44 177
158 135 21
205 18 133
120 55 1
252 122 221
211 71 10
61 125 27
23 143 244
238 243 242
203 123 96
45 125 39
219 105 199
81 207 146
152 200 56
190 115 123
45 186 85
12 46 33
120 229 235
172 123 17
117 21 203
183 155 43
234 188 206
147 207 83
230 58 144
221 138 247
20 40 161
242 233 39
156 58 30
214 228 40
147 117 199
127 68 26
64 221 110
236 210 113
22 140 248
137 211 91
202 110 221
184 214 38
210 244 224
130 31 119
1 31 8
94 199 58
189 34 238
254 253 124
52 183 32
19 104 115
157 170 90
35 235 117
144 40 53
38 140 104
82 229 133
97 135 220
215 63 105
98 142 251
111 135 70
140 147 14
93 39 15
13 156 12
128 187 215
0 28 189
51 203 50
84 124 116
36 93 221
253 25 4
200 117 252
249 96 141
62 58 193
126 45 19
120 17 128
126 121 232
114 147 238
133 218 10
178 142 85
155 194 217
66 64 140
194 72 22
220 74 142
231 197 143
222 36 217
17 115 192
4 83 11
83 91 222
16 224 57
158 115 39
115 41 130
230 140 235
211 241 26
70 153 250
220 158 241
250 175 90
8 29 77
98 155 124
153 20 55
197 229 196
190 101 99
55 151 92
188 46 7
245 250 249
22 107 61
167 149 167
238 180 14
191 236 109
60 227 205
89 216 189
80 211 215
16 8 194
100 149 89
251 173 98
101 82 97
71 97 216
222 11 14
87 250 235
189 128 235
176 34 83
164 92 87
213 71 51
217 0 111
160 95 123
245 70 196
172 122 172
138 147 70
220 137 112
103 244 224
90 138 222
192 29 235
77 27 136
117 174 87
148 100 154
145 5 116
137 135 224
5 208 186
111 167 40
97 160 16
196 186 238
222 61 219
68 36 206
1 216 178
57 129 156
17 56 244
39 161 101
160 51 201
123 184 55
195 203 152
251 214 89
243 102 18
240 168 74
231 179 178
110 175 217
222 165 105
191 85 161
213 102 135
98 179 138
144 232 191
249 182 12
63 67 246
27 176 240
223 165 116
223 28 160
4 238 248
180 132 141
192 235 82
112 180 29
83 235 16
182 162 57
71 79 114
40 117 29
172 137 59
192 44 207
238 252 169
167 92 191
28 15 135
47 59 183
168 136 220
165 76 8
89 100 90
180 190 64
226 48 90
90 254 248
148 145 34
66 126 137
27 50 143
73 65 71
22 70 100
186 39 207
155 246 181
44 3 34
146 90 247
202 244 86
237 161 215
71 107 102
197 237 204
106 98 210
199 199 207
122 112 66
174 150 152
209 105 16
217 113 5
214 175 153
26 71 208
127 195 166
75 145 165
128 8 59
186 215 185
118 182 6
213 156 147
58 162 155
143 233 250
238 78 43
203 252 200
198 117 76
75 250 1
31 167 194
109 236 100
150 120 74
127 109 164
191 26 141
220 138 162
225 4 218
203 97 207
134 104 197
170 182 130
33 145 33
187 10 155
56 77 226
43 242 64
140 238 146
168 251 46
9 131 121
25 107 252
21 3 126
65 134 71
97 163 140
71 92 178
253 186 207
8 35 187
81 116 143
75 240 77
126 67 182
246 1 100
73 8 120
242 96 129
163 33 224
142 194 174
72 69 27
115 83 77
83 214 250
252 120 83
172 181 39
137 100 165
33 14 17
181 81 238
92 186 134
24 64 67
222 152 145
11 179 242
91 246 3
239 185 28
30 39 8
183 153 180
25 155 83
72 211 242
120 11 85
97 240 138
125 103 14
26 25 4
107 107 242
131 212 188
138 121 40
105 59 74
15 60 143
200 102 197
24 207 91
159 98 80
116 93 138
70 148 142
115 19 59
147 153 22
1 184 32
32 23 191
115 8 210
91 55 2
125 189 212
2 250 73
80 194 121
249 77 77
70 144 104
253 111 35
65 245 81
32 93 127
186 213 78
179 69 16
49 0 144
108 248 98
108 231 157
92 61 77
31 13 142
129 244 109
170 216 208
14 165 118
94 107 185
218 227 47
91 158 213
94 232 145
227 109 89
31 125 161
77 71 79
189 108 135
201 242 95
245 163 108
114 128 112
28 141 127
183 3 29
142 173 31
164 112 234
68 254 88
89 122 16
92 31 183
113 139 203
254 216 64
137 196 189
74 148 43
3 250 200
218 165 41
247 164 184
80 87 171
47 189 202
55 59 133
197 121 194
58 147 231
177 130 196
238 163 33
127 152 62
136 134 7
167 128 166
56 233 254
103 141 77
64 34 7
91 191 235
164 28 132
108 232 90
136 13 99
209 150 155
200 51 103
212 122 228
101 225 7
85 200 74
117 213 22
225 128 79
12 175 0
203 160 215
160 153 36
139 66 14
128 7 129
44 216 10
78 55 238
3 159 103
5 37 148
210 53 195
28 76 109
35 243 179
135 10 144
7 45 97
79 45 123
18 239 198
37 244 189
138 121 24
120 226 136
146 192 230
89 177 56
89 109 204
142 202 118
235 31 144
249 34 239
28 225 66
161 117 21
212 169 94
36 101 231
224 47 158
113 72 4
203 149 82
25 166 3
154 237 25
152 117 235
81 49 216
217 210 139
124 120 220
20 200 208
96 172 202
217 201 69
189 121 101
89 230 129
30 166 64
50 226 168
75 97 109
191 247 70
47 5 247
162 181 38
239 40 178
101 222 108
138 251 167
192 6 142
155 185 150
114 239 78
206 226 249
65 227 238
32 211 249
71 211 104
249 44 145
148 187 151
48 204 72
121 117 39
104 32 70
219 228 134
111 15 147
61 64 245
25 182 12
238 8 244
209 38 60
21 253 69
142 169 38
104 224 73
44 187 125
224 149 132
210 161 25
132 158 20
172 107 98
49 140 201
100 15 8
184 126 117
152 173 114
106 123 173
38 150 102
211 231 7
7 83 159
172 90 132
143 35 37
22 11 157
131 92 75
126 97 131
185 133 89
132 222 9
189 17 90
50 208 6
127 42 238
236 124 48
55 41 60
15 226 104
211 94 105
94 47 141
26 238 216
31 206 68
5 154 209
138 186 18
171 48 80
73 245 122
15 89 195
205 44 92
241 221 108
122 199 79
52 235 197
227 189 196
150 173 70
23 108 148
112 205 78
241 152 68
22 169 242
123 44 148
156 246 179
243 0 157
190 241 53
173 72 80
187 25 102
195 57 91
25 174 158
163 159 46
204 225 33
169 180 12
173 98 252
172 91 172
166 149 130
203 62 74
92 168 153
100 133 76
41 39 54
93 89 242
31 14 148
75 57 175
86 164 27
96 115 174
115 139 112
86 89 166
146 155 15
226 148 18
209 211 20
30 247 41
42 67 219
126 201 141
87 243 78
131 89 252
88 149 88
157 223 246
31 16 166
225 67 248
92 50 185
40 45 75
228 155 142
58 125 174
127 153 198
52 7 10
100 230 54
90 58 237
108 176 67
219 36 193
173 233 22
120 67 93
89 24 213
70 118 38
187 20 117
197 167 48
94 62 202
21 79 92
31 143 129
226 199 31
105 64 216
58 87 189
133 75 52
86 123 59
72 248 228
99 37 202
108 172 38
202 44 64
24 220 221
150 125 146
196 52 7
202 34 236
46 125 173
139 13 59
215 19 91
197 89 29
185 70 94
241 163 125
66 102 57
131 164 157
51 227 101
185 194 175
60 16 154
214 123 253
100 94 192
233 125 71
141 254 147
185 153 77
147 71 85
70 141 89
243 195 234
163 105 144
150 35 170
176 143 14
194 70 242
59 227 94
239 88 13
13 195 138
11 143 32
62 67 231
40 206 160
40 94 64
35 96 47
60 73 97
245 140 109
74 161 179
188 21 104
251 116 17
20 2 249
140 110 157
127 146 75
179 211 113
188 75 122
146 110 117
198 57 168
91 117 55
16 139 32
52 142 213
243 21 128
78 252 30
19 65 16
84 113 191
10 201 42
125 235 85
106 175 34
83 121 45
236 249 144
107 180 232
0 175 81
107 55 127
126 160 151
45 15 125
69 14 19
222 60 49
132 27 108
173 50 204
170 211 118
70 168 95
116 225 78
244 102 165
155 11 191
115 251 6
43 162 40
155 21 97
126 101 231
153 240 150
161 74 244
200 204 148
20 215 46
83 125 55
159 31 196
76 84 123
175 21 165
32 47 76
8 134 239
60 79 202
42 245 236
240 132 39
185 31 64
41 6 243
134 44 126
113 128 253
36 162 155
74 85 16
162 228 57
11 132 125
131 110 254
187 231 235
249 46 158
228 81 12
240 1 214
172 152 252
75 68 234
213 23 181
37 84 253
17 72 168
34 147 230
4 7 186
54 105 232
67 112 168
28 156 58
185 80 180
24 230 219
162 182 131
114 142 146
18 115 221
44 36 164
13 105 212
17 43 81
29 88 109
54 115 44
219 2 224
71 101 183
151 23 2
109 162 237
173 48 178
228 191 171
193 217 157
20 232 29
166 137 61
197 216 140
141 191 45
184 190 5
131 75 58
26 50 70
42 192 17
163 100 238
12 100 74
134 28 1
14 98 46
254 4 32
85 37 9
73 218 167
158 69 120
55 191 52
98 77 151
148 91 40
149 90 252
71 13 223
4 97 87
74 37 39
49 204 214
193 183 111
142 103 208
58 209 116
91 104 41
225 107 7
209 140 253
169 49 24
91 146 241
246 155 112
209 76 133
161 244 188
175 13 91
231 167 10
190 16 6
238 127 55
170 42 94
176 149 144
170 113 10
60 171 153
243 168 97
140 73 108
236 129 205
175 51 108
124 202 149
44 251 50
194 214 221
5 143 141
27 120 80
62 243 112
149 180 63
247 224 88
70 109 28
143 49 27
240 137 170
12 78 253
188 82 52
154 17 144
151 44 12
252 235 64
244 55 188
71 30 150
197 247 203
214 136 125
187 196 207
45 144 206
134 78 12
35 249 51
85 186 202
42 177 238
172 12 112
10 205 227
120 115 230
130 172 83
217 113 149
215 238 20
18 6 254
249 242 44
29 164 63
102 163 59
19 82 165
11 75 88
157 179 119
47 254 103
190 124 90
168 41 51
212 208 24
28 155 116
62 41 138
69 231 105
65 164 125
224 202 247
111 133 162
112 10 32
45 104 219
99 124 242
166 103 105
203 14 237
230 64 124
8 147 194
234 13 100
65 130 134
120 229 202
104 119 233
98 79 246
154 228 11
209 53 0
62 247 62
98 205 13
247 131 237
238 156 106
144 114 254
245 99 236
57 205 77
91 131 117
249 193 104
187 237 20
230 236 47
50 55 10
126 222 199
106 178 180
165 10 37
246 223 115
204 73 42
238 240 48
51 126 18
217 142 197
117 30 149
105 106 171
154 124 58
81 115 12
223 226 5
114 112 31
122 214 202
22 68 41
135 253 134
250 189 110
159 111 131
112 223 179
82 93 30
52 45 252
205 12 55
91 57 81
14 59 121
64 153 60
234 246 56
111 27 173
85 147 129
39 234 45
250 206 125
35 76 177
249 31 65
75 171 97
144 85 10
195 27 150
43 137 208
93 29 210
37 28 103
63 237 94
244 31 46
2 180 61
5 249 52
152 75 243
99 33 45
53 103 81
177 129 34
178 0 223
71 155 107
17 180 77
114 139 92
48 88 216
248 209 121
145 102 111
124 240 59
166 9 167
28 34 34
239 215 203
212 136 183
96 73 26
51 125 112
170 81 240
230 34 251
230 51 134
12 201 250
242 193 99
111 234 146
151 231 17
88 208 0
229 230 93
173 11 139
243 31 186
247 21 95
240 35 234
137 231 150
246 254 237
60 172 254
190 40 57
146 91 229
31 7 9
62 238 28
246 29 182
134 188 232
117 90 157
11 44 173
74 234 103
213 154 33
60 173 232
48 174 65
135 242 121
192 7 157
154 44 58
119 50 133
184 48 12
4 65 1
97 161 67
226 174 225
243 27 47
65 49 110
70 172 147
42 134 92
122 89 5
137 242 224
180 204 184
205 121 156
60 134 160
60 111 202
8 24 187
10 7 86
227 158 242
31 190 229
207 89 0
54 123 242
2 211 115
227 74 52
130 119 50
84 104 167
111 227 205
129 117 3
41 93 210
238 75 244
16 183 196
12 186 112
106 187 143
123 132 162
130 77 15
126 136 84
24 227 229
98 131 186
104 76 222
25 81 0
134 34 207
99 183 157
78 183 102
74 132 188
99 56 118
117 169 44
236 35 115
194 122 240
76 117 34
224 214 161
57 232 5
172 139 99
95 139 102
45 38 154
142 42 110
38 193 249
4 18 204
149 36 107
89 172 113
119 113 241
32 98 229
180 71 174
20 225 84
165 48 105
4 188 32
15 107 66
129 161 240
210 90 49
54 216 49
36 222 26
107 225 49
27 185 94
243 214 125
192 151 145
92 118 127
83 239 231
0 54 89
164 103 169
15 49 153
90 182 222
167 202 103
73 228 224
24 218 85
229 163 148
136 199 160
212 186 22
247 230 184
254 239 44
133 223 165
3 35 144
33 212 127
10 130 240
245 26 233
143 214 179
34 165 240
21 56 245
252 78 118
113 4 111
239 90 10
87 155 201
139 243 44
115 190 236
29 91 136
130 27 212
14 42 216
239 247 154
223 193 49
221 109 160
182 172 135
194 88 132
180 219 111
79 24 154
99 29 90
186 32 171
158 122 46
199 111 37
174 75 215
18 102 182
34 193 6
49 233 110
120 238 122
68 77 65
39 161 15
88 161 119
39 246 229
193 146 158
204 168 6
241 231 56
206 96 32
215 15 202
78 215 151
178 52 65
11 187 162
206 4 239
34 44 105
157 236 97
56 84 160
19 212 170
88 244 194
118 181 23
207 153 237
111 133 129
116 196 112
7 84 97
172 199 72
40 26 171
46 2 65
163 216 49
85 230 247
128 188 167
243 105 46
22 8 25
52 30 12
118 171 188
14 9 150
91 75 112
78 0 42
195 243 219
45 132 37
106 24 133
217 56 48
108 110 135
96 46 188
97 19 48
74 203 33
234 113 181
34 58 254
78 102 182
185 220 22
64 72 205
141 163 223
253 8 241
190 13 60
248 91 183
100 0 195
247 230 33
19 121 8
243 137 159
108 225 161
159 81 205
165 254 178
108 51 228
85 253 44
151 229 59
238 32 160
169 109 214
59 56 115
219 126 186
175 78 198
63 91 173
221 73 5
189 228 232
96 235 189
204 44 110
173 166 125
177 168 35
6 83 124
48 176 37
73 99 23
11 8 60
190 163 131
3 22 32
6 19 148
40 164 73
21 169 100
101 172 18
37 22 173
44 14 127
137 180 112
116 72 215
67 187 69
53 73 254
235 14 250
89 37 62
182 22 34
183 225 147
201 126 128
226 231 245
90 142 229
121 63 42
176 143 18
19 12 168
126 119 124
67 47 32
135 234 224
137 114 218
129 63 195
71 106 26
29 20 73
185 77 249
200 116 35
219 144 140
214 88 50
215 161 210
15 61 86
125 84 170
138 168 32
237 47 81
212 131 25
196 205 82
235 79 94
245 83 188
96 230 137
50 185 64
26 159 12
251 81 89
136 186 81
11 34 24
67 19 248
152 142 21
217 158 147
39 24 134
218 134 165
210 46 56
176 7 9
99 156 27
217 117 56
39 146 62
108 167 220
27 208 9
17 103 100
214 184 193
211 50 184
224 136 246
243 128 240
178 115 170
57 206 248
92 223 25
252 213 234
126 123 8
155 55 151
242 106 40
243 117 48
183 77 199
181 237 44
182 30 0
69 213 224
61 89 173
67 103 37
182 139 112
194 15 92
185 127 67
235 51 3
170 147 11
93 137 95
195 204 24
156 97 76
154 20 130
199 31 231
160 128 155
65 69 250
246 90 89
9 54 107
13 70 95
35 211 19
204 55 253
111 119 148
121 186 1
217 44 184
115 22 135
107 145 131
184 143 30
160 151 216
127 112 190
194 163 204
109 251 134
121 15 82
58 116 160
165 229 185
189 194 137
95 143 165
249 203 250
17 115 253
164 247 36
136 197 34
31 192 230
9 130 96
99 214 218
109 100 10
249 195 173
34 80 19
100 210 11
153 175 50
124 7 231
81 128 64
146 175 136
114 4 16
226 172 215
131 105 115
5 69 66
136 232 51
200 201 96
121 207 110
112 76 207
18 123 182
67 174 138
220 47 27
188 201 154
36 63 129
5 65 119
25 24 29
204 249 140
91 24 6
162 82 71
90 26 57
46 218 238
232 7 64
242 54 188
84 239 15
94 159 102
82 227 172
39 156 44
31 197 102
208 70 57
206 54 124
156 92 3
88 90 139
84 144 201
131 99 48
0 57 239
80 215 105
166 10 112
162 79 107
52 206 129
239 24 242
174 247 170
160 174 41
47 54 179
44 187 7
195 195 58
115 35 39
181 11 80
160 201 210
240 77 42
57 90 152
23 82 27
50 174 105
31 48 110
13 218 19
232 11 37
215 226 148
151 223 243
127 37 192
218 81 63
217 17 143
187 60 229
2 87 57
161 101 111
48 232 182
241 234 127
152 131 27
144 242 101
88 152 212
158 34 160
73 94 198
225 1 60
57 134 29
49 59 22
128 243 82
198 223 22
122 70 129
143 156 176
234 150 18
61 220 231
223 235 103
99 238 45
0 163 85
205 195 111
141 174 240
178 34 1
55 216 177
150 90 170
83 2 222
39 50 145
170 98 118
97 93 92
80 21 65
112 54 101
22 200 167
165 44 103
17 104 240
189 32 221
123 109 25
24 50 11
132 213 26
35 74 250
97 197 16
210 190 211
103 76 61
104 36 69
236 126 242
158 69 65
250 28 127
36 43 91
79 167 117
97 69 241
32 132 44
20 115 176
57 180 216
210 97 112
69 111 180
155 0 154
110 76 26
103 198 204
168 134 159
87 22 31
16 202 36
158 251 173
102 13 175
170 94 159
179 242 109
24 67 148
212 167 172
194 123 106
118 155 26
171 150 231
158 140 158
223 99 189
18 237 119
219 234 5
173 172 101
121 164 71
163 117 241
227 68 247
191 95 246
248 103 44
168 154 231
60 216 20
79 171 180
162 88 37
115 68 226
71 172 254
23 24 156
123 188 67
124 181 44
154 242 254
220 192 204
39 111 211
237 128 192
132 172 144
97 130 23
157 253 144
70 243 148
189 193 153
123 10 160
185 168 0
219 253 46
244 129 53
215 14 78
114 240 57
200 238 140
165 105 122
226 127 237
187 144 121
226 118 219
85 1 179
194 136 228
120 111 169
198 229 230
186 174 104
126 143 218
102 122 79
64 249 87
93 104 175
36 37 152
108 238 19
112 74 44
193 135 167
154 144 33
72 6 184
9 26 234
157 182 24
107 88 53
235 136 72
251 27 10
45 189 137
39 134 199
20 183 77
254 118 140
178 24 100
194 1 25
108 30 211
183 23 200
44 166 86
132 50 243
190 35 16
241 145 222
70 98 32
96 96 75
132 7 108
59 51 207
30 97 126
224 239 186
104 155 73
182 243 190
96 29 76
114 228 151
249 209 60
158 110 194
68 48 163
48 108 151
162 4 44
39 32 226
7 161 9
20 66 203
175 143 107
75 237 159
209 214 109
159 168 97
117 157 85
55 94 143
183 69 22
214 94 114
85 55 4
82 104 132
192 15 174
177 67 212
64 120 147
153 75 205
29 145 156
88 7 44
109 147 37
217 98 104
251 144 87
209 162 54
230 100 125
112 194 68
168 21 208
234 250 16
37 68 1
28 65 123
92 30 66
142 223 244
81 248 94
20 146 14
114 185 221
204 201 33
247 202 177
233 165 12
108 172 193
79 14 238
181 51 111
98 127 179
232 180 34
239 116 207
39 44 89
80 151 126
135 23 11
173 71 182
55 19 222
166 27 159
212 126 61
80 236 16
124 158 147
190 6 86
63 223 233
203 16 239
211 92 173
13 237 55
41 224 238
91 96 122
97 201 182
194 145 72
24 132 197
75 8 60
162 89 213
30 99 245
163 16 196
108 201 0
197 152 230
84 47 230
143 101 117
69 235 55
223 51 195
223 26 28
65 89 146
204 226 174
207 147 115
176 17 90
248 51 107
98 103 126
202 87 34
235 111 111
252 219 73
79 218 5
108 212 15
198 227 37
164 244 33
241 182 81
211 117 238
44 108 14
100 211 11
245 94 84
24 9 202
51 98 251
217 29 228
161 22 57
153 252 236
26 121 70
243 121 157
174 243 54
12 245 234
201 170 46
35 170 238
180 135 70
53 63 210
147 223 141
205 232 167
145 33 12
178 164 9
178 239 157
98 93 62
218 94 218
90 16 222
188 165 124
184 159 188
193 234 153
236 11 129
19 121 69
61 251 90
9 166 9
193 253 41
245 45 221
242 134 61
79 151 31
164 76 187
207 108 208
90 34 205
111 209 248
108 157 79
94 46 80
80 142 0
175 203 149
54 136 51
206 236 195
99 168 132
243 61 105
40 219 238
102 250 115
49 93 210
69 247 236
165 62 97
217 135 178
98 149 234
197 124 58
243 106 238
115 148 169
63 5 72
249 10 97
32 53 105
10 242 10
111 36 103
120 132 5
44 176 24
21 144 228
129 211 211
224 124 95
215 3 27
62 27 225
161 212 157
181 148 203
7 220 0
70 208 9
59 171 53
114 171 244
161 152 70
42 254 236
221 144 4
254 250 52
225 241 190
68 132 218
162 115 188
211 6 215
114 95 90
113 93 232
240 220 74
248 39 79
94 118 253
235 131 252
219 138 79
43 252 246
158 109 87
212 180 42
244 161 143
78 11 251
211 165 78
53 236 129
79 218 206
8 86 159
244 65 18
105 142 176
143 249 231
155 203 73
135 187 83
176 35 10
72 115 187
223 63 46
31 145 193
231 157 83
121 151 171
115 68 124
60 77 59
29 140 245
233 46 62
140 59 215
87 174 229
133 171 113
211 57 168
107 84 147
145 170 9
137 47 161
236 242 233
236 89 244
243 242 115
98 85 193
91 169 141
186 133 228
47 218 174
139 138 56
48 129 225
7 192 107
182 187 90
1 27 33
214 88 179
106 250 75
192 163 116
130 91 143
34 199 68
190 135 160
115 130 212
215 186 4
106 119 51
149 175 222
201 158 181
101 23 27
230 81 229
162 94 123
135 244 134
229 95 227
168 53 201
58 145 193
59 96 230
48 198 232
101 70 98
189 10 123
158 165 245
226 159 79
130 121 143
19 86 126
102 52 114
204 39 177
14 110 247
2 170 84
198 207 195
119 71 251
253 189 253
16 181 237
186 223 96
32 36 250
131 82 54
64 215 172
88 33 67
142 249 239
62 237 64
76 233 56
203 121 206
21 154 195
12 105 248
46 9 215
41 157 89
167 155 58
96 95 96
163 253 217
187 213 188
199 111 66
204 204 59
252 77 47
146 141 174
76 17 183
162 206 55
209 114 200
90 120 166
179 243 57
226 139 173
4 216 113
200 250 48
3 80 109
222 248 179
30 169 20
46 31 231
245 28 209
63 129 169
245 217 58
252 68 228
98 179 109
84 60 239
33 50 170
188 215 253
169 3 13
93 66 108
169 40 130
214 187 135
163 180 210
63 73 23
140 79 159
39 43 8
64 66 70
190 151 165
238 181 56
182 210 253
89 95 65
67 237 28
18 225 134
154 80 43
124 150 62
191 11 82
249 97 216
205 223 153
159 37 133
41 95 186
203 18 99
12 116 177
243 84 187
59 131 109
214 11 177
0 104 167
238 245 182
95 38 210
196 216 31
70 22 13
161 46 187
118 108 108
117 125 151
157 130 84
246 181 239
92 137 139
125 76 154
198 103 151
9 202 49
105 246 11
187 169 66
229 69 218
134 238 152
195 29 198
21 194 67
109 203 180
235 168 213
200 223 235
52 176 170
94 198 135
10 104 185
94 73 104
242 194 196
245 88 55
141 84 133
109 206 131
188 185 3
119 45 10
149 2 103
104 244 109
9 199 191
72 115 154
129 241 50
5 192 214
84 158 181
128 203 20
2 219 56
166 59 206
34 209 22
24 115 14
24 137 224
16 4 135
241 228 126
112 85 207
23 91 76
84 168 182
64 69 202
203 219 203
199 182 56
54 193 51
232 7 6
121 26 155
197 244 97
213 144 9
16 32 102
194 166 70
56 151 162
229 27 161
101 12 158
237 213 32
120 74 130
201 246 56
101 120 249
88 148 27
83 147 253
203 214 62
237 245 129
118 20 48
232 152 55
94 250 228
73 79 163
75 155 228
102 114 87
138 23 232
254 116 160
153 153 249
142 115 80
122 93 221
156 175 45
102 216 205
89 66 63
83 43 148
51 118 18
14 104 135
153 85 58
58 152 92
198 165 187
252 29 126
113 9 37
197 102 176
116 250 252
222 76 19
128 122 108
52 253 30
116 250 129
60 131 210
160 79 73
32 13 105
205 191 159
233 252 38
148 147 217
151 107 73
103 200 20
70 145 228
240 111 60
67 81 181
58 188 224
152 203 139
57 185 122
17 145 35
214 90 191
28 124 106
111 65 108
128 93 50
141 103 118
127 101 146
145 72 100
137 68 21
219 97 246
101 97 215
181 142 72
63 112 79
240 81 23
62 27 30
88 110 111
169 93 128
245 241 77
241 42 93
251 83 105
235 5 212
227 142 188
56 202 6
51 36 115
185 179 231
149 213 1
159 108 177
57 90 91
57 148 36
90 241 250
152 75 76
34 102 137
196 27 224
63 51 154
5 100 39
219 157 99
178 219 94
92 22 97
166 230 25
249 66 99
150 250 218
185 116 20
108 249 26
11 124 102
30 189 208
195 49 234
111 241 145
239 181 57
3 239 52
75 20 23
167 219 169
247 69 210
173 36 173
131 199 8
179 231 117
51 90 59
3 252 162
15 164 198
38 164 186
68 133 35
127 134 32
123 34 49
56 151 20
29 226 25
23 85 100
204 57 28
104 19 219
245 177 109
240 111 36
225 16 2
208 232 136
231 235 160
135 42 199
237 150 81
58 81 228
246 157 131
62 150 183
188 142 250
202 165 209
123 150 90
108 17 1
125 44 94
66 74 249
172 58 159
119 20 87
227 37 54
164 222 46
203 118 201
131 245 79
51 115 3
90 23 202
28 180 165
62 19 201
159 40 196
12 216 209
63 78 176
93 31 112
149 132 226
198 239 180
22 82 117
88 33 63
202 187 144
188 10 228
175 160 231
88 193 108
43 15 174
169 55 168
133 175 194
18 137 192
140 178 204
32 174 213
114 137 72
99 36 35
54 27 102
215 144 227
56 190 141
239 67 104
160 180 123
194 98 251
242 110 157
31 81 53
135 150 155
112 134 123
204 31 155
47 104 116
170 184 1
154 87 135
98 251 180
194 220 60
217 187 211
208 197 51
155 195 138
151 193 161
35 78 196
33 141 69
110 111 106
86 54 76
199 190 115
201 96 170
68 102 236
29 229 216
203 57 235
48 167 171
144 187 220
61 141 202
196 82 52
182 169 83
57 82 126
208 227 172
56 213 149
62 199 192
103 237 27
16 195 148
177 119 54
82 24 188
103 115 221
162 121 169
100 217 174
96 130 76
163 114 240
67 243 113
247 29 25
107 193 171
105 189 224
243 101 111
91 212 219
163 89 84
129 30 187
37 254 94
60 150 40
220 227 5
72 103 112
248 192 160
116 147 230
47 80 113
213 140 212
160 53 156
156 89 19
92 117 134
84 231 121
102 105 161
143 192 193
183 134 114
169 208 135
97 9 156
0 144 64
156 83 83
3 207 109
250 124 35
249 229 33
203 234 200
228 235 22
176 80 47
245 121 31
178 119 198
100 111 209
197 228 1
203 46 151
98 250 81
138 34 85
57 24 142
39 29 154
216 60 37
168 77 92
210 242 239
227 5 205
198 15 92
5 19 211
138 10 49
83 76 147
126 58 16
177 229 166
150 143 123
109 252 196
71 188 24
125 41 141
116 95 115
224 241 232
158 168 85
182 201 236
174 236 82
123 11 42
64 199 188
76 215 55
177 97 133
124 181 21
241 93 128
119 249 216
120 89 99
170 141 60
109 30 15
242 41 20
223 2 186
203 235 93
107 74 76
127 165 230
235 26 79
92 40 56
149 104 52
166 150 93
73 252 148
37 216 133
4 158 87
253 169 214
211 211 32
125 106 101
118 43 80
108 189 187
125 135 50
232 192 34
222 231 47
33 105 34
201 9 217
221 205 36
148 114 120
67 218 75
63 27 253
89 75 241
44 203 170
16 241 21
12 36 88
151 251 19
200 151 117
99 18 182
182 194 182
141 49 197
112 207 144
236 242 105
25 148 125
133 231 191
171 139 213
134 20 218
128 130 71
112 66 2
137 175 149
104 1 248
170 118 170
79 184 238
195 54 203
193 136 131
6 73 229
80 180 166
149 71 160
225 42 247
107 83 146
248 4 106
21 232 226
119 200 46
39 242 144
124 71 236
151 4 104
161 225 75
20 105 84
146 211 233
109 94 127
203 112 225
47 223 75
248 47 109
250 245 91
21 44 96
68 136 235
106 133 3
14 198 175
179 61 154
168 148 62
184 224 226
94 222 217
165 175 36
55 127 233
213 110 47
161 230 206
144 53 61
233 237 145
114 26 240
175 222 188
160 126 126
70 147 7
10 214 220
128 205 245
218 172 31
9 229 44
123 201 2
158 39 51
34 69 98
58 16 0
3 197 146
70 141 59
221 141 31
17 103 50
186 60 177
211 199 106
156 187 108
104 95 63
247 22 165
182 141 198
3 118 78
11 175 223
164 30 197
133 128 6
111 236 146
172 54 223
105 228 123
245 106 180
44 168 161
89 195 40
79 81 64
77 173 234
5 200 232
33 83 120
49 70 95
11 229 191
163 72 66
93 241 51
142 10 116
220 60 88
10 142 231
56 67 56
48 83 96
180 98 204
17 227 91
247 104 28
36 193 180
117 179 206
48 0 209
152 68 210
129 129 202
148 248 180
11 87 138
75 213 137
254 249 143
183 202 82
127 227 35
208 170 197
68 73 170
28 19 231
46 118 80
216 29 148
12 77 152
69 20 231
60 98 13
88 97 218
114 164 91
90 28 226
74 139 157
235 27 124
147 78 198
38 45 245
217 163 138
97 116 13
200 86 174
13 66 234
31 163 101
79 247 170
172 189 92
13 141 111
126 201 250
122 40 180
188 4 159
6 69 34
39 46 72
216 139 140
55 8 101
97 93 72
150 53 213
126 45 4
7 157 150
224 83 107
113 105 203
66 80 52
110 150 193
158 88 65
246 23 102
217 209 211
55 152 187
12 125 20
141 30 30
211 104 209
11 246 194
127 200 4
19 93 31
23 213 68
221 122 216
151 178 223
9 49 242
220 46 119
109 67 209
126 141 132
188 225 244
68 65 165
196 47 80
97 81 209
121 251 103
253 90 172
95 109 50
161 182 198
250 114 209
163 211 58
52 55 159
135 70 83
24 127 121
192 183 215
228 73 71
22 162 221
235 40 148
168 249 193
202 155 113
173 188 159
110 219 147
5 227 113
26 241 244
163 192 199
59 9 157
210 223 214
229 188 65
144 95 140
142 36 156
53 39 139
164 247 131
97 79 29
31 128 111
197 135 156
152 103 144
241 34 24
226 244 39
85 80 33
175 104 37
76 60 128
114 163 224
192 247 60
180 64 168
198 39 72
134 105 37
214 50 68
253 150 249
30 130 113
211 72 217
220 243 179
222 254 240
194 176 225
51 82 175
197 31 142
10 70 45
126 44 96
93 230 160
32 205 113
184 242 76
40 22 226
56 71 93
68 130 103
51 150 34
127 81 24
99 212 64
223 182 193
153 100 149
114 221 218
13 130 173
205 252 24
129 196 176
232 53 123
202 196 240
237 183 143
209 181 153
72 216 137
102 15 251
213 32 180
236 192 107
90 104 138
107 160 28
33 160 108
134 225 177
195 81 204
228 197 10
176 171 79
198 12 129
51 133 188
135 46 105
159 158 115
149 196 100
130 74 234
208 28 150
72 100 125
34 234 165
214 119 173
198 1 223
133 208 244
15 179 26
150 210 24
226 191 132
172 246 48
85 103 139
179 79 19
210 196 148
84 116 238
188 232 92
43 95 229
162 8 17
105 105 84
139 34 116
35 41 7
117 79 231
179 161 228
59 61 49
26 61 104
82 170 160
177 160 77
98 241 201
25 171 35
75 8 92
5 152 244
28 44 118
58 148 61
229 85 13
210 245 55
23 217 68
29 10 102
14 28 235
193 153 70
162 181 218
129 111 223
147 128 24
136 86 254
77 71 48
156 26 117
96 134 128
178 211 74
9 1 96
0 226 67
237 35 218
14 246 197
85 163 50
134 127 28
52 98 108
232 93 200
216 218 237
40 183 76
140 46 79
138 26 150
17 182 162
55 97 169
191 143 127
24 65 187
210 122 242
87 172 139
75 91 105
75 99 237
100 88 253
182 51 160
0 175 164
49 154 252
99 158 156
76 72 84
20 198 187
76 185 140
176 239 221
199 138 37
202 97 142
216 64 195
45 245 154
207 176 27
186 226 52
18 56 30
232 72 129
196 7 206
242 93 123
39 253 247
160 89 236
62 164 40
232 46 220
81 182 174
44 49 109
76 75 63
127 216 129
180 228 197
162 209 79
94 117 152
150 73 55
108 93 114
248 111 149
63 130 13
230 58 111
5 32 17
67 246 36
7 149 175
27 77 164
185 64 84
234 126 24
140 248 248
109 34 62
49 230 178
133 23 0
146 187 122
68 123 91
155 30 102
139 35 136
210 67 125
126 187 140
105 115 134
55 171 183
164 144 61
1 189 238
112 26 11
48 202 78
75 245 164
166 104 48
76 146 68
90 43 5
193 238 58
36 239 103
196 150 134
234 63 141
133 235 49
147 46 213
130 186 178
153 28 187
176 50 188
37 0 234
225 145 200
10 40 35
118 34 155
42 134 49
49 57 34
80 3 13
183 149 129
132 216 241
36 32 156
164 91 45
90 24 214
168 103 58
190 112 59
36 24 215
151 39 98
179 163 17
164 235 23
190 254 47
88 205 236
216 54 127
225 31 154
170 80 17
105 64 92
145 82 78
55 71 225
245 248 178
139 199 231
215 114 4
129 191 193
32 62 177
192 30 93
113 254 13
173 213 203
193 52 11
198 166 139
100 65 44
233 109 80
50 50 64
33 122 230
190 23 0
117 56 49
192 174 29
54 80 220
69 193 68
75 234 146
84 184 223
69 186 130
34 91 51
0 85 176
157 223 59
207 39 1
61 49 9
14 162 100
40 227 116
50 54 253
192 42 164
249 172 49
246 97 17
10 79 93
12 224 202
239 198 85
117 98 215
158 0 131
131 161 235
89 184 55
231 250 159
111 138 154
132 124 154
124 126 175
177 237 157
38 69 114
118 9 110
178 227 10
15 235 71
121 24 105
175 31 13
196 31 189
151 125 226
82 66 25
50 18 168
102 7 168
179 145 100
61 55 29
124 185 8
251 246 235
77 86 180
236 190 178
217 224 135
23 135 18
239 212 250
106 164 147
138 198 31
207 45 55
156 96 6
40 155 183
163 237 205
241 237 214
248 237 113
153 53 112
118 208 9
158 39 103
59 81 44
143 119 129
116 52 140
79 37 1
100 120 93
230 3 167
66 71 156
247 9 157
163 167 248
84 215 186
14 171 168
147 53 72
14 79 221
225 25 83
197 166 91
236 62 178
246 112 91
221 108 33
199 22 245
109 154 26
135 191 5
203 200 223
178 232 27
180 20 228
123 228 148
173 224 150
220 162 219
222 169 235
19 144 89
160 245 7
170 206 170
27 235 210
158 208 245
157 54 132
69 210 140
21 131 225
56 75 90
248 131 21
224 119 155
65 109 76
144 78 63
88 183 139
161 190 207
148 21 71
95 227 34
182 203 7
201 191 136
53 89 110
103 78 118
60 246 131
56 32 212
176 47 78
134 37 138
129 164 236
231 123 249
73 96 144
92 112 225
119 221 208
127 175 35
211 37 168
248 247 112
20 122 173
149 249 85
207 144 128
141 176 12
1 75 130
58 81 5
31 136 239
166 112 247
219 244 8
110 222 218
150 82 22
217 219 212
220 196 198
32 23 155
201 99 85
124 49 236
99 176 112
192 66 182
186 114 135
67 94 148
54 56 169
30 5 237
229 16 170
219 27 168
17 4 55
18 40 30
200 185 158
237 88 81
187 69 41
159 185 148
95 157 56
19 208 150
57 89 7
175 73 130
174 32 179
33 11 1
223 34 146
103 211 112
94 66 222
110 137 182
239 21 167
86 35 77
253 4 120
223 16 95
213 134 186
126 177 240
106 221 148
220 44 62
69 14 29
100 96 50
251 242 153
148 229 77
106 176 119
176 2 107
104 143 158
153 202 192
183 21 145
27 144 139
133 13 42
67 196 199
170 113 120
147 27 7
95 84 180
106 89 237
133 137 135
243 168 80
190 231 225
211 204 107
86 75 227
165 46 45
151 68 89
118 199 217
203 4 236
5 91 9
145 14 168
232 123 133
169 37 200
247 195 150
0 201 26
31 222 92
239 16 109
114 191 233
8 141 119
200 250 56
237 130 99
233 5 96
103 127 142
116 114 248
225 107 159
114 196 108
101 12 129
209 177 49
98 221 43
247 94 179
9 15 47
46 101 93
166 103 251
226 117 128
151 120 55
133 56 230
113 254 181
145 107 126
227 162 251
67 118 232
181 200 170
234 148 201
129 70 15
156 7 116
52 237 103
8 50 184
229 236 241
131 102 79
167 194 22
172 248 115
131 179 164
49 137 116
73 116 120
9 179 63
99 58 207
198 229 58
51 127 92
140 202 13
94 42 165
116 113 121
250 41 192
45 70 182
97 149 43
51 91 15
124 180 131
130 133 121
234 169 18
121 225 146
52 18 93
140 200 9
47 247 88
131 111 48
172 203 130
253 78 109
145 65 198
134 235 219
68 212 33
114 152 230
80 18 154
110 241 227
231 155 32
90 153 134
165 157 90
130 209 160
247 113 213
145 227 224
181 27 175
143 9 52
131 172 22
222 30 221
1 161 204
234 166 21
124 152 204
85 71 147
197 181 163
237 54 114
25 21 14
88 159 68
119 20 133
87 180 18
148 5 68
59 183 89
58 99 242
6 36 64
96 218 109
55 254 120
150 91 31
24 56 239
30 237 19
186 69 147
67 137 5
104 72 170
92 110 230
196 162 253
59 199 133
215 230 228
235 137 174
72 163 130
7 130 108
112 215 86
92 177 108
102 172 116
108 237 96
85 202 120
100 147 248
217 137 46
230 193 2
251 134 185
198 17 228
242 125 16
21 21 216
42 237 13
251 118 231
133 223 92
26 135 198
62 151 106
181 166 53
20 12 145
253 50 157
37 206 105
248 244 111
45 60 22
26 166 151
32 193 120
105 118 155
186 137 218
36 112 70
172 175 104
8 237 200
57 49 67
214 84 58
174 94 214
125 178 86
160 89 137
87 79 127
186 43 31
36 38 128
101 233 208
69 13 41
154 236 92
127 149 161
224 80 46
173 206 5
98 31 45
74 44 216
24 25 101
182 9 191
69 98 199
198 197 251
149 211 130
70 41 120
230 231 133
0 199 125
86 52 43
128 191 174
102 76 229
162 210 194
14 57 191
211 156 242
101 233 88
37 119 129
51 129 42
119 248 190
53 64 176
216 55 30
146 120 122
9 203 249
8 230 7
33 0 178
103 250 168
59 242 107
172 34 147
243 114 177
55 59 148
191 39 187
83 172 34
82 15 60
101 241 42
76 20 191
214 176 53
94 177 178
192 166 187
128 228 156
249 12 2
81 230 22
134 22 241
120 48 22
174 103 79
210 6 53
21 12 118
83 147 19
67 34 103
16 31 198
199 187 156
16 92 151
17 179 32
149 169 94
66 87 72
222 44 214
8 115 50
53 245 117
148 254 71
243 78 144
185 241 223
8 92 89
142 211 221
220 71 93
51 81 160
215 172 203
32 172 197
109 84 156
209 194 207
254 198 162
31 72 78
214 83 41
221 154 36
2 121 167
213 130 237
215 215 146
19 169 86
119 117 31
42 213 105
190 96 227
116 63 201
136 6 27
79 60 104
26 111 82
244 129 39
15 217 139
58 50 23
203 251 79
240 152 166
172 127 63
227 112 34
236 130 215
236 58 130
83 107 46
130 39 71
170 29 2
31 155 93
151 180 211
66 190 183
124 126 30
187 108 253
93 199 102
62 113 115
2 161 113
246 198 53
152 72 53
156 76 6
200 25 88
81 188 223
195 108 130
172 91 169
70 211 214
3 245 57
66 237 23
227 146 63
100 37 242
182 136 13
211 251 106
139 187 175
210 13 82
86 116 110
73 56 156
145 251 18
124 242 111
148 110 4
33 29 155
177 180 179
226 219 242
21 234 22
190 253 181
136 81 223
51 71 131
59 22 228
97 217 237
46 77 4
83 66 127
142 150 128
17 194 82
248 248 133
72 220 146
71 91 19
155 152 49
124 85 233
172 1 15
224 211 241
103 61 227
98 2 52
18 246 240
207 187 217
39 167 21
72 153 128
141 242 1
51 118 152
65 224 45
29 129 212
73 138 251
164 148 45
113 209 223
67 238 39
213 118 177
121 245 8
239 254 230
113 67 6
30 232 252
29 59 114
40 5 253
5 125 1
170 235 140
208 227 85
90 122 172
76 69 156
40 139 222
125 89 94
27 141 86
1 240 131
202 192 231
229 55 54
19 0 194
112 3 191
26 224 182
222 31 91
126 87 247
8 232 26
168 135 49
102 100 54
188 92 166
74 151 141
77 181 22
178 201 13
121 204 13
94 188 205
99 168 238
19 199 247
65 214 239
69 38 212
157 162 48
208 108 85
131 184 44
220 149 139
3 26 10
78 222 10
214 164 254
188 30 222
13 22 209
27 153 112
14 192 237
37 208 114
141 45 235
199 212 203
85 228 5
115 65 189
197 99 165
37 206 36
133 234 212
229 180 48
230 230 236
179 84 94
89 179 207
32 133 191
90 101 74
122 187 247
159 183 137
46 123 243
130 239 147
14 186 44
62 69 237
10 64 91
101 54 54
234 205 129
246 69 101
81 31 235
100 139 155
123 9 117
223 27 157
179 40 67
241 240 111
109 21 192
246 141 71
86 137 213
243 39 93
167 178 249
179 190 19
22 29 112
52 1 15
9 119 137
155 165 65
1 130 29
28 114 241
63 54 44
40 18 133
107 200 84
146 15 151
218 173 3
1 30 17
100 120 13
189 140 183
122 3 238
99 48 145
14 11 12
0 105 156
163 23 173
60 97 105
131 149 13
111 193 25
49 57 242
63 93 109
222 184 36
164 16 178
101 218 5
11 49 136
6 163 241
146 81 176
4 173 142
164 5 230
198 42 123
89 196 186
20 92 37
210 48 168
124 197 93
49 205 178
20 199 59
175 72 55
59 18 27
238 44 244
87 119 9
108 240 177
53 247 173
50 134 43
201 37 18
164 32 33
224 52 186
199 7 101
213 148 87
63 164 202
26 104 124
214 4 141
43 26 100
180 140 232
49 92 68
196 241 11
24 139 188
54 208 42
44 30 46
18 148 142
69 245 220
23 81 144
184 47 102
249 183 228
117 210 84
242 21 70
1 106 145
36 225 83
35 31 175
231 200 232
100 197 68
184 185 72
150 131 41
101 132 206
87 49 145
18 38 114
85 123 230
103 193 244
87 156 165
111 220 132
2 165 61
34 14 113
189 125 238
97 94 58
137 170 173
243 237 31
94 79 68
201 147 89
189 90 166
147 238 246
193 232 151
45 27 83
50 13 182
232 100 178
98 168 159
49 236 188
252 69 185
117 67 173
182 205 0
133 220 47
187 164 48
190 173 50
124 253 228
19 184 238
226 208 198
36 145 157
135 206 20
164 120 193
87 178 69
133 230 250
11 219 104
250 61 100
76 64 226
184 253 153
26 172 58
234 29 145
81 60 182
35 108 48
96 135 171
252 121 116
180 146 199
246 248 145
196 106 220
180 86 145
248 76 246
239 160 4
254 71 117
110 246 227
35 177 58
11 14 193
79 195 16
249 45 84
149 20 228
22 177 65
96 134 118
110 174 57
171 241 135
149 179 41
135 241 185
194 81 7
112 204 136
79 3 51
215 59 135
66 126 98
124 234 144
13 186 81
226 193 90
97 85 60
235 245 235
222 22 84
246 41 103
250 170 167
124 16 233
229 188 109
184 123 83
13 121 140
171 95 124
243 12 207
140 238 157
242 109 116
128 41 0
148 46 190
125 17 78
60 137 131
202 0 253
194 180 84
49 96 215
147 164 235
4 143 85
88 237 207
25 44 39
218 196 94
162 31 15
5 176 51
95 56 103
241 123 79
253 194 210
90 236 254
76 126 236
200 91 148
36 83 188
55 28 83
161 144 198
54 176 175
59 196 25
153 108 84
35 105 242
45 251 61
64 68 38
176 209 245
206 54 48
213 238 119
83 83 247
42 190 177
247 112 110
151 232 179
90 202 44
142 59 191
207 65 72
30 168 190
35 227 224
192 33 69
133 133 38
238 45 28
214 211 188
94 43 35
5 4 83
11 144 239
225 245 246
146 35 214
15 22 181
184 76 173
44 34 158
45 84 141
167 204 251
115 29 191
185 53 38
0 158 225
14 244 86
163 153 80
15 207 89
216 193 104
202 105 42
2 153 109
125 234 212
149 190 250
250 145 66
109 10 13
166 173 39
53 108 108
102 17 239
252 74 221
100 190 28
213 24 15
154 121 38
149 167 197
87 104 121
5 85 66
114 7 123
98 161 0
218 75 18
217 78 230
232 48 156
218 6 199
150 133 137
184 185 243
17 158 158
205 130 253
100 122 37
60 205 134
8 211 190
141 209 40
213 42 128
14 206 174
76 9 235
54 146 72
132 187 13
87 18 81
195 21 197
52 108 111
118 181 168
105 21 213
223 235 86
117 159 105
68 130 189
84 254 8
166 119 56
120 150 24
84 46 174
150 179 95
21 215 238
32 148 169
66 152 123
10 195 14
154 106 170
238 41 94
93 114 248
71 233 12
173 0 43
177 119 132
204 65 239
34 88 7
163 48 15
160 104 215
54 204 136
233 143 100
226 72 57
5 2 241
19 41 88
32 1 190
24 145 19
115 211 234
242 195 110
208 36 139
234 36 232
29 67 246
105 165 65
45 101 95
125 97 145
86 31 128
225 74 76
40 237 224
27 198 40
64 210 144
147 203 80
174 189 128
234 212 16
200 159 153
220 181 236
182 38 240
14 25 1
224 23 226
166 203 34
188 0 252
245 39 207
164 101 42
181 9 225
248 190 56
95 142 58
211 147 67
118 168 54
88 53 158
61 19 108
72 75 198
44 140 186
132 47 178
252 63 249
96 207 14
24 179 99
1 192 149
121 144 12
1 43 34
245 55 71
188 81 191
124 84 126
21 76 73
110 99 110
137 215 67
160 243 31
77 19 218
84 109 107
217 85 80
135 201 227
112 129 26
204 237 30
73 109 83
153 201 172
118 148 26
61 2 130
59 188 236
90 248 253
222 247 140
161 69 102
27 62 164
126 149 55
101 30 250
147 150 84
145 109 3
204 243 63
0 104 171
188 204 40
170 233 132
117 79 39
93 232 211
109 194 20
208 207 9
238 55 49
193 241 92
151 115 250
15 149 53
138 190 207
250 113 55
233 138 249
120 128 236
180 165 249
75 89 160
186 146 134
185 40 203
172 157 118
132 5 215
27 175 99
164 138 90
172 213 241
179 99 18
42 156 112
54 144 213
172 13 123
141 220 56
0 65 132
120 185 73
86 47 81
141 177 62
228 162 86
53 28 211
209 93 132
102 73 33
6 140 48
82 126 220
113 215 99
63 57 73
117 38 92
232 91 5
248 36 187
221 237 116
36 85 167
78 214 28
113 242 206
46 198 225
18 179 196
181 161 250
210 27 32
84 11 202
1 219 129
157 79 107
246 43 235
53 14 10
73 223 156
173 132 12
26 95 231
156 220 93
172 59 154
176 22 99
216 147 46
241 85 44
195 124 248
95 119 132
114 237 232
170 4 71
101 140 152
35 149 114
195 85 155
218 157 127
149 53 191
241 242 52
194 129 35
154 127 144
112 104 2
137 168 199
225 43 210
43 242 58
23 101 134
20 169 200
48 48 66
253 63 11
3 169 94
4 214 30
154 46 36
26 180 32
93 86 249
54 83 116
157 229 202
252 54 130
54 137 231
161 164 72
216 116 182
104 126 205
50 55 93
30 2 230
191 41 191
203 143 59
144 12 210
25 241 143
234 129 67
52 157 228
166 241 20
188 9 29
190 173 103
231 96 57
160 176 159
79 237 237
107 126 217
38 142 126
52 76 186
100 248 114
240 62 25
171 250 227
28 9 254
166 144 135
190 204 182
236 22 242
104 217 217
61 158 144
146 240 155
177 71 112
32 133 194
169 174 125
29 92 176
127 224 109
169 191 24
152 163 36
38 40 150
127 171 34
117 38 228
1 149 149
46 225 169
64 186 210
125 63 13
15 177 106
204 111 145
144 143 211
230 242 24
181 191 34
182 81 26
91 77 242
117 159 152
104 40 136
65 27 131
160 96 87
40 68 108
200 142 77
78 165 37
139 246 151
145 217 208
223 231 181
216 65 240
206 46 37
208 218 6
25 158 160
177 134 198
157 176 205
72 153 253
171 40 180
22 251 158
17 90 215
226 79 89
22 36 113
156 176 1
198 250 22
146 151 33
95 222 154
76 131 203
116 80 118
220 68 133
72 91 9
49 183 174
87 100 83
139 46 22
21 54 238
85 15 134
46 208 154
106 244 53
165 136 42
119 140 83
42 33 147
161 212 186
112 151 142
82 141 11
252 208 210
147 139 16
182 6 225
230 99 132
246 39 34
210 93 43
101 65 103
3 167 46
93 223 106
11 203 65
140 230 43
133 219 223
229 232 113
128 5 142
218 235 130
34 27 227
133 40 111
254 16 11
134 163 93
141 252 153
249 145 77
76 89 114
150 6 222
98 216 73
61 118 149
134 139 232
103 215 237
173 11 137
78 94 226
133 100 179
247 122 151
104 128 199
123 88 94
149 105 193
186 24 132
208 153 91
153 2 18
47 180 126
140 2 95
101 35 63
214 71 156
134 54 174
138 75 90
253 131 65
13 146 25
136 168 211
100 150 74
57 89 206
204 225 188
46 148 75
100 157 108
192 161 60
123 18 131
47 20 172
199 222 101
161 168 152
202 186 101
135 203 29
47 125 251
166 218 244
82 1 116
209 176 157
48 61 163
4 183 172
25 177 98
233 159 2
210 45 225
69 129 34
100 129 59
104 94 153
149 227 147
58 89 240
4 94 230
207 250 184
41 98 173
95 254 130
130 138 54
141 54 52
142 254 107
125 87 161
98 14 19
173 227 238
72 116 25
134 214 221
228 42 140
210 233 138
60 105 225
83 163 227
102 207 218
90 77 235
145 155 75
221 108 164
101 220 173
58 121 158
135 244 86
21 71 227
187 12 173
135 43 60
160 65 227
225 166 146
11 108 173
174 47 98
174 195 205
129 40 3
254 181 241
199 219 250
248 224 99
196 88 229
219 102 103
24 117 56
36 44 55
224 33 152
247 125 217
38 229 34
13 244 90
89 4 43
145 33 240
247 118 147
185 53 137
184 100 63
51 167 124
80 250 240
150 248 230
145 228 142
10 199 226
25 14 33
33 25 43
16 179 186
220 94 63
199 89 92
185 115 140
5 202 72
147 10 109
210 140 6
182 224 172
62 228 221
116 162 157
176 110 20
122 159 84
143 77 19
9 192 61
211 66 171
160 7 80
88 55 145
80 199 173
38 210 21
131 18 55
253 68 51
181 192 49
130 107 148
185 52 101
24 119 226
234 249 127
30 22 207
186 127 236
196 154 10
22 33 97
110 88 81
211 133 239
233 247 32
9 223 207
105 209 214
166 9 239
83 226 198
91 40 241
205 241 114
65 95 36
250 213 9
168 65 125
178 29 40
164 27 229
228 79 148
199 57 60
17 14 29
179 92 175
220 13 144
192 199 93
154 60 252
237 225 81
119 230 232
213 217 190
123 14 159
105 189 80
59 221 170
88 67 84
95 48 171
109 64 145
63 153 84
181 199 231
216 206 33
43 120 195
32 130 170
97 140 71
15 13 33
228 104 52
179 23 241
146 152 42
57 110 89
24 74 248
192 55 52
111 109 87
216 37 221
225 117 151
46 131 215
174 111 95
67 219 97
69 221 159
107 13 188
182 154 236
91 131 16
132 157 89
18 237 163
76 63 128
17 54 136
172 12 253
240 13 22
220 194 154
142 177 174
21 109 156
137 161 14
102 32 170
161 129 198
100 22 158
175 54 18
28 39 69
64 85 180
229 31 151
210 197 20
186 176 243
212 38 50
52 138 70
162 56 176
181 73 38
19 24 97
17 115 121
150 196 48
165 139 146
3 196 15
235 161 63
6 145 223
47 164 148
31 222 11
114 162 20
217 143 159
69 72 79
147 82 232
23 188 239
139 111 73
234 124 165
144 214 132
135 221 102
243 167 186
122 18 206
47 146 188
116 230 201
30 104 180
1 51 26
229 77 143
143 219 106
31 253 218
172 200 164
4 206 183
71 243 251
51 251 116
118 58 152
53 90 223
130 125 176
15 33 84
104 54 56
140 114 131
118 33 131
49 235 105
63 140 64
2 88 174
213 244 93
32 183 124
67 79 251
119 226 28
243 209 1
96 97 13
12 183 0
39 46 224
19 12 224
17 82 195
152 10 242
147 182 63
128 212 224
240 99 146
236 121 76
79 232 181
186 243 14
205 6 214
148 63 132
76 53 105
53 183 218
139 152 154
70 106 18
244 39 15
126 160 246
205 217 221
137 159 36
190 167 220
99 184 179
246 95 109
140 188 143
133 79 64
67 183 162
124 5 189
27 180 70
214 125 194
64 179 219
75 180 203
218 128 230
127 155 119
245 151 15
55 254 116
60 247 35
125 185 81
227 174 88
52 102 208
81 7 22
46 240 171
180 94 252
213 213 252
239 116 79
216 54 8
21 241 122
199 27 95
73 200 169
239 12 163
63 141 25
74 101 74
107 119 34
158 56 128
232 43 234
100 165 160
82 99 86
14 119 6
193 56 102
71 202 74
247 90 102
109 75 194
46 44 2
168 174 23
9 38 201
37 214 2
103 67 133
128 187 254
51 208 228
68 120 182
173 42 115
119 35 57
52 44 99
153 2 124
190 55 66
242 154 169
148 77 182
122 71 155
50 28 197
135 2 38
186 4 169
36 232 218
114 26 119
192 108 126
72 118 236
210 10 20
238 30 152
137 106 96
223 243 28
227 85 205
204 97 62
158 143 108
86 168 133
157 135 69
36 232 200
91 135 33
217 61 206
136 235 61
141 246 113
204 204 245
33 140 174
97 101 251
159 221 205
204 64 183
46 125 88
12 12 54
15 190 127
164 181 23
169 179 221
161 236 238
15 151 248
111 65 115
232 20 145
117 244 114
59 62 8
51 77 191
43 213 184
41 155 5
147 152 2
124 206 170
25 164 29
51 196 229
84 199 84
227 14 213
8 139 67
107 133 180
186 252 215
202 237 196
37 29 204
2 185 106
133 187 18
190 170 83
122 166 107
243 135 235
178 68 83
76 87 221
108 84 74
228 211 107
205 88 230
47 58 232
41 21 93
231 196 143
92 169 170
167 190 114
53 178 146
43 58 174
47 151 211
229 155 56
118 83 40
144 123 130
166 11 188
214 229 33
243 112 73
12 243 164
185 31 102
61 179 25
177 111 48
127 170 68
192 94 171
222 3 250
215 224 83
199 116 206
95 66 56
60 128 242
12 159 251
188 247 27
16 62 70
144 120 223
175 204 194
227 242 50
152 140 65
26 114 163
100 98 66
5 251 82
131 249 189
92 88 239
22 92 21
113 20 213
88 230 120
97 153 246
222 176 213
156 79 128
173 69 180
180 56 140
124 22 196
100 228 97
214 67 199
148 165 45
206 201 211
166 236 230
56 104 22
8 219 228
241 105 33
249 162 53
32 219 205
239 47 149
116 252 50
34 100 93
23 14 187
57 36 151
76 199 253
50 212 163
128 7 233
176 91 48
253 16 140
219 86 75
31 21 111
189 91 95
149 210 51
87 54 180
181 17 37
241 196 109
106 54 78
5 205 180
97 125 43
57 67 215
81 152 230
19 112 120
244 176 93
150 57 109
44 18 169
84 220 86
85 217 58
183 129 198
134 216 44
24 33 104
191 129 203
73 201 94
163 196 213
173 15 204
90 92 158
105 209 1
172 233 240
89 58 222
140 24 210
4 37 93
110 152 47
108 170 215
129 235 76
0 139 86
209 30 188
80 37 25
185 32 160
41 200 115
247 172 148
39 67 30
174 76 177
8 118 17
164 189 186
85 62 201
84 9 162
182 122 155
233 65 156
153 154 14
132 83 17
98 114 8
190 25 155
137 159 58
169 76 67
250 151 87
226 133 35
14 79 199
160 52 43
72 107 62
77 157 190
71 184 7
52 179 126
101 53 92
1 247 21
221 228 21
44 83 183
91 160 141
124 133 179
179 59 214
202 63 67
91 8 194
183 99 28
130 17 122
54 48 176
201 54 235
62 17 130
76 206 56
39 21 35
168 166 216
127 89 18
51 89 208
225 93 231
5 158 181
86 210 206
22 32 129
63 251 212
124 21 236
76 204 72
148 14 238
229 132 243
2 207 19
191 140 68
207 56 64
101 240 133
110 35 65
84 48 152
124 132 101
215 1 105
140 69 227
220 23 78
61 165 196
194 191 123
33 24 249
45 170 79
58 168 205
76 10 100
45 218 62
122 97 47
123 243 174
23 59 4
103 178 44
182 219 96
122 100 161
63 96 94
29 108 254
156 248 212
107 123 21
212 115 58
134 115 110
77 49 232
183 74 40
87 160 93
195 207 234
40 42 12
167 245 182
2 12 148
250 62 134
220 70 138
55 26 240
240 149 106
210 26 92
203 165 120
12 101 62
239 25 199
214 195 28
178 89 139
151 21 223
249 31 91
99 176 4
198 64 234
203 85 24
189 140 248
176 195 3
43 207 79
243 151 74
35 172 105
171 180 55
119 189 242
28 221 84
178 58 188
25 147 145
169 74 28
18 149 157
89 192 34
66 51 79
65 41 216
106 128 23
95 229 234
168 132 138
98 67 175
159 79 33
150 14 154
242 49 154
183 70 208
35 80 162
148 223 63
30 8 142
115 74 161
5 239 61
252 25 248
160 247 219
38 6 16
9 235 101
171 184 205
133 53 44
80 65 159
194 101 214
71 242 209
56 196 214
221 152 162
29 196 31
21 250 60
245 16 238
246 178 238
223 21 61
129 128 207
180 53 242
86 4 161
23 190 21
70 130 92
94 172 140
0 181 63
237 94 165
156 81 170
54 146 107
35 82 170
107 17 212
231 213 139
219 23 156
113 91 214
20 107 179
197 133 117
158 102 9
177 203 174
100 135 137
226 150 95
172 21 90
106 191 130
174 209 24
152 203 52
203 221 249
91 69 16
71 6 90
171 132 43
37 179 2
33 13 94
132 4 57
155 94 198
85 2 43
73 245 144
142 103 228
115 136 82
64 30 180
165 44 103
124 150 240
138 38 35
102 57 58
163 231 12
47 36 60
20 88 104
183 86 243
126 112 229
247 74 88
248 214 220
154 34 242
146 241 138
241 73 252
90 32 159
173 40 37
148 93 159
40 245 162
59 175 1
117 53 97
16 68 28
216 72 240
155 201 144
113 252 170
229 124 94
5 176 5
166 190 189
228 187 112
143 0 1
152 137 67
25 69 199
61 119 11
23 189 71
202 90 57
157 185 93
213 20 153
99 232 175
30 219 69
182 109 166
30 95 40
70 108 122
8 228 131
238 224 14
85 200 35
135 26 157
42 42 188
127 115 21
89 100 9
59 50 16
60 126 79
2 126 125
71 244 111
177 88 91
114 6 206
252 97 9
103 161 174
215 41 215
12 252 92
83 105 63
165 123 223
177 103 7
222 131 236
220 168 204
4 8 251
107 132 242
251 160 121
68 28 9
88 8 192
159 122 133
204 92 92
225 62 171
193 129 174
196 188 182
192 167 79
181 221 189
21 234 73
228 171 17
233 114 200
175 82 218
191 115 228
32 216 97
34 173 186
248 122 65
87 58 173
7 10 23
154 17 229
220 7 66
220 9 182
94 63 36
230 221 61
11 9 165
221 200 186
204 53 231
112 138 36
87 69 134
134 85 218
14 27 243
213 117 112
162 66 167
68 234 136
172 7 47
176 33 246
30 152 113
21 61 98
200 204 174
66 146 155
13 234 240
162 140 56
18 80 197
113 193 164
192 35 31
54 53 124
88 112 151
178 215 197
93 73 184
191 22 70
236 164 76
185 11 42
186 25 127
101 79 205
177 238 147
136 95 103
103 44 165
218 163 228
145 53 157
190 167 175
23 83 44
126 152 92
63 164 196
195 247 34
16 132 144
248 136 111
238 59 4
39 119 12
226 235 132
210 73 130
120 17 237
81 57 14
106 138 6
74 165 231
9 247 206
101 139 217
246 238 33
87 188 246
79 156 40
107 102 150
159 118 37
32 142 11
210 183 171
30 236 22
139 27 152
94 194 229
226 236 105
134 30 98
183 199 195
234 253 231
198 247 212
161 54 216
27 48 10
103 62 26
146 70 88
212 90 210
154 31 110
84 32 22
97 10 14
110 127 22
160 78 133
246 142 175
77 254 112
211 196 140
117 160 44
94 162 242
90 211 245
205 21 242
143 100 58
0 207 222
192 5 126
107 214 19
104 238 27
24 27 111
188 24 26
121 2 166
54 52 119
101 105 82
212 113 93
26 76 118
126 179 217
96 62 240
195 83 112
210 232 110
219 91 127
1 103 145
238 167 144
61 227 14
127 179 63
187 229 196
144 41 142
42 48 21
183 119 169
64 44 114
144 16 168
215 239 66
141 119 228
52 227 150
167 92 180
151 248 2
184 213 82
82 107 37
191 212 247
247 57 105
143 7 131
79 170 138
194 219 175
96 232 92
152 46 28
220 121 204
60 183 26
162 49 51
114 169 21
147 190 81
246 222 135
240 66 194
64 119 2
205 231 35
17 247 198
209 112 36
179 196 213
150 128 100
32 17 117
225 83 12
1 197 59
182 114 51
229 67 122
13 139 33
192 188 137
35 62 56
40 202 60
146 166 25
151 56 105
52 187 29
175 185 102
123 52 11
35 115 153
240 30 24
145 222 59
204 149 61
130 248 152
234 223 240
164 128 190
32 165 232
126 202 118
95 77 125
224 247 225
126 156 171
166 78 152
23 73 22
135 231 72
143 110 165
222 59 88
81 138 129
198 0 108
129 132 1
196 57 149
33 231 65
192 27 191
70 124 219
85 130 198
11 249 93
39 158 112
243 96 82
193 165 15
79 165 125
76 104 18
3 253 170
101 80 239
169 75 121
232 194 59
155 208 209
56 39 149
251 187 63
235 17 96
185 24 46
193 25 84
35 172 142
149 63 252
225 35 132
95 202 224
103 200 147
181 171 211
148 224 107
221 229 66
92 148 80
203 248 203
216 55 1
66 119 171
140 70 208
106 157 69
250 185 105
68 60 25
75 211 177
132 154 231
83 187 73
67 220 107
17 190 224
35 24 51
189 230 195
75 155 105
171 122 178
156 232 100
15 180 40
241 239 205
62 223 155
70 47 4
58 10 218
143 252 89
65 19 192
63 154 140
229 86 169
49 252 9
16 214 167
83 125 30
35 223 142
63 113 225
171 33 164
16 64 162
26 176 26
171 201 129
201 251 245
254 84 78
73 79 133
58 196 86
201 249 131
50 197 240
174 37 30
155 63 184
43 210 74
147 3 121
2 205 17
128 55 63
174 234 106
149 123 162
76 177 81
220 173 15
163 87 80
184 42 165
142 19 142
237 194 1
34 43 118
27 48 117
56 140 126
84 153 86
34 152 68
109 26 207
34 149 109
198 245 217
183 40 122
5 222 181
221 138 96
167 28 175
237 42 171
237 205 14
239 93 49
24 217 38
239 146 69
183 105 136
101 89 244
189 210 68
148 223 153
213 233 6
199 169 146
97 232 253
235 203 237
79 227 144
92 139 225
152 96 189
227 218 135
30 79 54
72 92 170
151 24 31
49 147 52
121 238 210
235 236 105
246 119 159
246 229 191
225 194 134
30 192 44
236 233 159
125 21 111
47 164 249
158 50 233
80 0 99
80 39 81
125 156 174
210 25 47
113 28 130
170 55 144
176 150 100
187 109 245
17 66 111
5 153 151
242 15 240
45 2 143
0 221 134
160 67 172
89 82 126
46 89 243
57 42 80
120 91 84
38 244 151
30 164 212
124 144 86
219 93 34
64 133 239
246 116 83
58 19 210
171 204 211
229 188 80
69 181 49
221 169 127
123 70 68
42 34 28
188 232 210
51 169 95
15 124 41
197 87 78
122 73 136
17 18 188
107 112 157
203 29 108
91 196 205
241 90 49
123 229 239
198 56 194
241 116 15
162 33 14
17 107 58
89 187 114
145 6 35
199 82 81
34 252 167
82 114 33
106 188 119
62 164 35
22 144 14
104 234 208
52 243 172
179 12 110
156 142 28
254 210 177
233 217 166
120 118 24
182 143 96
36 44 248
122 68 185
211 115 246
139 104 88
51 23 125
18 75 134
114 164 246
165 66 203
203 150 187
206 156 171
173 14 20
185 96 49
132 179 250
251 178 94
194 168 27
2 208 205
5 214 37
187 83 19
191 68 97
97 24 221
248 164 30
42 139 62
52 48 82
216 38 104
126 213 169
99 143 228
108 167 7
240 29 28
10 206 37
4 170 123
209 244 217
56 184 76
222 222 164
128 174 194
40 88 148
231 220 107
6 249 192
106 141 186
71 160 170
85 32 31
136 91 34
8 2 69
137 115 181
68 215 208
49 78 139
212 0 141
15 72 12
62 116 69
171 159 131
199 210 230
19 14 178
125 54 49
69 105 206
0 138 28
231 240 4
156 13 197
36 196 102
164 63 244
96 76 197
141 164 183
183 132 148
173 180 98
48 44 141
11 252 182
48 149 100
217 101 147
154 123 51
142 126 206
211 35 19
119 21 247
116 55 161
119 112 189
108 139 35
218 215 81
187 67 71
230 205 163
167 92 91
40 56 113
103 186 17
20 76 32
42 213 46
178 108 72
36 227 13
130 153 193
54 40 229
49 73 198
27 12 175
99 38 224
142 119 162
126 209 213
3 7 101
32 1 57
9 200 225
38 156 209
16 138 77
64 139 114
2 115 181
245 122 217
137 33 229
45 40 214
132 57 224
207 250 87
145 127 124
11 145 242
118 10 119
128 213 13
111 92 144
173 123 102
147 180 68
71 197 163
226 159 174
86 193 1
246 124 248
94 220 101
76 27 201
61 181 22
157 71 138
168 232 184
62 9 158
46 202 21
6 241 177
94 229 133
184 135 181
24 193 206
87 243 97
81 25 5
34 222 134
235 7 243
82 221 69
41 81 66
70 177 82
177 103 56
213 228 139
176 106 178
108 114 45
150 83 46
59 124 11
21 5 57
197 64 233
233 201 185
246 178 20
39 171 127
203 121 188
216 50 177
152 92 237
141 178 110
88 175 217
66 177 20
35 179 216
242 158 46
248 209 236
132 67 99
231 126 25
15 112 6
91 33 155
39 172 136
78 100 218
53 117 122
73 94 252
165 136 85
180 253 246
41 165 1
153 185 174
211 126 142
85 213 231
121 162 42
6 236 253
162 122 129
223 77 252
152 197 24
207 22 195
51 88 32
40 181 141
224 253 40
159 45 232
247 238 156
172 128 201
109 81 25
8 64 191
102 104 137
192 93 95
195 54 42
166 54 141
114 206 241
165 41 19
70 185 94
183 203 16
199 59 91
108 249 11
251 143 245
30 33 199
9 153 213
205 67 97
19 133 78
59 107 74
137 99 216
234 189 65
47 120 35
19 49 136
189 189 37
32 45 161
238 72 243
22 165 29
98 121 254
80 32 104
49 229 254
143 6 52
17 60 82
97 184 125
9 240 158
15 16 145
70 108 167
68 57 161
111 13 240
85 106 197
7 158 9
68 66 12
152 95 24
15 164 158
52 153 163
6 155 161
245 92 251
107 164 207
56 186 214
88 220 79
228 80 226
90 155 7
18 62 247
77 209 210
249 84 68
251 100 188
248 203 114
202 13 0
98 148 23
148 222 15
148 53 165
109 217 76
249 33 174
3 52 240
135 85 8
251 26 173
82 29 60
151 7 251
191 254 130
208 189 151
113 148 14
72 6 48
85 89 21
220 95 167
0 209 193
24 234 229
236 40 155
67 177 195
22 226 88
50 200 212
214 222 93
161 193 63
131 61 1
26 67 214
236 111 178
138 205 79
162 49 247
222 142 222
231 194 105
68 165 212
158 134 211
57 210 65
44 196 192
81 79 217
190 0 164
18 199 201
191 229 147
213 249 50
32 53 178
60 46 61
116 153 145
221 231 43
103 84 78
117 131 184
116 26 166
29 215 58
92 85 109
249 130 155
180 252 230
30 41 9
114 187 27
165 81 232
12 108 148
140 44 101
181 86 106
143 125 197
221 7 52
2 111 91
29 33 239
10 159 6
165 184 45
130 238 16
51 73 251
103 56 116
78 151 101
159 109 162
41 231 143
11 55 187
165 144 113
215 244 153
169 109 71
14 180 41
204 103 177
180 57 189
146 228 66
137 195 33
127 110 117
69 201 78
239 130 49
83 243 7
20 223 10
231 115 126
71 152 20
173 231 115
133 191 202
143 152 166
166 246 228
197 142 111
111 75 11
104 248 143
123 70 31
132 103 157
205 53 4
145 41 212
22 226 233
120 104 120
101 82 137
84 40 172
135 82 229
112 222 21
165 233 67
132 108 163
141 203 196
16 111 165
242 200 163
116 52 160
89 244 193
225 136 127
149 90 214
42 22 33
96 197 167
180 233 4
86 78 110
194 132 35
242 60 220
229 151 173
241 41 239
51 202 31
230 210 62
60 88 6
109 181 42
198 48 250
244 217 61
7 28 229
3 179 88
142 214 251
159 167 121
53 97 179
159 73 9
188 247 114
72 203 222
247 123 124
52 122 74
112 1 197
78 173 245
189 83 46
85 81 140
16 97 28
197 199 101
16 250 189
90 82 75
180 223 38
183 95 111
164 181 4
12 120 225
167 215 237
118 251 78
30 82 39
134 106 28
23 69 29
232 110 68
99 228 77
232 244 229
120 95 158
230 167 196
125 214 241
233 39 187
174 190 144
11 68 10
222 69 32
236 135 37
247 213 98
130 117 248
138 49 233
70 193 113
192 157 41
80 194 172
0 252 82
166 199 242
205 205 235
133 176 11
94 165 25
244 191 240
227 144 130
230 228 169
155 75 10
7 68 150
97 106 68
124 196 136
90 107 67
124 186 8
109 85 35
132 36 202
33 226 31
54 106 250
49 212 238
81 16 119
136 21 41
170 240 93
57 108 209
248 53 0
166 89 77
131 77 127
126 67 95
237 133 243
198 132 41
212 175 193
180 108 169
92 13 64
58 42 53
221 42 197
72 10 63
107 156 211
197 247 36
17 4 141
71 213 15
189 62 252
135 193 174
96 200 32
15 187 4
77 148 236
211 28 55
141 198 146
122 133 233
116 161 40
210 160 231
237 171 7
113 226 85
214 7 89
254 56 72
116 107 24
134 172 180
238 205 195
54 9 92
94 140 31
153 194 62
231 67 84
126 224 219
96 41 237
27 219 215
32 228 7
62 189 13
181 38 83
110 167 184
235 8 166
116 69 66
220 112 11
131 158 217
244 167 20
73 212 29
116 211 120
164 209 253
216 0 35
116 0 14
250 173 188
26 42 90
217 230 184
195 20 42
110 131 139
21 223 175
192 147 48
103 6 93
119 225 99
8 148 96
212 180 65
167 224 3
186 108 240
228 217 202
114 140 225
183 149 245
233 9 72
87 161 249
46 117 96
212 191 166
172 160 81
2 66 239
161 133 44
205 69 174
139 201 245
83 161 38
37 179 28
182 230 150
224 230 127
106 54 117
177 44 149
219 25 165
138 129 45
185 215 147
54 202 90
184 214 249
213 238 240
71 165 79
122 210 8
0 167 204
232 149 97
65 247 177
246 101 105
139 147 12
25 199 67
83 150 195
48 83 171
44 83 192
120 154 200
98 53 135
251 190 171
187 218 95
134 176 87
26 243 113
202 59 82
105 20 119
213 203 126
130 213 103
204 196 73
25 120 238
139 54 242
123 117 163
143 85 242
223 202 50
2 202 45
219 231 232
114 246 113
229 38 1
10 160 127
8 147 248
20 117 49
57 170 77
2 185 210
198 116 182
134 45 175
99 118 85
65 173 75
170 134 90
107 154 1
201 50 88
21 34 12
72 209 174
225 21 207
35 93 43
72 36 226
34 221 58
201 226 76
145 48 251
117 164 122
241 121 74
207 147 80
172 52 141
154 43 251
71 162 179
203 75 173
135 93 57
175 4 171
22 120 225
216 232 100
246 97 122
179 124 104
173 10 102
66 62 63
183 129 235
128 247 158
197 103 181
150 175 140
39 133 80
187 96 30
132 188 179
17 126 246
49 172 45
78 209 82
41 246 78
30 32 53
173 59 16
61 120 84
86 163 191
163 75 141
195 253 243
170 246 98
152 12 42
116 174 107
163 227 238
250 98 161
18 80 198
103 110 252
13 253 148
97 29 185
18 107 55
26 242 159
9 14 185
192 30 186
95 113 70
91 7 11
211 0 135
164 107 81
253 115 164
160 225 125
67 219 132
85 214 184
205 208 109
51 168 230
185 159 4
55 212 126
57 232 253
81 216 201
116 10 170
117 226 111
204 108 232
131 213 208
54 196 232
183 87 83
124 83 154
227 115 215
163 249 35
219 43 81
114 153 113
131 56 218
98 187 244
110 249 14
143 102 216
201 56 17
176 213 163
223 83 112
153 49 183
219 57 46
155 224 84
179 37 25
63 126 175
2 16 128
21 61 11
161 187 250
200 94 19
132 93 235
236 205 117
228 200 25
191 174 4
2 18 124
5 6 169
65 202 219
232 231 16
182 121 148
76 47 54
227 210 14
190 214 96
173 154 217
197 136 79
48 12 93
84 154 187
232 52 134
170 13 91
172 112 130
221 82 106
221 180 171
113 133 175
7 157 97
174 58 80
101 214 9
79 64 88
248 41 200
243 53 55
121 216 154
242 15 145
117 238 167
137 131 41
223 111 230
8 223 110
115 189 78
152 148 222
152 109 69
93 13 206
185 204 41
230 67 5
174 190 152
162 76 16
123 229 247
140 99 118
67 168 55
151 199 42
176 189 251
120 117 34
129 0 3
188 201 158
120 204 148
229 221 194
179 181 232
199 141 108
111 178 204
193 124 27
57 244 192
227 33 112
190 111 215
149 5 205
43 172 85
33 91 218
106 130 228
251 228 36
65 200 253
252 93 175
126 57 109
181 42 190
227 227 28
244 35 115
184 55 68
212 51 12
1 69 228
8 17 122
204 131 154
45 138 136
124 125 57
153 148 127
89 45 196
240 79 148
92 206 23
166 173 105
51 206 230
33 122 235
136 91 65
33 4 123
147 251 85
202 112 147
66 184 60
130 231 204
215 101 223
179 33 61
34 212 58
220 80 61
221 61 65
92 40 111
201 230 153
242 183 203
41 54 235
153 68 8
148 191 126
49 111 0
91 143 132
21 112 219
105 62 192
253 212 208
43 145 161
121 34 123
147 71 174
66 110 49
232 121 182
37 207 119
172 231 204
166 216 186
192 41 62
156 222 164
129 156 54
96 159 143
54 25 130
152 15 45
9 96 165
7 222 111
153 106 161
112 0 0
72 107 220
211 64 34
114 154 169
61 250 104
63 90 228
66 189 46
155 32 223
220 120 212
191 33 238
239 59 246
134 12 160
222 55 159
69 112 188
189 82 190
237 106 222
94 64 226
38 140 233
249 248 49
227 122 50
210 38 35
200 39 115
48 208 100
9 131 6
250 130 223
165 195 201
218 191 243
219 89 188
74 214 75
192 59 238
131 50 176
219 211 127
133 92 70
239 220 79
43 32 136
141 72 114
2 137 226
137 199 83
248 169 146
252 89 6
44 35 112
223 250 111
129 118 231
96 26 180
188 72 245
149 181 168
175 41 197
112 221 70
219 66 9
182 163 193
158 124 10
17 54 253
135 3 228
44 122 156
108 253 142
120 120 202
114 165 196
96 235 2
92 227 132
204 68 211
211 73 71
60 46 202
187 245 60
253 232 0
186 54 243
76 109 41
248 10 2
88 169 210
102 136 163
181 233 22
89 147 135
253 182 63
70 229 220
81 150 139
42 181 251
83 216 194
141 229 115
1 123 154
116 92 188
145 44 241
9 201 108
44 59 142
128 228 85
252 107 194
39 27 124
117 101 33
55 172 50
254 24 191
77 71 46
129 136 236
34 50 51
149 146 121
126 108 239
241 48 49
41 28 144
222 229 77
113 205 161
117 180 136
73 61 52
65 86 229
247 48 229
245 140 41
217 122 116
207 129 13
128 161 79
86 14 207
34 45 237
14 28 174
130 218 31
81 69 235
221 212 77
180 13 30
14 59 189
81 211 175
103 66 196
247 10 141
232 40 30
104 0 25
159 13 30
145 229 186
232 175 170
187 94 151
222 242 5
7 52 69
231 76 6
1 78 93
120 0 131
229 252 56
155 170 25
105 27 140
155 153 89
121 152 172
150 185 215
29 144 198
34 65 16
167 247 27
66 0 47
20 208 78
21 185 141
131 234 64
163 240 116
244 40 59
114 93 243
192 42 44
40 64 228
211 64 8
137 200 28
20 54 207
90 230 113
235 243 101
104 179 244
39 216 53
183 102 253
167 136 22
184 146 18
181 72 49
127 118 62
165 40 79
10 223 187
123 80 51
192 153 219
8 96 217
226 166 64
247 237 137
121 102 156
166 108 241
18 46 232
193 74 50
8 108 26
20 36 154
163 217 188
233 2 37
75 122 226
252 205 105
238 164 131
162 161 34
167 67 248
198 171 251
150 207 178
41 202 223
89 152 147
137 128 40
139 25 46
60 92 76
63 59 29
63 242 127
201 163 8
250 39 27
138 251 194
70 240 75
243 219 51
140 121 84
124 38 30
21 23 24
133 142 74
116 12 67
170 247 200
173 167 237
187 107 93
91 30 67
97 21 97
68 30 207
99 175 114
188 81 236
39 201 77
160 116 28
191 62 159
198 135 166
241 246 201
33 16 247
47 211 245
85 210 119
154 3 21
241 248 199
179 154 147
209 79 195
27 63 52
99 95 111
34 216 168
242 88 69
33 243 48
234 114 215
253 249 187
9 132 215
124 165 198
57 38 116
97 158 109
109 87 134
5 180 104
242 223 195
226 8 35
54 141 98
115 239 9
244 170 137
91 3 58
58 252 12
186 184 138
57 239 189
137 162 68
34 223 135
1 206 216
60 62 231
232 243 228
244 16 50
163 110 249
246 69 237
193 246 195
108 133 1
121 71 34
86 99 4
65 13 199
126 155 87
47 120 152
63 136 193
37 36 119
104 241 28
5 172 240
3 70 30
67 200 53
165 235 225
188 106 248
220 70 64
131 245 67
153 164 71
117 179 201
219 137 106
9 63 179
229 92 91
219 162 102
68 36 123
34 45 62
44 38 54
97 5 218
86 220 64
204 116 147
174 119 147
82 42 58
16 223 139
72 83 177
18 70 142
26 108 121
192 233 224
159 60 80
66 225 91
118 39 128
145 162 24
26 166 95
35 53 163
109 24 110
222 137 73
239 162 62
162 23 202
86 103 108
116 32 115
202 12 24
206 102 79
51 219 145
147 206 149
218 114 145
5 122 23
182 104 33
100 13 199
149 28 173
222 73 72
179 20 187
146 100 244
87 190 43
231 177 0
213 132 67
215 215 82
143 184 36
82 77 151
212 142 129
172 47 46
39 8 61
40 208 63
139 36 97
216 196 47
193 51 189
54 55 149
159 133 65
165 206 47
30 230 186
171 221 149
44 253 42
101 198 51
25 132 213
36 70 247
13 168 127
25 224 182
182 206 26
35 25 96
72 109 236
95 54 87
161 148 10
186 170 244
45 63 151
120 158 130
123 93 230
205 26 65
177 85 116
14 80 185
19 147 180
185 201 113
147 78 52
11 197 149
53 52 160
218 67 86
213 147 42
42 7 31
54 223 50
36 213 61
27 86 34
13 79 12
120 243 241
209 246 127
234 6 139
128 39 23
6 253 253
235 47 230
247 29 234
205 124 249
117 46 42
143 170 186
99 26 240
31 68 37
184 29 29
193 160 27
151 137 192
112 174 102
157 0 23
80 68 5
60 115 34
148 0 122
4 180 83
223 94 144
84 145 193
47 145 200
30 171 160
204 70 214
19 160 186
195 22 193
194 166 176
111 94 137
243 179 252
49 20 158
160 74 188
228 202 168
20 90 96
188 193 124
91 249 234
252 253 100
250 129 90
245 176 144
224 137 175
91 214 143
46 218 202
49 236 109
130 33 2
124 246 59
80 188 61
202 8 161
23 251 32
160 242 92
161 62 149
242 50 148
196 78 65
218 163 142
168 3 11
79 205 247
166 122 116
176 154 217
211 248 103
4 177 184
104 99 129
35 151 13
79 7 241
148 251 45
167 17 9
122 122 20
253 218 232
48 44 132
150 96 72
176 4 92
51 224 12
61 96 47
60 254 45
222 121 42
37 159 7
72 120 179
217 111 172
244 233 248
198 100 71
56 116 187
54 71 121
185 32 187
225 21 9
85 198 202
110 251 149
199 163 43
56 14 168
136 136 220
9 80 233
2 56 96
124 79 123
110 173 102
220 89 63
76 185 0
234 127 84
27 59 125
22 145 90
109 215 167
82 106 220
155 142 147
105 123 22
230 133 92
207 12 239
175 68 16
59 83 59
179 36 60
149 220 42
58 198 187
77 188 97
59 172 30
129 209 75
80 143 190
186 1 47
86 247 127
208 222 48
136 175 163
76 56 60
198 94 197
186 101 99
88 160 176
244 132 98
251 200 202
196 90 51
46 242 243
9 44 217
124 111 59
19 143 171
12 86 221
230 58 196
218 105 49
14 111 230
92 40 81
184 120 43
254 62 155
148 150 170
62 231 111
4 235 4
185 152 216
34 138 171
1 201 144
160 160 59
98 102 151
25 26 109
13 73 56
219 101 97
244 218 225
150 131 44
1 116 234
93 99 112
122 70 230
128 127 61
36 206 52
139 14 83
157 40 96
59 82 193
12 124 202
8 102 149
71 90 63
45 237 180
21 40 156
137 156 244
36 107 94
131 86 163
248 199 171
32 107 46
98 89 239
90 214 23
65 42 15
53 86 198
19 208 121
192 38 245
57 6 0
200 21 166
1 175 246
59 21 129
205 103 186
65 218 69
90 95 135
172 113 23
84 49 45
213 194 73
13 196 181
233 22 102
50 155 41
226 11 69
47 233 203
189 247 201
120 218 157
172 118 9
72 142 175
174 21 94
197 224 144
224 238 38
111 203 68
214 15 167
154 83 211
108 201 28
247 248 214
141 105 191
237 191 179
94 62 214
38 118 122
61 46 106
167 151 153
241 123 101
178 25 112
39 96 145
212 130 92
8 232 161
14 204 242
100 151 252
63 19 63
158 254 169
170 51 3
237 165 199
46 226 88
135 60 212
182 83 27
4 12 101
8 51 94
250 171 159
154 148 81
35 195 77
147 2 16
197 12 172
166 45 88
3 138 119
14 196 188
32 110 70
49 178 238
173 47 102
100 46 39
132 120 27
30 105 29
182 39 90
47 43 54
122 21 12
150 162 221
179 219 220
71 134 184
195 60 211
220 32 142
96 237 94
31 94 181
210 163 205
131 226 63
23 113 249
168 88 12
244 6 52
130 222 64
147 212 163
243 59 196
43 61 154
97 232 16
170 126 215
213 97 118
129 239 237
119 230 246
86 193 14
195 168 160
240 24 208
125 15 251
206 201 0
166 83 183
158 124 14
232 191 131
30 154 14
92 132 237
118 139 134
207 196 187
202 173 83
49 53 107
120 35 74
84 11 168
153 108 174
247 106 237
193 34 68
202 148 128
130 125 76
147 1 20
31 113 167
34 184 19
75 29 132
149 193 204
170 67 139
63 122 123
246 9 140
74 42 38
84 190 99
210 4 224
111 174 90
209 31 251
199 104 179
212 140 231
25 162 181
25 222 179
154 99 63
58 191 56
58 19 192
219 247 30
43 105 144
6 104 41
103 188 156
0 33 152
158 145 139
200 240 242
218 16 87
240 161 132
240 206 238
184 128 128
226 21 67
71 182 194
108 44 8
106 68 204
218 178 124
237 164 54
27 60 91
96 48 198
208 111 168
144 219 3
240 60 28
238 66 56
198 209 190
239 94 14
68 230 188
177 155 61
73 228 226
5 82 115
87 237 210
136 228 167
38 34 161
254 239 105
147 30 61
227 236 110
155 54 17
7 52 102
164 33 172
82 236 1
194 90 52
211 3 93
22 96 133
10 211 158
126 69 20
126 166 239
181 7 194
116 151 13
71 103 118
162 89 132
207 136 69
239 96 71
144 129 33
45 72 243
1 84 185
70 150 4
165 172 144
123 175 221
54 124 139
17 161 171
46 126 154
151 134 77
42 126 253
14 95 33
207 91 211
61 234 53
96 251 239
26 35 114
12 140 63
123 44 253
235 13 219
78 201 77
197 209 21
16 162 29
30 118 145
128 171 91
174 222 43
217 209 246
203 118 217
29 123 213
231 147 79
120 103 0
211 111 216
32 87 249
167 207 157
137 150 229
29 147 241
21 37 176
167 200 26
117 238 178
164 121 148
116 248 8
44 38 159
226 166 160
218 155 14
201 20 217
123 86 238
48 250 170
113 60 100
89 210 67
114 241 105
248 150 15
201 180 88
89 137 182
44 252 190
185 166 49
41 15 242
220 29 93
97 121 165
91 142 182
238 20 97
5 109 140
234 14 88
222 235 51
225 24 121
165 213 252
25 51 122
239 192 73
213 172 143
94 202 13
64 175 154
131 141 153
72 15 160
228 236 74
188 82 235
93 50 204
165 239 95
126 152 234
190 176 126
21 70 56
223 122 167
91 181 144
154 224 4
253 218 201
135 29 118
89 96 251
16 234 106
6 74 71
10 143 217
233 46 237
153 237 214
107 134 18
86 28 130
145 33 125
208 55 86
227 148 238
107 18 94
58 17 145
249 197 70
19 21 18
174 245 112
102 149 206
52 113 195
237 145 99
17 211 77
106 65 13
107 62 171
94 125 57
188 204 103
179 187 79
131 137 129
205 135 16
244 180 26
89 122 48
104 22 59
108 48 102
97 236 158
244 183 69
98 172 67
209 92 209
74 191 79
243 90 123
109 89 69
85 55 240
172 239 250
105 122 213
109 113 3
186 167 198
148 78 148
26 48 161
247 100 71
6 54 185
31 232 134
57 71 137
157 32 188
161 19 164
31 194 10
147 169 145
214 233 192
37 176 78
193 161 172
178 250 103
9 6 108
225 138 38
177 79 242
20 195 154
205 16 106
11 163 30
137 241 76
25 43 154
102 214 234
26 192 135
36 76 173
74 17 24
6 30 173
200 242 189
143 21 27
123 149 40
105 161 13
188 125 146
56 161 122
135 80 182
207 52 114
66 155 185
18 34 88
161 89 59
233 84 30
48 192 181
72 185 156
243 80 60
180 25 190
82 69 119
78 136 200
139 11 248
225 77 37
248 52 53
198 18 187
77 167 109
213 22 164
4 22 175
38 153 16
116 141 232
51 131 243
3 110 99
8 71 161
64 182 249
35 225 252
89 220 105
17 179 73
246 189 234
192 50 20
102 1 109
97 197 68
71 129 127
214 154 117
163 143 20
229 230 127
179 116 67
90 40 248
77 217 179
151 124 28
32 82 147
76 211 112
107 140 168
238 185 236
15 211 172
117 12 7
227 121 187
28 167 207
205 47 232
156 48 48
229 186 220
79 122 13
250 225 130
52 78 230
210 112 37
26 35 47
48 33 250
21 142 86
125 113 228
56 24 251
209 244 121
197 19 45
213 177 183
209 215 120
162 72 79
242 67 175
106 175 77
112 153 169
68 120 101
132 59 77
83 52 128
74 48 245
50 192 69
121 101 208
217 41 85
36 23 219
86 113 141
251 242 98
18 100 249
76 158 99
223 90 114
84 170 6
35 28 235
147 75 252
99 225 157
170 90 66
245 228 204
177 184 45
117 156 24
194 208 17
18 125 169
128 54 194
194 115 18
154 53 99
80 164 20
253 90 244
103 156 157
31 28 179
60 112 108
118 71 26
109 247 198
210 176 146
62 56 190
82 223 106
73 160 159
173 93 16
107 147 119
97 33 234
185 51 141
135 53 249
26 145 119
166 236 250
210 27 147
65 150 211
19 148 39
242 231 170
43 249 82
40 75 115
249 1 35
90 69 70
239 104 244
165 156 56
85 160 176
85 158 189
73 34 86
59 14 50
61 129 235
15 177 102
101 234 4
233 215 76
32 23 254
179 155 38
140 58 245
129 48 178
175 100 87
212 248 142
8 236 23
235 17 149
209 23 12
16 127 134
90 156 127
246 139 133
182 181 124
173 104 112
249 87 120
60 72 252
110 215 92
99 207 119
145 203 158
21 203 98
146 137 51
212 105 247
131 183 213
77 164 137
107 210 250
155 142 162
164 29 76
240 153 13
41 133 104
224 40 210
114 147 194
247 109 114
4 189 20
217 232 56
194 56 96
36 100 140
236 200 121
44 207 202
19 17 195
77 149 248
161 82 20
139 253 174
153 102 157
4 179 48
197 21 22
151 204 113
172 106 240
50 88 149
212 103 94
79 41 214
153 43 227
173 136 227
149 218 201
149 40 149
25 177 165
90 100 121
91 93 138
41 96 185
88 183 97
94 212 87
67 128 124
5 233 144
232 234 60
127 151 215
54 212 192
10 38 77
118 35 90
157 125 113
221 10 146
229 25 91
22 111 98
123 199 134
85 185 22
164 139 116
30 123 131
55 107 152
200 11 24
80 185 126
197 160 117
165 36 231
201 157 3
17 57 207
139 162 231
128 50 70
127 227 251
194 106 196
156 113 241
3 154 45
17 92 103
198 21 96
47 247 223
246 194 106
223 212 217
193 10 202
37 58 119
203 212 95
109 157 29
219 109 121
209 93 154
42 45 40
143 99 217
196 112 209
62 93 209
57 200 63
73 149 25
32 185 0
209 252 49
239 119 210
229 133 23
245 50 237
36 62 28
42 204 242
177 38 164
125 237 254
243 236 84
113 126 72
237 39 30
183 126 2
126 7 109
146 70 128
92 194 156
180 210 8
53 151 253
5 104 149
247 251 120
141 253 130
135 188 32
60 105 33
192 46 196
218 123 224
65 252 188
86 172 108
179 159 70
62 84 145
190 35 23
90 249 216
64 128 171
180 65 140
101 62 11
224 161 102
102 5 108
90 158 106
44 248 161
106 53 229
215 129 162
88 86 22
160 250 181
183 166 160
37 60 204
134 145 154
178 117 110
229 175 130
239 213 57
36 97 180
59 3 207
35 81 153
165 2 148
149 157 137
118 34 4
194 89 104
45 242 87
7 50 190
119 203 193
130 180 233
31 160 22
250 38 83
205 128 216
196 5 187
221 105 95
17 123 105
74 197 219
144 52 78
185 33 182
7 74 239
195 123 104
33 135 42
234 6 220
90 38 214
165 243 125
96 103 117
139 78 229
113 60 50
177 52 236
111 94 116
227 47 208
60 175 129
85 94 80
194 138 169
169 135 45
60 40 10
218 16 151
230 112 55
20 168 250
83 153 97
234 203 139
102 134 69
74 92 73
91 45 164
163 163 227
118 212 131
173 22 199
83 104 247
184 80 76
216 1 122
240 131 214
53 227 81
87 227 244
161 176 214
125 90 186
177 181 155
219 47 2
201 130 100
171 157 139
113 115 188
119 173 136
181 162 207
178 188 121
151 76 153
92 253 94
167 39 113
105 63 134
148 61 252
33 158 239
69 190 62
183 226 214
165 217 42
83 172 97
11 227 148
83 90 164
110 148 100
1 52 167
0 24 130
28 156 127
145 43 50
41 206 240
233 91 204
193 107 242
83 126 178
86 195 239
81 223 186
5 123 167
127 2 78
95 184 252
40 188 125
52 122 165
49 148 9
5 195 130
82 12 188
188 190 207
194 110 190
238 235 188
108 188 141
233 241 167
233 100 179
187 90 73
11 21 103
194 135 23
92 192 16
176 214 239
76 149 96
122 184 175
123 104 74
39 202 184
3 196 62
250 231 36
83 10 32
91 227 58
69 27 31
6 40 116
5 146 142
50 35 167
38 12 215
93 59 144
89 41 112
141 82 138
129 223 196
122 78 222
145 97 49
220 198 64
242 240 155
196 203 241
65 108 70
106 101 17
251 230 14
90 123 220
182 6 208
31 67 2
123 12 77
64 82 235
68 65 155
66 101 69
221 229 41
36 167 57
250 158 91
219 116 207
58 144 237
126 185 213
148 111 99
209 231 4
65 157 185
188 34 137
160 124 179
227 250 11
48 107 100
196 188 230
200 112 22
140 240 173
180 57 179
241 19 37
166 252 43
137 127 205
90 107 254
242 205 4
137 70 152
117 94 102
24 193 123
136 204 181
43 238 204
69 78 157
111 251 65
33 208 11
161 112 108
143 166 214
68 36 223
89 237 81
157 138 118
233 51 198
239 120 253
65 163 57
198 107 45
211 230 136
136 66 94
135 83 35
177 121 192
228 185 176
144 124 72
92 248 162
201 190 102
66 188 74
109 25 52
184 216 171
54 112 187
148 41 87
222 87 46
82 2 172
134 154 52
120 249 170
210 112 203
104 232 6
47 81 114
170 225 195
80 6 197
185 229 42
171 9 52
97 157 249
217 163 235
199 226 203
66 231 75
159 251 158
6 187 145
65 14 121
77 177 69
108 159 232
154 237 63
43 73 248
245 174 46
182 193 80
121 0 35
43 61 61
206 161 30
219 147 43
50 212 41
12 193 232
190 40 253
144 243 47
233 89 162
82 122 23
149 174 41
161 21 49
151 154 238
19 104 230
89 66 97
80 92 61
29 12 148
194 200 134
13 105 56
70 0 107
75 59 39
64 117 66
128 85 95
78 56 124
238 221 123
223 53 67
1 23 8
104 134 43
200 135 3
147 38 2
225 163 196
90 106 72
55 249 198
157 169 51
61 71 13
200 133 253
89 71 101
206 132 151
237 243 223
16 1 75
250 214 12
199 27 115
136 108 155
222 186 47
162 231 195
68 119 176
247 188 141
61 13 123
105 52 151
216 3 97
230 18 83
143 58 74
154 70 222
183 36 18
34 213 9
204 69 165
51 166 197
96 167 198
46 152 98
93 195 180
187 252 71
77 159 125
154 66 32
88 124 25
37 50 184
254 50 10
110 132 152
187 215 82
14 76 50
136 109 54
168 137 165
172 106 198
162 246 78
231 31 115
167 224 71
103 174 64
130 136 161
91 86 134
138 28 62
247 57 15
220 105 237
251 244 252
202 170 115
210 106 27
29 164 214
198 7 217
36 78 119
118 116 137
110 161 44
111 200 185
21 84 216
158 51 211
235 61 153
138 128 109
251 218 180
187 183 102
53 55 178
5 159 197
48 82 182
172 3 158
81 195 203
228 91 9
6 0 229
2 57 221
7 41 253
80 148 207
171 187 246
177 228 225
30 173 81
220 88 201
198 35 143
142 24 176
50 90 110
16 78 162
192 123 155
104 227 66
125 56 196
170 196 127
57 10 170
167 138 53
82 31 33
152 208 85
105 140 130
74 99 185
168 188 125
162 38 22
148 33 198
147 205 249
235 216 35
194 143 113
193 202 244
88 52 62
244 149 224
49 192 148
211 212 136
48 109 243
225 158 231
253 218 66
67 83 12
124 9 120
173 14 143
112 230 163
20 246 112
19 87 58
184 249 31
222 24 159
196 115 96
240 173 15
183 105 211
196 28 172
70 56 118
194 194 221
161 51 72
204 203 214
211 168 137
188 154 249
20 244 234
13 131 131
166 45 239
115 101 65
98 44 170
181 113 154
90 46 115
189 204 234
162 42 24
224 164 164
15 232 206
218 122 141
131 77 138
214 41 139
16 159 252
72 247 199
187 227 14
98 124 126
17 33 37
155 149 171
210 254 59
21 172 67
69 37 108
76 2 46
31 35 161
153 220 203
101 106 4
175 199 91
52 52 249
227 24 127
114 52 45
26 78 12
38 223 76
233 30 129
43 248 30
113 152 205
69 138 159
186 139 84
36 98 100
160 223 201
84 236 137
140 163 200
237 254 201
43 200 213
203 239 151
33 10 236
170 62 209
88 195 124
171 109 243
161 42 139
141 15 196
190 104 39
247 100 179
193 184 223
37 69 125
33 206 53
87 85 191
209 108 143
101 23 206
86 188 169
247 63 196
148 107 148
82 94 65
198 171 78
168 127 130
249 143 162
74 101 146
169 117 210
87 15 12
21 244 180
57 108 19
136 55 221
90 81 190
109 234 209
87 65 225
77 177 153
49 130 246
136 215 175
27 111 39
182 178 36
175 108 86
67 148 189
15 18 59
28 88 243
51 231 44
90 65 208
188 173 230
216 184 25
91 113 182
59 196 108
71 25 41
39 55 232
234 50 104
125 74 95
250 120 172
112 146 0
57 215 95
36 8 186
227 52 98
59 126 170
235 154 174
233 26 212
46 123 88
194 80 145
215 75 187
98 190 215
230 186 206
112 7 76
63 72 67
156 71 30
224 25 175
46 62 177
82 39 198
0 114 204
78 96 72
211 96 253
163 13 123
55 27 240
88 93 141
32 149 182
248 112 126
197 241 154
65 46 53
147 190 220
34 51 89
33 147 173
99 123 234
132 21 70
76 111 170
240 198 102
139 142 120
73 42 81
237 210 246
68 187 211
7 93 166
220 219 50
69 85 115
111 245 181
108 220 162
201 10 130
146 69 75
208 220 8
237 195 173
82 19 249
111 104 68
177 144 52
183 145 126
10 114 210
252 155 175
20 242 32
180 245 108
105 112 79
80 203 7
6 149 150
60 249 111
16 210 236
197 167 64
100 243 79
119 1 137
53 253 168
39 85 32
143 163 2
134 127 145
250 99 104
87 33 141
20 111 212
188 6 1
170 62 113
109 234 77
186 251 8
109 123 188
145 241 119
220 69 146
124 114 63
169 28 125
246 22 185
182 125 197
217 78 52
236 165 70
233 241 38
132 155 134
145 196 194
7 61 16
106 135 131
88 132 49
183 101 161
215 130 32
153 226 38
18 61 251
143 240 153
151 72 45
249 198 21
100 23 110
81 136 47
209 245 191
251 135 181
60 48 74
41 156 123
61 142 127
69 16 100
239 142 38
17 78 180
31 207 213
132 235 9
102 84 78
218 180 28
236 243 11
51 217 14
173 185 51
155 161 207
65 123 219
32 55 205
24 94 116
53 228 192
118 157 28
157 207 91
218 28 85
53 40 192
227 177 234
45 85 55
213 226 155
208 97 103
25 181 140
141 160 217
115 202 58
45 243 211
26 69 103
123 105 32
193 114 60
61 128 244
233 50 206
8 31 4
64 70 79
94 130 96
111 117 119
224 149 56
7 68 106
12 38 121
6 63 87
101 42 121
45 114 106
191 144 207
190 218 205
93 15 198
164 116 34
230 120 8
157 37 71
63 109 67
115 155 187
0 62 187
231 214 67
76 4 117
119 202 227
58 240 20
195 205 113
238 110 173
150 135 25
60 246 153
195 165 67
171 207 181
30 27 36
231 44 108
24 208 174
145 234 48
166 152 12
55 61 245
252 237 128
235 4 171
46 171 133
146 27 182
56 23 118
45 4 227
224 2 187
49 57 190
34 234 127
214 58 173
45 182 106
114 251 134
12 4 216
210 188 137
22 141 37
189 149 32
155 163 114
126 58 216
236 111 206
192 159 3
211 60 61
95 73 167
227 105 23
188 183 238
101 178 97
69 243 168
33 164 121
168 131 23
16 111 114
199 169 39
62 20 148
83 187 37
155 157 163
238 188 44
93 227 242
214 63 55
186 184 146
239 25 148
74 199 238
128 74 236
92 187 168
70 234 199
202 189 94
137 61 177
197 19 49
28 76 227
134 128 192
182 181 62
111 47 20
204 60 251
194 11 136
189 63 151
121 81 225
102 250 196
198 18 180
144 240 131
73 234 161
2 5 75
171 201 99
98 190 169
17 52 4
79 66 17
118 74 150
141 75 95
212 203 231
180 60 169
42 138 185
163 15 97
53 133 232
87 80 62
189 36 59
97 135 237
18 61 213
232 204 250
166 233 191
63 222 129
66 201 194
166 94 230
96 8 183
88 54 42
131 243 25
70 188 159
153 29 114
238 250 59
217 254 102
80 132 229
252 164 227
61 112 206
238 178 59
34 37 25
49 13 66
91 107 221
202 236 94
23 84 117
147 81 176
98 80 219
225 165 166
14 112 181
64 129 19
41 92 33
72 129 201
205 194 111
99 253 206
172 73 154
27 69 102
254 248 209
128 221 135
141 214 241
235 199 17
190 107 143
15 186 163
50 197 189
174 207 69
124 230 167
165 233 32
117 74 218
12 92 101
168 155 78
153 73 13
237 152 11
8 209 183
231 233 172
60 178 166
61 104 242
99 8 144
204 46 66
172 64 120
247 65 149
180 187 16
207 190 132
92 110 239
250 75 102
6 215 154
6 62 33
56 192 202
221 124 140
134 13 141
206 2 123
44 127 98
80 112 5
161 205 184
118 156 189
85 54 145
124 162 21
249 132 51
6 214 156
46 248 91
87 0 232
157 164 142
69 37 166
130 172 137
238 94 179
251 241 242
28 222 201
232 194 87
24 109 43
116 154 65
228 86 201
45 54 118
147 41 202
112 130 165
80 252 113
208 58 113
15 87 162
115 82 85
242 196 45
13 88 196
148 33 165
19 177 209
33 106 76
15 120 47
71 73 187
56 67 230
36 81 53
72 23 133
12 164 17
163 59 78
125 31 41
144 22 160
252 189 217
141 55 38
58 61 125
115 126 170
179 205 12
102 163 32
9 3 83
105 138 77
92 0 203
11 92 38
150 132 65
213 83 37
159 167 127
236 210 189
109 119 249
4 20 111
194 205 205
139 99 6
207 139 81
6 57 198
21 74 135
55 181 145
68 172 184
165 58 130
150 85 33
246 48 94
224 29 154
82 1 244
97 180 86
30 123 87
1 67 158
60 209 161
53 252 39
209 149 0
100 54 64
122 116 51
82 4 26
149 90 68
125 198 209
2 154 55
98 126 32
167 41 12
93 166 193
184 188 119
173 111 120
181 231 131
135 236 65
239 109 116
211 206 100
61 33 205
22 253 176
155 216 203
198 33 155
153 125 121
135 51 94
253 117 162
73 90 63
23 68 243
11 196 124
48 28 73
155 206 206
141 53 225
177 190 239
180 125 194
49 135 205
81 103 138
97 17 70
250 68 90
131 50 39
140 110 58
77 16 117
12 71 245
227 152 117
64 1 83
249 93 200
189 28 79
109 72 65
139 226 245
129 17 139
162 250 62
103 209 100
234 66 226
137 184 209
27 177 71
182 224 13
153 83 15
192 96 122
188 35 140
200 242 40
202 207 18
67 70 73
116 19 99
0 4 164
77 59 215
183 125 54
18 178 155
133 125 79
105 247 67
147 135 197
41 171 76
37 159 64
129 153 173
78 60 11
243 169 159
254 84 30
62 7 112
111 251 55
161 31 134
184 11 169
224 200 230
196 138 68
190 182 65
3 160 80
105 165 13
173 141 31
164 191 30
147 90 74
70 227 41
74 134 111
23 250 112
104 141 110
52 202 55
239 205 84
3 22 20
119 249 75
106 195 118
186 97 172
129 205 123
45 209 48
106 182 62
162 132 219
18 106 38
58 38 183
95 252 160
222 150 137
60 158 253
54 135 112
0 5 106
7 13 211
242 245 105
8 169 66
94 129 253
188 245 248
249 223 37
20 86 49
132 76 41
75 3 230
172 8 41
50 113 137
101 193 114
127 110 70
90 252 177
90 109 44
233 78 245
59 63 212
150 86 33
143 105 244
167 104 203
235 63 51
66 235 224
131 205 123
24 53 33
121 168 9
20 70 125
232 179 163
197 154 232
91 100 11
248 198 16
239 224 72
85 228 95
201 204 198
21 86 56
124 38 227
95 89 180
217 97 218
29 117 194
105 102 17
250 217 41
110 210 91
123 16 182
11 29 192
239 225 236
195 85 41
226 235 104
55 169 251
247 151 115
18 177 229
62 12 69
120 32 156
249 167 190
122 96 205
40 243 2
203 12 187
43 171 40
197 71 51
223 132 216
249 201 93
7 218 176
167 89 75
83 135 134
247 225 1
132 56 251
9 172 31
191 121 38
215 150 167
117 2 217
16 80 191
8 64 40
54 22 127
253 23 146
104 105 147
174 97 7
57 108 44
18 157 232
250 234 102
38 206 96
124 170 254
221 137 106
39 239 9
88 243 175
8 253 125
11 228 135
31 4 164
156 138 70
42 123 4
79 243 33
122 103 32
253 116 179
92 127 130
170 137 244
43 160 43
9 8 71
250 220 126
197 177 135
215 208 77
0 156 221
128 39 109
225 14 143
88 59 162
44 199 27
18 127 14
51 114 125
205 234 10
54 11 208
252 251 75
173 50 18
141 84 241
170 240 152
10 177 89
142 169 41
110 120 159
156 75 130
181 120 24
58 230 49
146 216 131
27 157 76
169 97 105
165 14 113
206 71 254
200 227 125
34 254 116
233 85 136
81 88 47
106 53 235
13 123 39
199 42 89
143 145 166
51 1 248
3 150 215
31 246 205
175 139 34
144 217 144
247 143 214
55 124 24
119 171 156
215 30 187
57 2 225
213 65 223
234 168 97
10 222 197
165 206 50
113 34 144
35 125 241
21 85 210
32 153 178
151 214 30
20 133 90
178 92 227
182 211 4
66 28 14
188 84 221
109 168 25
128 6 217
54 208 142
10 148 1
93 193 67
36 185 227
170 30 220
73 124 228
15 107 137
141 57 204
214 26 94
147 35 253
205 9 180
199 135 115
150 105 162
2 181 141
42 178 229
247 197 119
84 208 37
130 116 113
117 237 79
117 234 55
98 192 23
67 102 43
29 218 45
7 126 212
233 195 129
227 163 189
8 57 146
162 190 242
173 102 131
131 50 51
239 154 222
81 102 27
175 117 130
70 216 110
89 32 78
153 105 164
5 172 18
102 211 37
26 37 20
242 116 119
105 54 95
11 83 158
18 43 100
69 125 132
85 19 241
205 199 4
154 224 96
99 36 88
38 201 131
202 56 254
175 178 209
135 191 151
48 119 72
142 206 218
104 165 141
80 214 203
43 32 229
202 63 101
84 237 144
162 226 213
100 214 239
39 59 213
166 149 152
20 6 103
174 157 50
254 161 102
109 138 68
44 46 218
222 153 141
138 9 233
47 252 15
170 67 198
107 112 196
155 227 139
33 89 179
151 91 43
231 117 111
1 81 138
105 199 177
76 139 20
252 121 243
187 233 15
141 137 155
76 218 8
30 93 64
141 5 117
123 133 103
5 232 40
135 194 38
145 219 44
99 117 75
81 82 81
85 124 134
107 121 3
60 120 134
104 95 47
188 9 61
175 220 0
185 125 140
127 128 250
55 77 119
157 199 23
126 193 104
206 182 236
36 81 211
84 144 116
79 241 232
201 221 15
185 50 152
130 251 15
172 10 81
38 2 254
60 145 192
210 238 199
252 16 51
152 31 64
100 42 50
7 11 80
49 204 160
81 13 189
226 102 242
7 108 20
19 15 226
44 244 17
102 138 14
220 172 92
174 42 92
22 1 169
154 91 27
214 236 241
243 56 70
153 172 130
125 211 138
74 108 119
140 201 129
31 238 224
16 197 167
194 9 170
7 149 0
76 24 92
40 15 126
127 30 228
203 77 46
10 159 174
124 39 10
18 38 243
251 169 77
163 196 253
172 61 99
11 153 168
53 211 148
7 48 166
83 40 208
253 219 190
90 190 44
148 7 64
111 87 226
202 73 100
208 18 64
134 12 206
185 28 149
246 166 155
100 65 69
100 212 237
152 92 153
129 7 184
175 111 172
254 165 93
94 157 47
125 238 164
198 170 166
114 109 66
7 243 69
106 71 66
130 60 168
51 14 128
12 53 67
253 94 2
29 123 215
10 212 127
152 152 175
233 26 30
138 117 145
153 212 190
160 11 153
74 135 245
191 203 176
77 151 17
61 94 242
70 119 132
73 27 206
72 55 94
65 54 199
152 214 251
231 96 139
47 108 63
97 187 6
245 92 234
147 13 51
243 37 224
242 14 172
155 219 124
160 91 64
242 154 242
155 237 39
244 184 191
227 4 23
1 16 148
235 23 180
160 93 7
8 114 114
204 173 137
57 98 132
58 43 179
133 18 216
163 142 166
73 245 248
199 64 164
95 194 45
4 138 56
143 190 65
167 146 9
19 183 151
140 204 87
140 248 38
198 58 57
240 35 213
43 188 252
164 106 201
32 102 131
57 7 80
169 204 174
228 47 54
56 217 238
186 20 99
233 169 38
32 173 240
154 104 222
82 88 66
248 248 77
78 16 248
6 90 182
119 188 111
208 131 101
23 100 225
85 160 79
81 11 160
97 8 68
128 179 111
212 202 219
106 115 18
195 150 238
154 59 102
9 169 34
124 217 156
168 170 2
42 24 244
144 131 156
131 216 17
112 225 177
36 130 239
58 81 94
242 65 54
238 142 78
2 252 55
117 231 95
207 8 91
86 126 24
68 8 3
23 1 0
7 237 230
192 175 211
31 195 0
63 129 111
187 203 216
93 219 221
173 11 224
215 1 190
234 199 148
179 124 190
170 113 82
211 225 205
163 112 5
125 200 242
8 59 11
71 130 100
168 122 212
24 66 102
93 44 78
135 216 145
184 151 222
119 76 234
21 70 153
70 252 54
104 163 135
183 241 135
72 215 237
246 121 82
171 172 38
28 77 7
41 119 211
106 222 106
15 1 182
166 177 19
249 189 14
227 115 46
53 215 232
32 17 196
108 107 41
37 134 48
36 179 209
160 62 132
99 67 201
169 177 84
228 145 93
9 127 132
241 73 113
8 19 73
13 22 173
120 154 83
155 47 31
69 84 170
189 55 21
33 64 59
160 151 121
7 128 174
21 29 221
26 19 108
236 132 236
228 247 242
178 58 247
2 161 53
228 24 107
89 21 72
202 78 215
25 143 185
47 106 58
10 196 149
222 90 16
168 210 236
53 184 250
99 161 56
160 191 235
79 178 68
118 157 81
66 92 234
23 243 168
29 239 233
234 148 105
176 8 171
116 173 5
138 77 90
145 129 41
100 6 27
212 212 62
174 87 184
101 127 88
132 162 75
73 31 196
208 32 77
214 172 26
234 187 142
218 175 54
180 86 107
3 169 230
109 232 40
237 24 226
45 234 61
195 27 111
81 253 237
64 20 241
235 35 46
96 77 38
122 242 76
221 92 231
141 208 116
101 93 187
10 118 176
189 245 40
216 32 107
245 238 92
108 193 205
253 67 47
54 136 207
156 101 129
132 110 189
81 209 151
197 125 125
115 169 18
9 97 245
40 157 61
60 92 66
162 218 177
185 22 151
172 207 124
194 159 244
1 19 246
115 212 124
2 164 229
26 253 212
113 133 238
89 155 34
122 5 230
193 87 102
58 169 19
152 210 73
37 2 65
204 40 76
232 191 44
244 137 234
235 60 208
62 235 214
11 81 68
168 82 82
156 224 242
131 15 79
206 4 147
71 4 14
29 81 19
114 243 41
81 102 151
165 236 125
42 18 186
93 31 164
159 1 65
133 201 36
71 157 26
32 2 159
81 220 98
123 5 155
227 190 96
60 148 251
164 194 202
200 140 191
191 244 249
103 155 117
1 235 58
48 202 111
27 172 229
34 89 201
232 102 27
120 19 0
199 45 75
177 130 126
24 212 49
153 4 66
22 146 11
161 180 54
241 231 27
212 50 46
181 188 86
161 205 219
245 168 235
45 43 146
153 122 38
219 83 21
81 114 171
135 142 109
221 101 16
36 87 63
218 178 1
218 221 64
67 52 74
19 142 114
252 208 234
199 182 122
214 239 107
253 110 62
104 93 42
245 28 224
51 91 183
70 24 173
130 89 86
14 133 252
16 118 116
252 232 53
251 185 69
53 80 139
132 232 39
225 103 37
254 128 171
215 213 225
171 193 59
39 117 188
208 11 168
184 178 74
22 214 220
131 119 244
239 232 38
121 15 81
179 179 151
9 76 171
118 102 192
169 115 136
38 214 11
194 223 187
209 144 139
4 114 170
156 194 48
8 161 42
151 101 5
101 55 164
185 143 13
148 174 250
9 2 252
53 68 18
20 134 92
76 117 86
12 225 183
54 104 124
88 245 107
186 33 3
164 160 167
129 67 19
163 207 207
56 39 246
194 197 246
162 210 29
147 173 44
194 31 235
231 128 189
157 234 211
37 90 153
112 99 191
244 237 161
196 143 247
98 125 128
20 16 159
169 72 187
46 10 73
126 129 109
238 220 37
169 148 128
58 195 167
200 210 177
144 121 124
2 175 132
111 42 17
182 16 72
51 84 61
144 85 83
155 48 202
209 84 110
198 246 121
70 129 204
2 63 79
88 156 86
112 241 183
33 187 26
138 11 235
90 8 219
44 241 98
88 56 207
56 54 24
159 237 181
92 113 90
22 223 184
205 176 243
168 3 123
240 187 42
194 160 222
124 64 245
0 129 2
128 26 31
46 154 231
119 29 56
85 47 98
221 234 189
39 147 180
67 3 117
113 13 177
166 5 204
68 190 120
168 191 143
138 159 187
66 141 244
122 61 164
146 132 197
21 31 196
78 60 48
180 239 101
213 17 116
133 241 162
119 42 137
149 246 14
143 118 106
165 74 63
180 161 96
145 251 175
167 8 71
117 195 194
235 147 43
13 39 44
165 73 243
184 95 124
234 167 13
168 205 24
225 209 139
162 178 209
69 7 16
101 69 43
186 18 88
207 183 69
254 91 105
90 236 153
226 97 69
106 119 210
144 31 167
140 211 147
110 193 77
187 150 67
51 62 152
60 137 190
43 77 222
4 125 172
126 24 211
38 130 128
114 167 55
204 12 188
68 111 54
18 161 195
251 252 32
32 162 142
183 91 182
46 206 49
107 75 169
83 120 159
195 167 229
144 41 3
4 164 182
203 242 39
52 230 135
223 62 215
227 11 123
114 144 98
250 253 123
116 83 188
21 150 77
49 128 39
55 122 8
249 168 204
83 25 220
193 2 177
102 3 42
103 86 37
117 220 51
154 64 154
193 157 247
71 136 2
174 59 144
63 21 104
187 174 72
52 85 197
184 39 145
207 135 12
171 106 162
253 234 75
11 100 163
14 238 100
131 146 167
81 202 48
171 12 182
189 6 250
187 182 125
236 94 128
81 152 65
139 218 160
186 232 241
172 135 126
79 18 236
240 98 159
223 1 207
247 131 93
7 32 19
175 39 160
18 109 162
92 69 166
229 15 94
223 82 1
99 177 111
232 27 190
154 146 45
58 138 49
174 130 134
13 65 154
140 213 17
129 217 221
195 173 140
10 182 48
202 37 14
62 43 118
6 49 208
200 115 184
232 178 234
185 135 221
144 58 15
148 231 188
153 214 51
102 158 70
69 236 61
142 70 141
98 188 203
145 74 151
88 41 251
107 15 31
206 226 176
34 140 86
195 176 69
180 105 105
111 106 51
191 82 231
42 223 121
46 45 187
13 132 230
18 214 187
19 103 100
160 50 60
237 138 249
134 138 24
33 37 211
19 205 101
243 17 62
199 214 54
13 162 102
203 10 74
147 249 23
85 149 80
12 195 27
148 0 120
213 88 251
92 39 81
130 44 210
154 236 44
103 176 118
76 103 94
20 252 206
239 90 70
245 221 26
203 129 203
240 213 88
125 123 163
201 167 103
122 223 76
128 199 25
111 22 206
226 221 59
170 168 91
197 167 87
233 24 182
147 122 11
130 137 69
8 100 27
142 179 199
84 159 170
169 97 55
60 90 240
34 151 39
196 112 96
250 213 201
43 190 199
224 50 244
36 33 108
222 5 114
65 159 43
196 127 51
54 64 221
175 110 183
167 154 77
211 90 87
75 132 87
111 149 49
236 185 37
55 215 161
112 51 19
162 34 29
246 28 148
183 20 162
250 220 203
0 238 158
5 231 92
215 137 171
124 145 229
110 79 224
94 148 203
36 203 6
189 64 238
111 124 191
28 30 123
6 202 166
89 96 213
231 108 52
14 165 252
157 108 71
40 44 120
240 138 14
51 17 195
246 37 12
112 236 213
158 24 218
77 51 66
26 102 172
163 61 151
105 157 101
242 139 122
88 254 196
163 45 180
32 192 192
191 35 120
72 199 181
187 54 96
157 97 194
117 155 113
76 189 80
104 107 144
22 84 93
50 240 17
49 97 164
3 207 198
62 159 206
25 8 24
39 244 177
243 67 100
173 133 237
249 12 105
166 129 87
135 228 55
171 80 62
235 33 30
139 40 181
246 240 23
80 159 115
98 15 58
122 184 242
85 97 170
35 178 128
34 81 43
74 19 127
230 108 45
47 233 141
49 185 144
147 52 90
12 15 96
40 248 185
29 13 154
30 146 108
219 90 247
155 151 160
51 73 216
71 160 250
0 164 153
76 133 17
131 8 89
168 14 71
249 199 96
50 81 200
88 150 250
7 167 225
235 46 228
59 178 206
230 67 63
211 247 69
240 181 190
206 198 31
234 6 8
94 241 171
187 65 133
32 177 203
125 99 139
233 221 219
2 247 66
222 205 81
199 77 241
193 66 182
88 133 220
85 244 43
105 89 222
22 9 223
30 228 103
114 27 131
52 130 89
169 155 179
15 7 107
228 44 107
16 223 87
35 45 120
21 81 1
173 131 12
54 124 232
130 121 120
132 91 98
95 207 192
0 191 177
147 166 223
73 91 76
120 207 115
10 7 192
229 21 173
181 156 65
244 58 196
233 237 246
136 201 115
128 13 29
18 161 74
161 97 113
175 64 71
17 166 5
236 212 114
41 115 201
243 197 152
190 196 20
100 228 83
172 148 9
210 200 80
148 177 103
231 215 118
214 165 48
32 18 235
178 246 224
174 208 113
195 140 170
13 245 253
3 57 51
107 13 200
249 176 128
132 107 192
46 183 36
128 5 118
140 148 190
99 137 160
167 171 154
74 49 157
51 241 203
108 231 120
50 29 75
129 159 48
1 14 171
234 218 216
43 246 175
207 96 158
142 160 104
233 19 157
13 231 146
140 254 208
186 138 163
110 127 162
243 87 222
71 141 126
85 69 130
159 158 218
6 3 130
151 246 40
214 40 124
83 126 44
156 129 126
73 16 208
248 7 61
208 162 183
19 208 16
109 48 36
94 68 158
220 27 131
246 152 242
221 192 59
134 68 236
204 108 46
42 203 63
56 6 40
204 125 126
186 43 15
156 109 214
111 32 113
50 248 208
30 219 135
157 238 93
92 120 178
29 133 169
93 254 210
149 154 193
139 152 129
107 124 242
149 215 148
130 115 70
29 51 209
103 194 223
176 217 143
13 232 145
115 198 115
135 6 254
155 74 40
173 100 186
25 163 235
145 64 194
15 120 168
143 1 79
0 83 56
247 140 62
216 46 235
66 243 77
22 19 80
145 110 140
147 38 96
226 116 153
80 224 97
143 235 25
170 178 4
202 176 84
151 98 33
183 185 93
181 103 92
232 148 41
77 136 52
220 93 41
231 232 250
226 125 116
72 202 133
147 230 26
56 52 136
18 18 92
122 96 132
147 196 220
246 132 8
249 223 54
51 50 48
93 197 208
230 53 52
224 119 88
22 27 98
251 199 45
177 41 159
147 160 47
79 14 56
125 53 59
35 41 22
126 237 56
14 182 154
133 185 220
158 75 82
46 55 57
88 211 185
19 238 199
190 63 143
221 81 78
62 46 126
211 79 82
243 31 131
38 133 184
246 4 203
27 176 178
48 152 75
237 151 113
3 78 134
236 174 245
234 153 227
53 104 117
61 53 201
155 41 178
136 201 32
222 2 217
26 141 60
238 199 164
108 253 72
0 19 2
106 190 101
226 183 183
200 244 207
243 170 26
87 245 123
215 248 58
123 127 202
170 191 50
137 230 141
90 129 52
118 112 143
233 81 146
160 162 252
90 13 30
135 108 184
139 40 34
92 169 36
227 210 118
17 125 96
230 133 9
68 203 51
201 5 232
118 116 216
99 85 210
14 136 130
73 78 149
74 145 185
254 155 199
24 98 250
15 47 153
17 113 121
41 192 72
194 243 206
185 240 239
24 174 128
74 115 199
235 56 150
46 18 86
56 203 210
100 60 74
237 186 35
94 224 50
141 198 211
6 136 118
74 63 125
99 164 192
102 103 184
27 51 38
252 10 1
119 144 245
9 54 165
198 95 0
138 82 246
195 217 221
7 35 155
203 179 9
80 12 154
135 48 108
55 202 163
62 51 52
49 149 135
125 119 1
32 233 220
248 82 229
136 254 224
28 112 149
90 93 110
143 3 239
163 91 179
147 67 86
63 81 106
196 211 111
23 238 241
147 145 150
103 243 40
175 96 161
167 161 134
65 121 243
72 200 53
156 41 153
49 250 73
129 195 8
123 253 202
219 152 214
181 162 114
89 148 124
131 89 243
246 65 57
131 36 68
159 93 234
142 26 82
26 42 217
27 105 2
65 237 84
135 243 45
152 163 38
191 178 252
201 90 160
9 238 179
82 9 101
104 1 76
247 159 229
110 213 160
246 94 116
239 171 105
16 43 246
31 142 171
231 179 223
183 174 205
46 192 240
87 112 117
159 194 184
168 209 214
83 216 67
251 116 212
120 155 175
59 191 124
233 114 241
66 109 185
181 243 231
122 57 168
248 119 12
193 7 143
24 214 21
30 225 185
69 50 147
47 192 58
122 71 181
63 107 118
164 100 202
213 178 191
38 40 29
184 143 144
47 138 180
151 65 155
237 106 15
180 28 105
16 218 48
0 143 82
179 84 32
141 140 191
197 6 121
53 221 82
244 232 36
99 233 246
225 82 132
213 27 154
242 69 211
161 113 27
188 129 238
144 218 95
152 114 253
89 55 225
33 53 142
120 124 248
61 131 102
24 71 54
88 184 191
238 34 233
80 128 165
178 131 150
53 218 20
36 93 211
165 247 48
36 175 225
239 62 246
2 32 148
219 58 218
244 107 72
244 223 226
139 84 227
157 133 116
80 37 252
136 41 210
114 56 185
50 59 222
56 35 236
198 68 108
133 88 203
37 103 174
134 195 13
250 37 42
173 64 103
248 153 198
156 14 128
203 94 113
141 200 1
22 110 115
248 39 175
172 75 95
21 144 177
19 200 234
154 222 25
165 154 189
12 135 136
235 133 221
211 207 88
213 72 97
105 164 88
187 68 212
150 206 206
194 14 240
118 158 123
49 254 148
58 40 87
90 89 67
152 202 173
49 140 78
206 97 238
189 216 224
63 118 102
238 197 80
151 7 194
176 149 219
80 97 230
238 247 116
146 50 134
77 211 125
16 161 236
48 202 5
199 81 150
214 132 252
97 41 33
253 77 97
201 224 173
68 152 206
215 46 70
152 205 9
129 33 62
96 11 50
247 163 71
72 48 98
82 123 185
159 206 4
169 19 9
0 110 90
154 7 217
5 32 25
34 2 70
143 226 65
39 10 40
41 202 138
102 165 64
48 156 109
28 77 223
80 222 193
30 164 11
218 209 154
220 156 106
33 7 185
67 157 85
33 190 8
155 91 138
212 215 38
138 43 212
144 109 67
103 114 249
133 220 19
9 177 205
80 68 53
122 27 18
115 59 165
84 21 214
132 93 70
50 43 186
89 29 134
192 188 80
32 117 70
213 121 61
180 215 34
125 111 43
47 123 228
18 136 54
140 109 84
151 118 129
208 150 220
232 111 191
175 96 157
53 148 146
223 31 175
243 73 154
228 124 245
28 55 41
126 100 140
163 29 225
130 134 236
58 122 3
142 64 53
238 130 149
126 128 151
211 213 48
186 82 142
32 244 7
85 98 129
19 23 145
51 93 45
26 27 247
223 9 167
143 8 232
169 37 250
97 249 115
120 45 53
16 74 156
53 66 77
180 77 170
18 165 113
157 223 166
57 86 154
236 137 108
8 205 51
37 223 79
226 12 20
33 55 115
89 207 194
71 207 168
100 73 201
31 179 39
35 44 104
13 159 115
127 13 186
177 1 13
235 178 49
30 67 212
6 81 97
232 173 5
178 94 139
189 106 20
221 246 165
60 16 138
197 182 220
151 70 62
59 136 62
74 71 31
198 164 168
47 108 107
140 219 241
136 75 14
7 234 211
251 60 1
217 112 71
166 121 168
118 46 76
242 219 169
15 247 133
3 107 202
102 174 245
35 168 107
240 112 22
227 128 151
220 51 51
148 69 2
175 208 61
209 99 97
43 55 243
133 134 245
96 17 33
223 135 165
155 97 143
83 115 13
208 162 33
35 206 127
194 95 93
147 45 15
243 153 123
46 228 25
119 20 88
167 83 125
225 158 173
218 248 215
218 76 182
103 74 52
162 111 39
169 101 232
252 93 181
150 251 155
212 119 41
13 238 229
20 219 168
194 107 215
73 80 113
90 39 165
185 220 233
86 61 157
174 61 11
199 163 5
192 100 61
89 144 161
126 213 99
162 135 182
129 240 91
198 186 68
157 143 246
42 161 215
180 78 163
112 213 112
123 202 195
191 24 235
70 38 166
56 33 204
39 149 193
78 82 120
36 106 148
203 172 57
12 79 33
32 178 213
129 138 66
123 222 54
101 208 135
5 204 129
145 44 58
108 162 174
18 83 249
1 145 245
42 190 175
202 122 76
207 181 213
222 189 226
83 166 42
156 180 59
152 86 224
98 245 189
189 101 195
126 110 145
151 157 97
129 86 10
154 226 112
77 190 72
249 127 70
70 235 216
83 217 245
148 27 232
19 127 80
88 85 208
26 248 176
196 233 92
143 131 66
68 143 75
76 58 69
3 192 153
56 1 13
133 22 202
49 10 75
27 61 128
247 88 117
231 234 226
253 64 43
223 148 38
44 85 177
181 179 85
45 125 29
8 172 121
107 189 121
103 99 111
10 109 32
84 95 99
216 227 126
174 64 253
152 18 199
128 199 84
28 16 220
158 48 82
164 128 47
227 44 241
157 206 96
65 135 57
154 194 14
165 107 63
170 110 58
230 233 220
10 67 153
129 5 128
7 56 10
253 94 104
231 243 66
126 142 178
42 175 77
179 38 250
110 30 133
246 199 213
29 102 152
64 10 173
189 121 62
135 20 229
183 43 45
136 32 56
135 10 202
149 2 56
61 44 80
10 181 18
118 227 112
20 56 35
146 73 129
181 245 129
34 194 190
192 225 31
5 42 94
167 110 249
167 163 245
115 129 214
223 235 92
107 245 76
206 208 26
63 179 178
81 89 51
175 61 238
79 124 200
247 79 253
220 162 15
31 244 0
20 233 237
229 117 155
196 107 233
199 202 175
23 195 119
186 235 223
63 50 163
55 192 181
56 18 35
6 239 39
101 244 63
64 15 22
159 115 118
66 183 23
148 107 84
143 149 192
23 24 20
186 110 59
76 109 25
125 21 210
228 14 116
232 220 232
180 198 160
75 170 20
142 100 43
248 119 17
89 125 160
50 208 107
38 200 75
31 26 240
196 232 106
245 83 103
109 7 22
116 158 76
132 152 227
229 4 19
113 150 247
117 25 154
77 219 165
115 33 59
132 172 141
219 229 217
183 110 19
81 171 209
37 114 169
125 85 232
90 169 150
195 167 161
181 82 37
86 39 35
183 39 197
9 138 117
154 133 218
114 148 148
180 67 163
145 69 223
162 207 174
93 31 142
38 238 79
239 56 92
79 147 251
62 110 237
31 50 53
153 251 217
93 46 179
98 110 206
134 87 174
139 68 134
39 193 177
63 226 155
171 32 161
84 221 78
55 217 111
65 194 12
90 128 252
19 110 252
186 36 158
232 130 37
33 45 47
124 14 102
17 19 103
10 8 200
82 25 120
224 99 136
55 36 189
52 36 73
238 148 165
95 196 146
200 186 17
146 29 49
3 47 32
167 151 53
206 169 81
213 176 168
42 159 231
127 110 183
43 109 130
222 173 33
179 67 210
122 163 40
55 167 219
212 246 189
44 240 41
3 88 172
1 106 52
212 15 15
59 194 140
172 60 196
183 97 43
96 19 169
170 20 170
248 232 9
35 80 216
193 44 179
104 60 175
117 54 166
203 150 245
1 104 76
242 101 137
231 108 63
162 33 189
176 9 149
252 112 86
234 23 220
80 238 133
150 167 44
42 201 159
48 114 17
0 163 63
144 207 83
190 47 188
76 184 13
68 63 240
37 100 48
33 49 115
190 55 194
244 4 203
39 241 199
140 5 187
156 1 203
24 20 108
237 66 171
186 234 55
140 32 51
71 84 121
91 214 252
12 57 201
7 30 92
12 158 159
101 36 54
88 82 215
242 68 48
181 210 38
66 157 233
232 155 154
33 226 48
33 217 20
232 253 212
101 184 29
200 143 171
234 133 45
16 229 7
26 30 63
108 35 189
22 20 175
83 160 116
101 55 217
88 99 52
9 159 42
193 56 48
64 199 225
176 40 166
125 190 66
83 44 177
155 185 167
158 221 68
189 190 205
43 238 82
147 112 11
172 58 46
82 16 28
157 126 242
57 236 188
220 153 224
106 115 191
74 57 240
91 76 250
5 171 252
50 113 65
103 195 213
166 235 70
122 145 129
94 28 145
106 41 118
252 201 16
24 129 181
24 69 28
57 132 225
211 79 89
183 12 215
27 11 196
156 83 212
17 66 190
143 39 222
41 117 79
6 83 23
153 246 115
169 144 210
43 2 220
248 252 246
152 243 152
77 173 145
26 85 17
27 130 68
179 185 8
150 248 130
16 250 3
60 96 3
49 81 101
37 37 7
155 86 144
96 236 52
62 213 35
11 10 193
176 196 183
162 117 108
99 157 71
229 251 103
87 6 122
225 202 163
76 56 149
84 160 57
104 232 152
38 215 86
123 92 116
49 113 240
133 221 124
46 28 139
8 15 180
62 235 164
153 227 53
0 175 190
120 138 1
168 160 240
6 234 228
6 156 188
107 51 46
35 56 121
214 52 237
254 57 138
8 176 176
228 8 134
21 59 205
87 208 72
127 220 224
210 205 204
29 47 108
171 75 202
13 61 99
187 185 180
136 156 214
140 22 54
51 38 210
190 215 21
149 45 35
65 254 233
62 53 138
226 4 79
28 54 244
168 81 147
185 98 43
125 229 55
114 127 227
238 89 151
212 47 177
208 188 43
90 98 69
54 33 71
4 199 197
28 237 96
212 190 129
239 142 133
66 32 20
247 17 164
254 99 133
2 42 193
192 218 208
191 116 185
192 96 3
240 77 132
125 250 69
213 232 246
1 101 128
45 105 238
240 63 251
24 172 224
169 162 105
196 165 217
224 159 106
196 218 94
32 78 39
134 31 6
137 197 185
31 57 56
137 195 0
105 238 123
20 145 254
169 50 17
254 96 36
185 198 159
169 213 139
170 247 2
3 14 194
223 78 136
134 13 171
235 126 131
216 43 136
204 153 32
221 157 103
209 219 80
158 175 209
206 196 33
252 225 51
195 57 250
189 78 9
108 46 114
241 160 158
149 218 193
17 101 240
249 204 130
170 30 226
74 248 120
226 9 73
141 24 14
83 129 230
237 228 13
16 241 32
135 138 127
222 19 159
236 180 107
129 29 181
83 165 212
137 179 224
18 115 96
190 106 59
19 141 186
64 150 248
31 23 52
74 127 110
85 161 59
53 104 189
30 164 144
29 204 50
23 156 188
23 172 85
104 225 1
219 218 72
165 175 60
165 87 109
3 229 19
154 105 69
32 153 212
40 110 38
62 228 234
220 223 81
180 49 45
121 209 93
74 43 76
161 163 224
83 234 72
164 75 174
41 249 241
21 103 112
119 189 205
214 172 198
37 70 176
74 238 248
192 2 214
30 143 96
193 160 63
28 227 16
237 42 185
43 114 144
78 179 171
8 52 131
14 229 9
27 76 58
251 27 60
31 35 88
104 159 26
1 104 190
189 17 227
248 115 246
232 85 86
170 124 202
186 40 117
42 94 251
41 195 180
96 102 236
38 148 195
184 191 225
204 241 16
21 4 46
191 190 212
138 31 20
209 241 194
71 251 231
75 22 218
201 12 11
150 8 43
146 130 41
220 232 32
189 109 11
31 254 155
166 99 193
159 176 134
139 189 166
238 84 200
29 103 211
10 162 214
111 208 150
121 17 47
251 202 138
55 232 117
69 155 24
123 235 31
198 233 76
51 208 80
12 37 199
77 14 77
241 228 136
136 105 113
54 135 200
103 164 165
166 190 254
101 192 180
222 58 32
190 8 190
147 84 14
129 80 250
72 131 9
52 155 28
84 168 129
75 63 197
191 197 65
163 78 50
18 92 213
226 10 188
60 16 3
101 63 211
117 86 245
114 184 107
86 35 168
206 253 114
146 232 111
118 184 193
248 81 191
241 237 92
212 13 7
233 241 161
100 231 121
52 48 241
155 100 70
14 185 10
95 12 188
137 46 106
19 171 232
164 196 42
172 193 88
80 170 163
252 217 171
87 36 99
178 238 10
46 226 159
221 242 247
184 248 146
216 43 88
104 44 162
220 110 117
252 237 26
143 168 129
147 34 24
62 36 219
232 164 139
131 237 242
22 194 46
198 36 176
21 148 240
117 212 10
89 147 208
241 111 190
120 161 9
188 237 152
168 176 115
205 241 226
227 87 244
218 53 233
16 92 213
216 178 152
90 145 61
53 81 71
77 232 37
195 165 210
114 5 26
217 57 45
140 163 192
111 133 3
170 109 96
99 240 185
18 17 102
123 31 236
231 211 33
223 88 18
142 31 147
89 19 33
243 45 185
200 23 161
47 158 129
153 205 179
192 80 98
124 61 21
54 178 207
127 207 153
202 122 149
64 20 112
165 248 116
125 13 187
205 90 206
182 188 2
74 32 238
184 238 28
57 240 238
221 28 184
174 179 77
46 198 59
136 169 212
242 160 17
75 72 32
9 183 248
245 247 247
92 251 147
118 87 202
99 233 174
175 241 9
234 67 37
222 246 218
231 24 200
239 32 240
31 28 34
171 54 220
22 46 2
60 7 42
55 241 5
252 72 68
32 31 35
34 152 207
63 202 144
92 213 109
37 171 84
36 155 103
226 49 55
249 143 214
57 47 105
198 179 47
47 228 61
161 226 247
7 62 66
230 16 129
152 186 94
220 96 111
242 148 24
198 250 153
102 199 216
161 190 114
145 61 79
117 198 59
212 97 50
4 149 151
211 92 55
12 207 155
159 9 167
214 19 9
198 128 201
221 21 14
175 50 129
24 246 40
62 3 72
19 32 46
173 21 206
178 120 41
192 52 210
207 60 65
180 116 66
214 229 189
163 118 84
218 45 100
215 8 169
138 48 212
28 0 231
110 118 66
72 237 187
35 157 246
57 93 1
154 89 247
198 95 60
208 107 209
3 123 7
111 19 83
36 0 51
236 3 4
71 186 182
76 16 28
138 3 41
41 33 159
188 116 221
15 29 8
86 16 179
103 2 143
7 85 220
6 183 159
35 12 191
64 119 198
209 4 3
81 29 21
99 63 223
141 128 107
132 249 27
164 179 234
165 238 150
251 186 232
63 245 206
17 224 234
226 246 214
119 217 143
167 133 182
195 123 188
104 232 185
120 100 178
61 121 52
229 217 165
65 64 38
128 114 112
51 70 244
8 60 68
193 192 97
212 176 144
140 44 178
206 4 200
126 239 76
188 211 31
232 37 149
55 8 5
91 219 65
83 76 186
221 235 84
187 101 206
11 26 208
61 224 184
48 38 92
165 162 15
144 157 97
66 5 141
200 253 191
217 151 4
46 227 225
38 140 42
83 180 162
106 205 128
215 151 15
62 148 178
70 3 214
53 101 55
124 150 140
24 181 66
75 195 130
234 46 220
77 140 78
188 118 29
76 64 98
46 116 51
95 139 254
93 121 142
27 51 15
56 64 52
56 68 113
234 211 204
237 175 216
181 254 142
173 100 215
119 45 20
58 26 28
51 217 21
47 167 43
90 116 111
16 105 39
97 38 76
211 25 17
239 88 202
145 71 144
6 64 84
200 54 60
125 75 196
168 87 147
79 66 66
135 74 237
127 69 239
134 169 84
244 74 36
215 198 180
121 139 91
154 187 172
83 91 91
148 239 129
132 162 171
148 245 198
236 145 245
186 152 54
61 207 151
144 8 199
249 154 40
175 81 189
69 175 0
125 166 191
245 187 177
192 181 86
244 212 141
116 124 19
218 218 49
96 205 30
8 252 133
253 204 177
104 71 186
17 35 9
69 188 173
117 166 51
185 65 51
248 121 84
249 62 134
160 39 70
121 243 200
175 97 152
212 234 183
150 157 240
248 234 143
156 128 144
96 37 216
19 22 30
141 179 135
14 194 180
50 228 12
84 32 251
215 169 34
215 230 207
161 213 145
150 85 149
108 176 16
37 134 13
122 83 190
89 241 58
136 202 218
69 142 70
152 226 8
246 136 153
179 91 171
41 80 252
87 1 6
190 151 163
13 245 45
75 147 77
187 222 165
153 29 19
31 149 239
200 100 197
209 244 111
228 217 182
236 26 204
220 113 105
147 121 136
23 243 93
40 96 26
123 61 218
231 157 235
208 153 117
51 227 57
84 254 93
250 50 243
104 95 75
105 34 204
223 106 61
130 131 169
35 246 114
194 77 32
89 58 74
60 21 16
30 114 193
93 247 146
47 67 104
44 18 60
28 70 245
118 58 7
220 222 108
110 12 2
53 158 94
98 155 177
57 105 203
161 239 149
173 215 40
145 159 197
27 204 209
179 61 197
101 30 173
155 85 211
243 24 87
46 231 80
157 8 85
130 66 221
52 201 185
54 122 227
151 51 244
144 0 125
156 69 149
219 218 204
188 44 57
246 254 143
85 5 240
4 66 241
92 182 133
48 29 77
230 151 91
109 80 18
40 63 221
54 43 72
113 240 197
175 205 99
250 117 172
147 119 153
188 161 251
45 131 16
156 113 147
219 124 98
131 111 16
76 49 45
133 220 158
29 85 77
139 248 29
10 19 165
89 244 228
209 4 179
236 200 190
169 9 53
142 244 137
92 190 165
166 146 140
136 180 118
21 38 172
163 189 104
86 245 1
243 189 147
91 181 166
74 208 177
180 250 171
249 126 29
130 134 54
163 40 47
45 57 116
144 208 38
182 31 102
212 30 168
177 79 238
15 59 154
225 119 233
215 238 60
38 12 109
90 58 112
197 40 33
180 165 21
249 150 229
52 214 40
35 91 12
189 172 18
214 210 199
160 218 204
250 122 100
153 211 65
111 221 88
61 207 204
157 240 145
220 47 32
94 231 200
132 253 112
137 3 201
32 152 132
36 173 115
101 69 197
206 144 121
37 213 47
156 247 23
149 98 185
247 203 218
31 9 211
27 199 124
26 9 194
178 172 64
34 0 163
117 168 187
208 223 83
54 175 13
192 145 42
156 188 171
154 75 238
35 171 92
251 3 132
46 146 53
218 19 165
78 207 198
234 60 189
12 199 248
229 205 199
76 7 81
76 184 94
83 139 26
34 30 151
26 228 117
118 131 130
96 135 143
118 175 202
52 73 75
185 157 236
44 191 80
58 249 162
146 224 59
61 53 130
33 248 198
206 64 108
70 73 210
236 246 154
72 156 77
149 81 175
44 84 28
112 102 5
112 76 47
220 109 95
128 202 136
83 144 76
20 133 234
12 246 76
63 177 82
69 244 253
180 7 45
30 53 180
28 92 118
45 9 130
125 100 73
46 93 44
3 216 24
104 31 90
62 114 35
166 44 190
220 13 111
113 173 67
48 123 196
233 172 120
31 245 28
78 36 145
13 223 46
231 26 76
90 247 126
254 99 87
220 151 248
4 95 241
63 171 109
73 246 140
28 185 243
207 161 182
231 17 229
156 164 219
12 1 209
91 112 100
197 149 142
114 131 215
71 227 249
57 112 179
11 211 176
78 14 27
138 201 175
123 158 101
127 143 1
101 2 176
50 236 146
38 142 133
120 176 205
113 243 62
94 103 33
134 184 104
247 89 118
70 91 208
205 17 90
79 51 110
172 214 196
177 22 69
79 26 26
234 125 156
205 128 131
35 25 158
230 140 192
124 42 131
140 202 240
73 83 91
126 40 85
226 141 36
32 32 103
143 237 150
68 186 166
188 206 57
27 71 212
22 123 110
12 230 171
210 104 15
143 233 228
174 67 27
213 7 8
215 15 216
187 120 117
243 39 160
208 18 144
229 124 177
189 11 42
237 226 133
120 178 53
36 11 50
3 250 204
115 164 131
38 122 16
10 197 195
118 80 195
42 167 12
61 97 162
32 177 41
162 56 199
92 112 39
57 120 102
51 128 211
209 173 44
15 62 119
208 253 194
225 1 142
210 6 217
123 200 116
248 60 157
239 229 7
242 130 220
91 127 38
105 232 113
209 73 198
218 32 149
196 63 224
135 98 199
207 123 40
83 191 117
95 74 231
65 0 110
188 7 71
38 107 222
70 231 228
198 97 62
26 116 145
31 204 249
95 1 28
173 231 232
171 197 95
99 13 46
107 26 78
234 63 120
79 159 83
31 76 145
55 134 45
54 176 157
23 159 78
60 207 221
10 178 218
40 29 105
5 230 192
178 164 228
86 212 208
203 204 128
223 187 49
148 85 3
196 247 41
226 144 251
4 96 53
225 223 1
139 159 35
133 200 247
31 110 182
224 35 106
192 127 112
124 204 140
196 107 192
240 91 83
24 6 134
108 99 166
195 88 50
12 115 139
162 172 149
42 158 132
47 227 21
144 62 172
31 215 94
96 238 75
126 163 235
228 217 157
225 184 2
89 48 250
52 220 194
25 206 92
94 106 142
6 127 170
128 202 204
164 186 57
234 84 85
42 167 102
50 116 211
210 138 84
179 249 215
67 237 136
136 110 91
5 18 128
13 76 95
247 143 100
39 47 164
87 22 99
251 157 248
82 45 179
192 189 129
221 6 232
65 75 243
109 14 6
61 107 156
245 251 250
182 74 36
225 99 166
236 235 169
223 77 127
56 157 253
172 241 189
151 96 169
52 181 137
5 103 70
190 99 170
101 189 163
81 229 210
61 151 120
9 10 71
127 40 20
88 141 220
113 115 155
156 105 155
103 152 97
101 27 88
231 243 163
77 205 181
213 104 34
131 75 159
135 178 21
91 49 173
176 47 128
31 85 246
25 92 149
145 215 254
216 249 6
96 47 91
62 248 143
237 80 201
236 60 161
67 200 11
212 107 152
40 50 35
186 170 35
214 65 20
178 247 84
71 110 124
118 191 147
96 99 17
220 202 88
139 234 223
134 144 154
228 239 109
49 167 245
89 69 238
96 223 77
217 21 202
164 97 220
241 129 116
213 227 176
107 124 99
140 51 112
166 238 240
210 204 182
23 230 135
146 139 218
88 155 240
213 114 254
36 55 145
76 130 32
222 10 150
188 184 191
41 220 108
147 234 206
180 21 160
158 156 242
25 141 136
160 76 7
143 171 227
206 95 78
28 174 89
119 58 111
39 212 118
83 229 30
48 233 186
47 183 99
101 32 6
74 156 118
192 203 86
168 64 227
66 119 150
33 148 222
198 223 236
174 16 20
121 122 36
156 149 127
19 176 18
40 71 86
101 73 102
123 97 74
220 166 67
200 138 205
48 121 177
204 237 68
176 14 242
99 45 208
160 16 47
181 183 112
212 105 87
220 25 34
45 184 100
61 145 217
213 187 53
211 246 233
175 34 85
232 2 237
54 104 93
2 201 211
205 45 40
178 140 132
120 254 156
110 130 194
253 210 25
39 12 206
17 94 94
102 65 124
185 252 45
182 238 10
230 34 177
233 66 81
64 42 233
5 243 61
231 67 126
242 57 130
132 157 132
196 72 196
249 214 18
74 133 132
29 112 76
233 162 5
39 218 212
202 21 220
219 198 73
68 173 141
95 112 208
74 213 44
224 132 74
186 229 102
54 140 84
16 7 171
71 51 94
215 207 120
229 97 99
132 222 183
72 136 121
74 134 50
141 23 189
0 64 28
117 49 57
127 163 219
100 25 37
120 242 198
87 88 13
34 250 65
102 138 49
92 56 155
159 133 186
252 28 41
45 165 226
96 13 1
63 85 248
152 42 178
117 23 58
34 125 98
120 157 32
153 237 153
144 166 124
73 238 201
216 0 167
178 182 253
180 169 127
22 27 196
39 14 248
174 233 36
240 154 21
12 207 182
168 97 187
222 94 212
63 218 247
157 10 215
91 231 182
133 223 74
102 107 79
142 21 102
248 64 98
244 110 85
62 41 175
106 55 237
108 214 197
4 31 173
115 89 33
80 157 21
129 177 186
143 60 10
228 139 163
107 146 210
5 21 57
169 115 253
195 174 47
79 159 13
154 110 195
47 58 187
120 74 165
34 185 104
233 172 9
94 67 174
6 70 63
59 144 103
138 250 103
50 150 19
111 48 215
179 35 9
191 5 89
15 54 2
75 224 55
243 165 21
219 39 4
23 230 12
25 130 48
213 106 188
116 75 89
155 107 227
123 199 172
90 87 191
191 206 26
21 107 51
224 215 144
6 153 192
40 158 44
19 64 145
89 72 127
115 136 115
139 250 249
1 95 188
14 170 111
24 150 217
45 145 103
67 170 17
149 115 148
221 165 162
62 200 134
128 83 222
42 79 19
136 17 253
155 1 26
21 28 3
242 180 9
10 231 233
22 34 141
145 162 138
229 173 206
44 7 196
107 175 111
58 1 175
246 187 9
83 159 55
188 70 38
224 111 105
23 206 229
37 88 179
170 184 81
40 188 251
51 171 45
95 14 176
119 40 166
108 51 47
196 59 107
176 234 76
180 85 44
109 77 156
19 37 234
207 82 119
245 16 169
124 92 187
65 168 62
59 220 245
137 104 52
195 106 32
193 153 145
66 226 48
38 156 158
101 131 139
84 245 12
208 202 179
38 227 195
135 64 201
29 240 222
35 29 226
156 10 109
31 34 251
123 249 109
79 29 39
123 123 199
240 180 188
186 130 23
79 217 168
139 71 172
172 234 216
49 34 138
117 116 231
104 33 56
31 194 113
120 83 59
131 34 42
73 231 99
204 161 195
72 92 211
186 22 167
200 89 166
124 222 1
162 50 197
36 98 104
235 212 91
4 144 92
218 89 74
119 114 171
28 95 215
227 239 191
167 27 121
196 185 225
234 90 134
239 4 77
195 20 81
221 183 138
172 144 239
38 86 37
216 106 193
19 87 119
91 4 242
109 94 146
41 54 33
199 243 200
81 53 173
209 129 135
191 104 163
1 225 48
53 64 202
139 49 35
152 64 51
77 205 189
64 10 181
210 154 160
2 23 186
203 242 198
43 220 236
214 113 95
52 10 80
42 67 66
107 41 239
223 188 112
212 220 73
202 40 130
147 209 139
104 183 211
107 13 37
1 122 64
115 182 239
184 53 90
252 119 215
17 184 104
92 90 98
208 10 69
73 133 106
91 175 128
158 99 242
176 229 168
233 69 104
223 162 54
150 89 123
199 192 28
206 95 31
9 28 82
116 65 105
17 163 208
81 212 45
103 232 178
141 155 254
183 246 12
92 112 202
198 131 131
85 95 21
193 50 145
102 80 98
214 90 75
104 219 151
144 131 155
176 9 89
58 192 160
41 63 177
74 201 213
156 174 38
194 112 126
233 25 234
235 13 243
242 82 130
55 238 146
36 21 51
28 177 242
124 187 235
207 187 25
179 74 148
3 170 3
203 118 188
92 25 121
148 91 140
179 227 179
133 108 122
185 217 72
157 204 65
247 145 106
23 166 200
127 252 108
62 177 20
131 69 170
161 131 124
162 136 244
30 181 205
228 209 68
23 96 202
96 228 247
77 16 98
50 239 228
171 138 156
180 58 110
66 230 125
199 44 178
198 14 235
54 128 118
217 67 91
167 9 91
125 20 59
146 197 108
178 250 184
52 107 66
179 120 150
136 99 183
238 73 176
107 39 64
24 208 39
27 34 215
78 125 232
216 86 153
103 251 189
217 2 111
173 103 124
210 202 26
84 120 115
248 173 235
79 244 210
212 178 0
227 29 178
158 71 4
2 35 117
249 101 42
168 249 81
135 144 164
135 59 143
99 78 39
175 100 138
136 180 154
89 126 33
26 115 38
250 137 3
124 31 118
30 42 17
69 162 84
240 9 29
159 158 133
118 14 39
29 159 67
6 235 217
117 222 226
241 145 45
17 1 76
26 241 2
173 227 243
83 88 164
144 125 15
73 34 71
187 138 81
249 128 207
198 89 22
162 129 50
241 202 119
12 135 30
99 206 154
143 95 123
112 179 60
191 227 157
173 1 16
87 177 169
50 225 221
96 105 122
240 222 110
4 74 20
123 232 179
230 233 197
148 21 204
173 4 160
140 238 81
196 67 136
224 99 91
80 152 92
72 242 163
66 189 76
206 238 198
58 65 79
170 249 82
126 114 163
211 251 15
211 235 29
93 162 121
253 148 240
144 155 225
162 127 206
175 90 123
213 222 87
221 179 127
230 144 249
185 170 9
86 0 164
141 241 188
172 5 118
138 223 148
212 58 32
218 26 163
173 251 102
10 9 81
223 30 8
243 173 80
220 246 215
12 1 251
22 18 177
132 107 251
124 40 31
39 6 133
219 142 4
47 161 228
27 83 198
208 159 219
164 181 215
229 201 241
201 50 58
229 190 236
161 64 232
0 117 82
117 191 112
123 225 42
109 222 95
147 254 118
178 87 76
191 188 143
26 132 166
92 119 143
102 37 129
60 13 8
59 60 18
188 90 135
16 179 147
60 169 178
192 129 139
170 248 22
177 163 94
44 128 219
200 189 64
10 149 110
147 93 179
55 130 167
62 225 25
199 191 147
210 199 234
119 52 207
222 183 96
69 203 100
6 71 141
241 231 233
15 102 108
84 134 106
242 156 226
82 207 147
132 210 182
219 0 241
128 114 25
242 246 138
61 59 42
229 9 130
249 138 64
200 74 114
64 207 19
173 56 176
197 253 88
55 183 238
37 33 133
242 39 109
38 127 49
211 161 184
98 25 154
35 35 204
36 115 209
55 150 222
205 234 85
29 146 86
185 240 35
197 154 102
105 160 36
34 76 230
102 110 37
178 238 96
82 64 180
68 143 65
53 41 88
1 25 59
241 23 164
200 106 183
222 21 40
89 42 230
84 190 57
237 65 33
163 225 141
130 251 135
177 230 170
121 176 137
240 217 23
53 102 208
139 95 51
250 13 182
245 179 53
59 153 80
137 139 101
59 184 135
61 20 84
114 53 177
211 173 130
44 136 193
237 86 60
59 58 201
165 175 73
228 251 79
78 226 53
106 104 117
220 215 254
117 120 130
26 38 227
170 181 24
174 158 177
155 214 95
224 228 102
11 106 72
220 2 225
40 96 140
226 11 37
144 140 232
2 136 161
160 163 209
181 59 87
5 41 86
88 113 209
101 36 230
161 160 46
237 34 84
11 18 15
110 224 224
244 225 186
78 21 220
252 136 115
99 179 128
81 177 227
42 127 24
153 52 189
37 234 68
161 210 150
242 44 1
5 141 12
133 204 235
70 13 252
198 162 149
89 112 43
202 190 216
157 251 101
55 144 2
178 198 55
62 76 246
251 29 42
238 232 175
74 81 135
86 85 27
187 136 65
8 186 52
210 223 39
72 137 135
238 85 71
77 250 106
86 61 70
13 137 113
229 111 166
65 49 208
216 166 250
167 201 81
10 115 173
54 87 226
236 147 51
177 145 67
77 92 196
54 84 17
5 149 161
132 59 82
31 10 130
31 96 146
51 37 163
130 3 227
176 233 89
155 185 159
153 40 78
205 138 41
118 94 160
110 2 104
68 110 48
130 110 77
47 29 35
53 26 79
166 137 119
45 125 180
229 25 144
14 101 171
0 47 125
28 3 165
170 68 96
85 200 47
220 13 112
206 163 4
1 61 147
89 182 49
236 71 28
140 200 30
60 151 223
181 193 102
120 118 137
119 150 155
207 122 179
210 240 99
161 107 113
160 102 24
184 47 28
16 198 222
184 145 193
231 73 127
157 77 114
177 204 20
78 163 176
65 123 33
191 200 239
148 7 195
99 32 144
19 229 160
211 100 122
184 40 165
64 161 110
85 3 186
230 223 83
44 93 210
224 146 50
164 65 129
100 229 109
97 19 125
10 92 179
107 79 119
227 141 171
134 152 117
98 12 143
86 86 194
198 117 53
210 223 78
49 132 45
182 17 92
89 67 41
252 220 48
24 67 49
145 214 106
129 154 236
175 194 37
235 200 101
225 236 38
163 79 187
198 9 223
123 41 64
236 203 143
200 103 220
169 140 88
113 96 20
164 35 198
62 175 140
118 181 197
33 222 31
232 195 67
165 247 253
112 105 54
89 115 117
55 72 72
57 58 15
78 64 103
167 133 133
140 148 214
182 64 15
231 181 142
14 200 180
142 142 112
185 17 163
222 99 187
169 83 188
197 39 109
118 43 194
180 97 6
195 72 235
105 23 62
17 103 66
251 231 165
70 252 90
160 218 218
153 2 114
145 97 58
148 76 46
170 223 175
217 26 192
125 221 71
62 115 27
79 240 86
123 179 101
251 184 189
22 194 160
15 58 222
54 143 24
202 226 25
145 231 193
123 17 251
150 216 45
172 6 212
137 32 169
34 77 229
133 245 79
72 7 89
187 168 12
111 83 160
146 150 8
96 169 145
34 160 167
142 178 161
68 188 225
251 51 78
2 202 54
136 101 111
222 202 215
116 248 181
79 214 64
189 29 50
104 245 69
25 162 76
188 161 15
252 51 220
221 138 174
204 131 106
26 18 188
68 142 216
88 244 117
75 114 26
204 137 27
246 174 232
33 109 226
13 98 195
154 10 114
158 160 161
234 195 148
92 186 24
9 128 199
113 23 176
178 170 54
165 160 152
244 102 61
61 91 89
253 237 154
159 187 66
202 19 46
241 222 206
245 12 16
44 41 165
229 139 145
101 158 93
154 16 23
59 24 252
6 144 103
144 151 141
140 36 194
129 208 5
103 190 17
220 21 46
35 63 123
181 161 176
235 22 113
72 243 232
212 98 225
205 228 114
219 151 183
231 65 220
157 193 1
85 49 57
41 108 32
33 81 220
119 104 172
205 79 96
206 63 26
22 19 196
4 142 147
212 151 161
38 172 161
160 225 14
254 194 4
100 77 93
72 131 174
94 141 20
164 168 210
230 21 52
228 57 147
150 208 178
7 219 113
10 45 78
36 58 42
146 254 36
156 64 34
127 231 85
101 14 36
43 11 89
243 206 194
133 41 235
10 111 104
21 202 37
213 43 197
254 226 50
27 207 69
70 135 121
66 5 169
114 196 31
231 230 235
107 189 22
155 39 150
31 32 190
250 190 116
202 170 85
95 161 122
158 193 34
131 113 231
154 120 143
192 244 189
176 52 2
11 109 8
147 181 42
21 63 111
174 166 246
24 10 216
83 99 217
206 182 5
54 129 53
144 195 152
206 196 47
135 128 131
158 79 176
8 202 53
240 59 221
204 171 183
61 14 46
193 99 111
33 96 239
61 104 213
132 143 130
153 44 37
71 35 84
147 177 145
19 113 33
20 74 13
26 26 99
190 13 36
45 105 171
76 23 79
62 80 216
171 28 189
198 82 43
12 76 61
254 62 228
190 18 83
134 208 38
48 70 50
64 189 63
71 217 227
122 236 175
44 95 184
216 147 113
214 117 131
214 250 179
90 121 149
121 119 58
195 104 208
2 50 137
100 52 215
96 168 58
210 176 184
70 197 44
100 242 252
227 240 89
185 158 23
91 112 130
161 30 88
173 180 8
139 32 19
59 171 40
250 205 188
33 106 82
166 186 93
229 21 38
97 78 176
67 10 106
83 74 152
1 194 118
252 29 15
48 234 152
153 208 164
253 112 92
216 92 241
97 141 185
115 225 135
193 85 218
172 219 192
99 70 69
252 118 43
216 20 87
171 162 188
42 79 233
177 44 191
80 2 46
106 49 110
49 181 212
228 79 92
181 66 82
183 224 67
23 164 168
243 168 190
196 240 185
12 2 205
209 127 174
246 98 203
226 225 159
103 189 223
193 217 212
99 19 31
221 24 244
181 206 139
44 45 253
91 186 77
140 145 129
156 11 180
117 110 184
46 174 55
196 138 4
203 104 181
147 83 92
190 223 138
93 61 92
167 226 95
152 233 162
207 98 189
15 223 146
242 115 182
211 231 200
235 30 58
117 78 180
76 12 66
93 182 63
238 40 0
25 169 117
158 178 223
144 175 117
102 22 93
36 226 119
221 184 81
75 21 82
69 204 41
53 238 164
48 176 137
115 44 220
38 39 10
254 156 156
224 15 245
148 148 177
31 246 33
28 201 124
42 170 182
38 45 175
213 35 210
193 249 147
73 125 135
183 175 156
227 138 103
191 129 83
231 214 217
34 222 11
170 211 49
254 68 125
60 109 204
122 218 87
179 212 21
221 70 100
246 116 152
209 249 129
65 206 134
36 135 192
104 51 11
168 195 35
145 135 223
109 235 251
236 43 171
118 114 118
152 157 43
198 33 95
115 94 48
50 4 249
31 138 51
212 72 136
93 63 72
232 72 72
17 51 140
201 218 169
104 207 254
138 251 35
105 146 213
247 12 100
218 16 157
170 87 199
1 176 225
78 148 186
197 166 220
92 39 19
64 151 161
12 60 3
124 112 221
63 195 130
216 119 228
241 2 196
146 114 155
149 149 159
39 140 78
71 53 229
137 61 219
218 109 221
213 149 36
231 115 173
133 197 95
57 99 253
79 108 68
83 189 222
33 215 53
222 124 251
195 118 229
79 180 2
63 138 20
132 79 150
32 26 7
30 39 166
123 230 142
170 114 123
212 104 18
238 245 169
141 172 115
101 83 167
212 143 172
239 8 195
60 224 93
52 88 252
131 114 181
50 73 125
69 17 145
64 218 176
167 85 99
209 247 64
76 245 199
250 112 251
2 125 14
249 171 33
172 228 5
131 252 60
145 85 139
203 102 43
208 188 11
64 4 122
68 198 47
63 160 176
235 177 153
16 205 108
139 247 92
111 130 116
163 52 248
23 51 123
141 33 44
133 226 188
153 73 19
109 189 93
244 141 158
41 39 12
100 150 6
68 226 72
152 19 219
154 152 28
211 126 2
76 139 85
248 17 113
116 96 92
158 123 94
101 178 141
201 182 36
42 163 6
225 174 166
226 64 200
139 177 164
202 4 141
111 197 154
118 127 196
110 241 220
27 122 0
239 30 99
11 63 171
243 178 27
121 78 153
75 104 113
151 131 107
150 246 190
71 23 27
214 27 65
188 230 17
234 151 199
45 27 53
75 118 10
49 246 15
119 34 95
119 109 132
112 252 5
82 192 157
196 34 51
103 35 3
14 7 86
91 76 35
89 150 70
183 252 93
3 235 77
27 191 201
41 160 145
47 215 24
36 97 249
160 113 49
33 186 136
119 100 238
51 251 205
197 15 112
228 136 108
33 63 214
148 133 77
136 174 200
98 122 121
125 149 160
148 145 139
19 242 181
67 103 89
69 106 12
231 247 226
117 137 82
127 91 234
166 140 78
181 162 181
219 56 178
119 160 192
184 120 235
73 228 165
210 61 34
100 229 248
118 153 92
81 55 134
227 178 249
151 245 54
42 45 210
182 19 131
18 66 103
64 215 239
253 65 173
128 203 54
133 205 107
46 233 94
157 15 95
192 163 41
248 102 223
98 45 53
7 35 91
5 117 128
34 43 205
78 235 234
12 31 81
85 166 76
189 115 100
23 238 204
155 122 68
30 217 54
232 211 203
195 214 28
202 153 198
167 118 12
244 103 67
159 225 99
79 35 107
241 1 227
107 243 42
75 57 218
66 205 57
23 238 84
81 61 231
50 243 114
106 186 163
5 99 127
133 47 95
227 250 99
249 122 219
54 237 225
172 189 211
144 134 106
214 75 14
64 220 178
17 252 117
33 197 246
116 72 187
212 35 197
233 114 109
167 2 248
220 130 231
11 98 169
108 153 184
31 66 38
210 199 180
32 177 136
32 146 17
198 60 82
62 131 166
111 138 248
207 3 186
123 166 172
82 139 186
214 161 206
152 144 129
227 45 21
143 62 105
211 233 15
112 139 164
220 150 206
151 67 234
129 36 26
155 46 28
231 242 55
112 217 47
67 56 58
121 249 214
147 76 218
192 246 243
73 161 146
144 167 233
29 173 133
7 180 235
66 78 184
79 52 218
196 24 169
89 69 78
81 157 96
103 231 237
151 26 180
82 108 224
55 110 224
166 2 165
33 174 59
9 185 57
43 102 151
215 208 91
193 20 2
82 250 205
100 92 80
232 95 41
180 199 91
167 46 25
208 23 58
114 148 3
106 82 93
112 96 233
234 71 49
232 213 180
195 135 216
139 66 151
187 233 58
121 25 39
105 123 46
199 225 184
232 132 15
234 112 40
48 61 79
189 88 155
250 90 154
141 118 14
84 149 32
177 80 157
153 151 55
120 184 243
250 116 123
233 48 141
109 145 153
49 117 110
192 50 6
42 230 209
14 12 175
132 73 234
76 207 38
51 133 109
246 48 108
144 48 39
154 117 67
131 182 157
125 33 183
99 233 227
17 180 152
64 195 56
214 89 9
33 176 203
2 110 208
98 162 105
142 190 220
16 192 171
164 77 39
47 205 156
131 149 134
143 48 249
194 187 75
146 230 149
203 195 158
192 18 70
12 80 69
203 204 4
29 8 130
251 90 8
216 127 17
165 185 43
19 29 33
203 142 254
70 163 176
149 21 96
107 232 30
10 37 121
1 165 241
236 244 93
32 45 240
94 51 204
160 200 164
159 27 218
235 93 143
185 186 76
95 249 113
47 80 79
162 12 214
129 60 130
38 151 37
54 116 67
242 151 51
26 235 142
45 140 18
65 44 181
232 8 60
113 28 78
156 204 86
214 110 88
92 195 66
194 189 75
3 234 57
102 113 197
147 135 26
189 149 141
11 236 96
253 46 219
72 209 131
37 125 67
43 157 25
2 121 238
94 44 131
68 83 237
218 230 106
190 104 247
109 125 159
38 232 118
254 6 55
24 9 108
249 206 181
246 27 95
128 157 161
169 158 117
245 55 118
14 227 123
225 0 117
157 223 158
237 203 55
108 11 83
53 44 206
139 121 193
111 84 16
196 68 172
192 86 54
31 205 188
23 25 20
73 235 82
70 134 254
113 167 194
205 140 146
95 165 157
40 140 9
172 101 77
41 172 28
243 15 87
237 234 189
133 210 126
244 206 81
129 208 232
226 111 235
28 177 121
76 190 179
155 187 8
192 24 86
57 164 14
221 99 231
2 182 197
51 252 152
157 133 39
59 75 63
12 180 50
37 95 50
187 214 229
193 217 102
243 117 244
148 153 102
155 84 99
7 112 15
213 64 29
102 131 186
197 216 231
94 208 6
105 108 118
11 150 184
234 158 168
211 22 231
190 78 173
200 224 83
49 133 78
189 254 2
150 236 23
15 6 254
78 111 226
181 228 146
141 33 214
182 239 99
101 224 90
159 154 229
192 231 198
119 225 67
199 228 85
151 21 4
28 21 215
128 144 105
15 113 95
97 139 128
119 187 195
4 125 73
182 76 63
51 5 12
187 103 82
161 39 35
39 32 21
0 105 221
163 8 18
238 82 193
79 206 98
148 33 27
108 30 171
33 138 198
82 173 62
167 77 79
103 25 201
141 143 131
87 173 72
183 32 151
226 112 57
123 69 76
5 51 30
212 244 15
71 219 42
137 254 225
184 137 103
44 13 187
93 201 199
28 154 65
253 186 190
127 52 225
170 230 8
156 192 133
99 194 138
204 156 17
199 217 106
109 234 46
149 221 133
94 54 90
169 144 6
237 75 98
0 227 145
8 91 109
181 177 156
239 223 23
204 124 22
55 14 31
168 152 27
107 193 49
112 154 252
55 36 8
32 115 177
102 106 121
190 253 142
184 25 73
71 222 241
197 155 132
159 195 206
6 107 31
130 23 154
20 140 233
90 38 7
113 48 80
28 170 11
108 150 99
38 10 50
234 213 41
61 50 114
7 123 55
100 120 232
200 42 131
197 129 61
168 129 124
183 144 129
172 167 25
201 218 98
112 137 165
89 170 148
19 42 150
67 142 124
58 76 226
233 41 136
250 118 178
66 25 214
149 229 53
148 169 214
46 197 189
166 30 239
15 111 94
193 38 46
22 185 107
54 227 249
198 43 119
195 172 175
50 114 213
15 158 98
7 164 79
23 181 89
135 32 225
207 49 135
236 57 248
59 88 101
50 75 165
246 187 245
195 103 21
66 72 175
102 58 94
74 21 242
37 100 185
6 240 106
136 29 163
83 134 174
14 204 21
166 16 40
49 241 229
55 242 82
107 116 47
211 33 21
185 75 87
254 45 79
205 168 200
246 138 97
51 218 225
19 186 164
86 111 99
178 74 36
96 2 189
248 189 126
131 133 91
99 31 212
2 65 205
41 58 96
99 186 151
149 106 18
176 54 76
114 4 67
230 228 215
5 70 208
252 156 0
79 124 86
209 131 124
177 13 188
134 118 117
43 237 203
2 88 110
156 201 74
232 197 247
100 54 98
140 2 249
164 82 218
131 142 199
158 1 12
232 104 63
171 138 242
150 127 199
169 202 110
41 131 9
112 126 194
188 119 156
6 104 159
252 70 186
205 225 174
29 207 3
230 86 195
241 198 22
66 160 123
1 152 203
31 3 138
190 84 17
242 136 203
155 46 68
97 208 41
254 172 253
17 66 37
34 218 254
205 148 63
49 120 179
87 21 147
151 243 191
159 188 89
99 179 143
0 177 176
88 137 5
8 245 245
81 68 224
94 7 36
220 176 230
126 229 63
107 198 169
155 205 223
173 1 71
21 224 92
19 235 72
42 222 164
125 58 156
154 48 14
228 91 223
103 110 161
1 54 60
26 196 8
250 6 52
24 79 58
82 29 247
128 248 29
249 89 47
45 214 49
147 130 119
117 177 198
62 39 80
119 244 90
148 210 153
52 134 28
157 95 200
178 182 14
42 72 198
239 73 50
118 69 114
36 162 234
8 73 11
11 5 145
139 79 233
168 193 66
188 225 214
56 79 156
231 106 254
98 59 168
47 192 182
200 152 48
75 168 193
121 207 249
51 230 118
49 58 201
80 61 86
145 162 106
147 115 105
29 125 120
83 54 231
99 20 97
53 57 220
142 220 247
78 87 210
174 49 45
157 141 228
98 178 165
46 16 103
223 91 226
14 108 9
64 157 57
209 104 91
37 198 111
253 121 6
185 65 115
59 227 209
219 100 38
25 111 169
55 191 160
36 171 2
241 224 97
32 247 244
235 3 45
249 147 235
197 193 235
62 148 25
106 182 178
246 49 177
145 74 97
182 7 108
30 10 18
95 39 97
226 200 171
8 223 109
184 148 57
9 235 110
67 82 201
83 162 135
93 9 132
72 5 12
123 160 145
60 170 141
151 249 216
91 31 40
157 156 141
135 196 46
236 218 9
241 127 205
208 199 186
19 147 224
139 160 246
242 17 148
107 249 39
162 71 126
239 8 158
134 182 246
235 194 211
110 62 8
251 116 119
170 13 35
94 211 211
121 135 87
222 112 89
55 66 59
177 72 121
47 233 172
75 59 198
157 61 250
146 168 164
184 100 232
75 243 217
230 48 65
80 8 238
146 204 216
71 199 175
18 207 8
222 150 215
81 130 218
119 179 9
234 210 46
246 127 162
161 76 98
229 69 7
129 234 160
243 249 9
236 108 250
55 99 173
78 92 88
94 217 3
178 120 105
210 15 165
45 239 174
82 18 174
247 117 6
172 39 78
55 79 247
167 102 168
243 222 226
77 149 48
188 24 242
138 197 101
182 248 117
73 128 219
72 184 112
251 25 71
145 176 51
212 214 51
247 210 80
201 103 18
110 94 107
33 211 190
35 65 40
143 162 244
95 172 215
39 229 10
5 254 179
67 146 72
154 120 27
151 244 157
113 134 240
102 16 188
156 231 40
14 134 25
64 237 248
92 27 15
184 167 87
75 195 5
128 204 252
112 253 10
65 91 156
251 203 88
27 61 243
45 2 232
155 219 29
101 96 213
236 249 232
110 223 89
93 196 169
249 215 44
147 245 247
89 134 53
211 216 62
40 102 137
94 98 211
49 79 61
9 217 47
103 158 141
180 136 252
40 63 90
169 205 16
88 65 65
209 106 0
158 114 58
228 202 242
1 63 134
46 14 77
124 71 72
161 197 174
111 134 167
119 237 149
14 110 226
167 16 39
72 236 247
241 222 194
20 117 61
148 219 85
35 105 164
28 130 223
239 234 85
63 144 13
38 226 55
110 121 27
24 175 109
218 195 187
187 57 219
35 4 45
71 164 251
1 15 154
112 236 115
74 54 210
3 186 234
251 40 15
57 238 127
25 112 172
246 19 38
228 109 187
181 131 242
65 75 23
74 53 224
125 80 242
67 206 115
197 150 239
212 26 235
90 64 151
214 234 25
254 168 69
231 129 40
185 27 20
122 150 186
93 148 235
23 205 97
37 171 113
121 113 68
23 21 249
167 98 157
192 199 75
129 64 189
189 35 20
16 198 163
204 24 143
194 54 240
7 42 45
199 135 85
87 17 84
105 202 86
50 180 254
177 6 162
156 180 58
229 124 185
76 22 234
238 197 21
125 149 17
230 161 57
214 226 158
108 101 210
50 196 70
1 25 157
3 52 8
232 72 159
128 15 86
213 6 158
1 168 136
84 159 154
159 68 48
74 226 24
32 111 119
58 98 216
39 224 90
143 145 72
58 245 206
30 222 154
151 89 198
143 65 143
45 121 42
129 105 45
105 107 29
16 196 213
203 138 228
104 101 67
47 150 104
2 190 136
160 207 125
42 159 209
180 61 117
235 40 221
92 30 23
82 188 185
43 8 206
83 50 54
195 19 183
106 175 208
70 4 156
149 120 105
151 103 21
103 250 13
226 26 229
162 121 203
31 167 29
25 56 105
20 220 216
243 232 172
109 226 133
216 24 190
46 200 191
191 57 173
2 176 11
203 232 183
60 234 171
197 240 32
91 115 48
134 204 17
226 158 133
174 187 227
152 82 40
75 44 59
25 64 21
215 175 218
201 76 181
87 12 181
100 12 15
14 212 236
138 73 40
210 98 155
76 152 108
140 212 201
245 49 84
230 0 61
73 4 115
192 218 203
174 77 149
31 174 74
111 98 190
173 36 45
235 7 67
249 162 220
3 238 185
235 45 250
84 76 178
216 210 111
70 24 197
23 135 238
151 170 150
73 223 8
34 235 21
194 203 34
16 230 234
186 152 40
8 235 103
165 168 61
89 33 56
159 71 79
162 228 45
39 128 28
35 206 209
29 206 19
55 61 203
129 36 129
55 152 238
59 81 158
79 106 253
150 18 88
237 104 177
62 213 45
136 229 4
51 199 161
19 49 249
143 179 185
172 234 61
99 17 0
240 63 43
109 56 129
219 207 54
7 227 141
124 27 176
198 194 23
252 177 219
201 45 107
230 205 101
114 87 162
191 99 229
195 168 165
135 9 64
163 100 5
77 184 15
71 27 115
223 144 77
88 41 254
14 59 200
49 21 103
55 100 112
163 150 157
20 74 108
199 141 7
252 239 100
121 129 246
144 180 37
234 122 243
0 228 252
124 131 140
227 111 17
42 61 147
44 111 34
97 109 206
55 66 75
137 134 93
201 231 124
101 29 36
166 183 101
132 127 64
1 57 223
0 158 233
100 26 18
21 103 201
19 31 84
48 92 71
240 197 98
201 238 119
23 239 91
41 104 219
190 44 242
201 248 228
153 142 71
48 123 23
95 179 108
176 32 191
3 82 72
232 201 65
155 237 37
177 6 163
148 218 6
120 204 127
7 192 197
117 235 228
92 57 231
35 11 110
247 243 86
9 146 81
3 100 218
225 158 135
244 214 2
103 72 242
198 210 193
5 102 241
124 90 110
237 195 114
131 55 224
228 174 251
61 218 21
192 40 254
31 190 222
196 196 89
24 125 220
110 71 121
68 72 198
71 173 95
152 204 112
221 127 62
171 112 149
57 137 87
164 5 7
216 89 196
249 126 176
13 80 179
25 58 44
178 189 244
220 231 113
52 110 170
160 62 46
225 208 113
239 154 146
74 246 141
227 0 65
25 109 170
164 179 155
183 109 95
244 67 0
155 60 124
32 214 49
57 221 251
6 220 91
114 217 53
88 71 93
247 190 91
80 115 161
55 25 53
95 113 168
162 97 186
77 79 42
18 198 148
35 160 174
169 97 59
8 194 212
163 10 252
25 112 125
152 211 59
62 201 215
253 180 26
141 65 215
40 183 128
22 77 45
102 172 217
156 197 75
3 92 245
146 55 252
116 61 96
11 236 30
99 54 142
156 67 85
217 120 216
245 183 123
241 238 149
66 67 44
85 248 154
33 196 130
159 152 121
126 35 219
176 171 63
89 162 5
206 78 228
173 135 21
194 116 166
29 171 151
143 179 161
136 192 155
202 75 8
33 131 80
79 157 157
66 114 165
43 57 251
81 120 215
41 204 33
164 34 178
90 182 187
215 214 20
68 7 244
193 16 78
12 104 228
109 128 30
100 132 14
166 36 123
219 64 14
212 198 83
174 236 8
16 26 69
22 94 130
97 232 158
176 90 254
159 248 171
215 225 208
99 165 222
174 46 12
143 213 236
25 106 172
206 205 118
208 169 242
201 240 110
249 251 52
5 191 242
181 250 214
18 200 177
192 151 27
142 185 83
116 84 244
121 143 30
121 35 217
183 116 94
151 180 180
91 57 19
33 4 88
68 101 151
46 100 32
169 123 134
200 0 179
210 167 51
94 101 138
174 130 37
151 72 147
128 86 161
178 76 237
21 50 180
32 65 185
243 250 22
246 66 209
234 175 176
116 238 180
115 57 153
235 173 203
214 20 223
209 24 102
250 224 145
167 59 86
63 246 221
250 125 198
178 161 78
90 60 146
40 64 88
110 72 140
144 118 126
95 166 206
232 239 239
45 6 179
141 9 167
70 162 61
36 57 141
57 73 247
199 46 123
198 107 70
1 174 15
236 214 75
108 166 166
62 253 119
34 97 160
242 243 90
197 211 244
177 76 204
221 159 39
228 45 157
198 20 239
111 240 253
28 68 11
103 67 20
253 87 188
211 52 125
1 187 207
198 126 37
170 69 241
65 54 74
165 176 201
220 35 192
0 232 174
204 161 85
153 8 202
91 76 191
70 200 144
197 80 14
113 30 171
62 208 154
80 101 237
126 20 88
16 232 139
224 17 118
148 229 227
132 195 5
239 109 28
169 71 41
211 24 38
188 146 136
40 66 216
49 52 156
142 118 13
128 102 142
236 108 11
67 69 73
77 198 230
60 188 165
176 105 113
72 19 48
106 40 138
159 180 156
205 175 225
215 84 245
102 141 12
232 111 204
191 104 78
140 151 155
116 249 183
221 66 242
216 192 127
87 239 113
205 138 48
116 251 82
7 139 230
110 96 188
113 148 188
200 50 50
10 145 85
20 174 177
98 98 183
199 226 129
48 198 18
82 245 185
142 238 40
86 197 53
123 202 4
224 136 36
106 135 107
55 176 153
203 101 113
213 23 180
233 198 139
133 114 64
221 99 17
107 31 64
102 216 24
142 221 44
83 139 105
83 140 186
161 225 39
204 148 253
0 9 45
124 162 101
101 144 76
104 189 57
182 135 174
70 144 145
249 165 177
223 165 205
98 91 2
118 191 16
244 129 31
219 11 43
253 116 99
120 71 83
18 125 31
61 138 221
100 244 24
175 28 89
29 164 133
240 241 25
116 170 191
250 200 213
162 14 6
18 107 157
250 196 80
146 107 199
230 116 56
109 60 97
110 129 78
119 178 98
214 61 141
107 163 246
113 182 91
151 139 116
253 155 179
238 253 6
147 224 56
79 84 194
171 131 233
55 60 220
75 174 89
8 178 119
87 120 51
79 221 107
190 35 161
130 101 24
102 25 113
22 116 44
163 208 115
22 51 46
239 93 84
102 99 87
114 197 18
244 76 135
22 97 55
123 95 211
167 158 24
192 69 200
22 59 182
137 225 203
208 235 243
118 119 173
39 185 188
162 145 87
30 216 182
134 110 174
69 8 181
239 99 166
179 47 154
33 65 111
137 10 176
77 216 151
127 192 151
115 230 46
150 252 47
81 51 28
194 64 101
8 236 142
222 41 66
83 135 242
154 155 193
235 36 254
176 39 94
233 237 123
44 90 100
184 169 20
70 22 247
138 212 180
208 19 102
89 221 19
96 191 192
58 38 191
220 4 21
253 42 12
38 252 169
113 195 206
217 214 235
29 180 57
45 97 137
40 22 251
211 159 51
135 208 11
22 135 245
52 160 232
153 156 254
87 95 141
3 250 178
99 102 141
1 77 12
210 97 141
209 140 90
126 139 188
143 227 179
123 106 58
243 168 12
35 125 159
51 158 113
107 202 153
185 247 204
28 147 70
69 149 61
182 7 11
252 199 230
43 231 6
26 147 176
242 128 63
233 28 238
232 100 65
218 233 175
32 106 205
105 106 202
41 70 92
212 113 158
5 95 221
219 67 202
148 128 239
156 32 208
73 63 131
52 18 192
91 86 0
144 222 54
96 167 66
151 19 164
179 12 196
44 13 0
136 36 226
14 62 40
140 2 212
183 218 189
104 0 8
252 67 88
161 40 193
55 112 164
37 57 168
97 73 158
219 134 90
